%
(CAM Practice part)
(T1  D=3.175 CR=0. - ZMIN=-3. - flat end mill)
(T2  D=3.175 CR=0. TAPER=118deg - ZMIN=-4.954 - drill)
G90 G54 G64 G50 G17 G40 G80 G94 G91.1 G49
G21 (Metric)
G30

N10(Drill1)
T2 G43 H2 M6
S5000 M3 M8
G54
G0 X11.765 Y10.
G0 Z15.
G0 Z5.
G98 G81 X11.765 Y10. Z-4.954 R5. F1000.
X88.235
G80
G0 Z15.
M5 M9
G30

N20(2D Contour1)
M1
T1 G43 H1 M6
S5000 M3 M8
G0 X59.96 Y42.182
G0 Z15.
G0 Z5.
G1 Z2. F333.
G1 Z-0.683
G1 X59.968 Z-0.753 F1000.
G1 X59.991 Z-0.82
G1 X60.029 Z-0.88
G1 X60.08 Z-0.931
G1 X60.14 Z-0.969
G1 X60.207 Z-0.992
G1 X60.278 Z-1.
G1 X60.595
G3 X60.912 Y42.5 I0. J0.318
G3 X39.088 I-10.912 J0.
G3 X60.912 I10.912 J0.
G3 X60.595 Y42.818 I-0.317 J0.
G1 X60.278
G1 X60.207 Z-0.992
G1 X60.14 Z-0.969
G1 X60.08 Z-0.931
G1 X60.029 Z-0.88
G1 X59.991 Z-0.82
G1 X59.968 Z-0.753
G1 X59.96 Z-0.683
G1 Y42.182
G1 Z-1.683 F333.
G1 X59.968 Z-1.753 F1000.
G1 X59.991 Z-1.82
G1 X60.029 Z-1.88
G1 X60.08 Z-1.931
G1 X60.14 Z-1.969
G1 X60.207 Z-1.992
G1 X60.278 Z-2.
G1 X60.595
G3 X60.912 Y42.5 I0. J0.318
G3 X39.088 I-10.912 J0.
G3 X60.912 I10.912 J0.
G3 X60.595 Y42.818 I-0.317 J0.
G1 X60.278
G1 X60.207 Z-1.992
G1 X60.14 Z-1.969
G1 X60.08 Z-1.931
G1 X60.029 Z-1.88
G1 X59.991 Z-1.82
G1 X59.968 Z-1.753
G1 X59.96 Z-1.683
G1 Y42.182
G1 Z-2.683 F333.
G1 X59.968 Z-2.753 F1000.
G1 X59.991 Z-2.82
G1 X60.029 Z-2.88
G1 X60.08 Z-2.931
G1 X60.14 Z-2.969
G1 X60.207 Z-2.992
G1 X60.278 Z-3.
G1 X60.595
G3 X60.912 Y42.5 I0. J0.318
G3 X39.088 I-10.912 J0.
G3 X60.912 I10.912 J0.
G3 X60.595 Y42.818 I-0.317 J0.
G1 X60.278
G1 X60.207 Z-2.992
G1 X60.14 Z-2.969
G1 X60.08 Z-2.931
G1 X60.029 Z-2.88
G1 X59.991 Z-2.82
G1 X59.968 Z-2.753
G1 X59.96 Z-2.683
G0 Z15.

N30(2D Adaptive1)
S5000 M3 M8
G0 X79.95 Y37.419
G0 Z15.
G0 Z5.
G0 Z2.5
G3 X82.619 Y36.014 Z2.335 I1.335 J-0.702 F333.
G3 X79.95 Y37.419 Z2.169 I-1.335 J0.702
G3 X82.619 Y36.014 Z2.004 I1.335 J-0.702
G3 X79.95 Y37.419 Z1.838 I-1.335 J0.702
G3 X82.619 Y36.014 Z1.673 I1.335 J-0.702
G3 X79.95 Y37.419 Z1.507 I-1.335 J0.702
G3 X82.619 Y36.014 Z1.342 I1.335 J-0.702
G3 X79.95 Y37.419 Z1.176 I-1.335 J0.702
G3 X82.619 Y36.014 Z1.011 I1.335 J-0.702
G3 X79.95 Y37.419 Z0.845 I-1.335 J0.702
G3 X82.619 Y36.014 Z0.68 I1.335 J-0.702
G3 X79.95 Y37.419 Z0.515 I-1.335 J0.702
G3 X82.619 Y36.014 Z0.349 I1.335 J-0.702
G3 X79.95 Y37.419 Z0.184 I-1.335 J0.702
G3 X82.619 Y36.014 Z0.018 I1.335 J-0.702
G3 X79.95 Y37.419 Z-0.147 I-1.335 J0.702
G3 X82.619 Y36.014 Z-0.313 I1.335 J-0.702
G3 X79.95 Y37.419 Z-0.478 I-1.335 J0.702
G3 X82.619 Y36.014 Z-0.644 I1.335 J-0.702
G3 X79.95 Y37.419 Z-0.809 I-1.335 J0.702
G3 X82.619 Y36.014 Z-0.974 I1.335 J-0.702
G3 X82.793 Y36.716 Z-1. I-1.335 J0.702
G3 X79.776 I-1.508 J0.
G3 X82.793 I1.508 J0.
G1 X82.797 Y36.869 F1000.
G1 X82.926 Y37.414
G1 X82.946 Y37.548
G1 X82.945 Y37.683
G1 X82.926 Y37.816
G1 X82.891 Y37.946
G1 X82.841 Y38.072
G1 X82.779 Y38.192
G1 X82.706 Y38.306
G1 X82.623 Y38.412
G1 X82.532 Y38.511
G1 X82.43 Y38.604
G1 X82.318 Y38.691
G1 X82.195 Y38.772
G1 X82.062 Y38.845
G1 X81.92 Y38.908
G1 X81.77 Y38.961
G1 X81.613 Y39.003
G1 X81.45 Y39.032
G1 X81.282 Y39.049
G1 X81.111 Y39.052
G1 X80.937 Y39.041
G1 X80.763 Y39.016
G1 X80.589 Y38.977
G1 X80.417 Y38.923
G1 X80.249 Y38.855
G1 X80.085 Y38.773
G1 X79.927 Y38.678
G1 X79.777 Y38.569
G1 X79.635 Y38.449
G1 X79.502 Y38.316
G1 X79.38 Y38.173
G1 X79.269 Y38.02
G1 X79.171 Y37.857
G1 X79.086 Y37.687
G1 X79.015 Y37.511
G1 X78.957 Y37.328
G1 X78.915 Y37.142
G1 X78.888 Y36.952
G1 X78.876 Y36.76
G1 X78.879 Y36.568
G1 X78.898 Y36.377
G1 X78.932 Y36.187
G1 X78.981 Y36.
G1 X79.046 Y35.818
G1 X79.124 Y35.642
G1 X79.217 Y35.473
G1 X79.323 Y35.311
G1 X79.442 Y35.158
G1 X79.572 Y35.015
G1 X79.714 Y34.883
G1 X79.866 Y34.763
G1 X80.027 Y34.656
G1 X80.196 Y34.561
G1 X80.372 Y34.481
G1 X80.554 Y34.415
G1 X80.741 Y34.364
G1 X80.931 Y34.328
G1 X81.124 Y34.307
G1 X81.318 Y34.302
G1 X81.511 Y34.312
G1 X81.704 Y34.338
G1 X81.893 Y34.379
G1 X82.079 Y34.436
G1 X82.259 Y34.507
G1 X82.433 Y34.592
G1 X82.6 Y34.691
G1 X82.758 Y34.803
G1 X82.907 Y34.928
G1 X83.045 Y35.063
G1 X83.172 Y35.21
G1 X83.287 Y35.366
G1 X83.43 Y35.598
G1 X83.626 Y35.981
G1 X83.753 Y36.289
G1 X83.838 Y36.553
G1 X83.895 Y36.795
G1 X83.931 Y37.026
G1 X83.946 Y37.248
G1 X83.944 Y37.463
G1 X83.925 Y37.673
G1 X83.89 Y37.879
G1 X83.839 Y38.079
G1 X83.771 Y38.276
G1 X83.688 Y38.467
G1 X83.589 Y38.652
G1 X83.474 Y38.831
G1 X83.344 Y39.001
G1 X83.199 Y39.162
G1 X83.039 Y39.313
G1 X82.866 Y39.452
G1 X82.679 Y39.579
G1 X82.48 Y39.693
G1 X82.27 Y39.791
G1 X82.049 Y39.873
G1 X81.819 Y39.938
G1 X81.582 Y39.985
G1 X81.34 Y40.013
G1 X81.093 Y40.022
G1 X80.844 Y40.01
G1 X80.594 Y39.979
G1 X80.345 Y39.927
G1 X80.1 Y39.854
G1 X79.86 Y39.762
G1 X79.626 Y39.65
G1 X79.4 Y39.519
G1 X79.185 Y39.369
G1 X78.982 Y39.201
G1 X78.791 Y39.017
G1 X78.615 Y38.817
G1 X78.455 Y38.603
G1 X78.313 Y38.377
G1 X78.189 Y38.138
G1 X78.083 Y37.89
G1 X77.998 Y37.633
G1 X77.934 Y37.37
G1 X77.891 Y37.102
G1 X77.869 Y36.831
G1 X77.87 Y36.559
G1 X77.892 Y36.287
G1 X77.936 Y36.018
G1 X78.002 Y35.753
G1 X78.088 Y35.493
G1 X78.196 Y35.241
G1 X78.323 Y34.999
G1 X78.469 Y34.767
G1 X78.634 Y34.548
G1 X78.816 Y34.342
G1 X79.014 Y34.152
G1 X79.226 Y33.978
G1 X79.452 Y33.822
G1 X79.69 Y33.684
G1 X79.938 Y33.566
G1 X80.195 Y33.468
G1 X80.459 Y33.391
G1 X80.728 Y33.335
G1 X81.001 Y33.301
G1 X81.276 Y33.289
G1 X81.551 Y33.3
G1 X81.824 Y33.332
G1 X82.094 Y33.386
G1 X82.358 Y33.462
G1 X82.616 Y33.558
G1 X82.865 Y33.675
G1 X83.104 Y33.812
G1 X83.331 Y33.967
G1 X83.557 Y34.15
G1 X83.798 Y34.379
G1 X84.025 Y34.633
G1 X84.239 Y34.915
G1 X84.431 Y35.215
G1 X84.596 Y35.524
G1 X84.731 Y35.836
G1 X84.838 Y36.15
G1 X84.917 Y36.462
G1 X84.97 Y36.774
G1 X84.997 Y37.085
G1 X84.999 Y37.392
G1 X84.977 Y37.696
G1 X84.931 Y37.994
G1 X84.861 Y38.287
G1 X84.768 Y38.573
G1 X84.653 Y38.85
G1 X84.515 Y39.117
G1 X84.356 Y39.373
G1 X84.176 Y39.617
G1 X83.976 Y39.847
G1 X83.756 Y40.062
G1 X83.519 Y40.26
G1 X83.264 Y40.439
G1 X82.993 Y40.599
G1 X82.707 Y40.738
G1 X82.409 Y40.855
G1 X82.1 Y40.948
G1 X81.782 Y41.016
G1 X81.457 Y41.059
G1 X81.127 Y41.076
G1 X80.795 Y41.067
G1 X80.462 Y41.03
G1 X80.131 Y40.966
G1 X79.804 Y40.876
G1 X79.484 Y40.759
G1 X79.173 Y40.616
G1 X78.872 Y40.447
G1 X78.585 Y40.254
G1 X78.312 Y40.038
G1 X78.057 Y39.799
G1 X77.821 Y39.54
G1 X77.606 Y39.261
G1 X77.414 Y38.966
G1 X77.245 Y38.655
G1 X77.101 Y38.33
G1 X76.984 Y37.994
G1 X76.893 Y37.65
G1 X76.831 Y37.298
G1 X76.797 Y36.942
G1 X76.791 Y36.584
G1 X76.815 Y36.226
G1 X76.867 Y35.871
G1 X76.947 Y35.52
G1 X77.056 Y35.177
G1 X77.191 Y34.844
G1 X77.353 Y34.522
G1 X77.541 Y34.214
G1 X77.753 Y33.922
G1 X77.987 Y33.648
G1 X78.243 Y33.394
G1 X78.519 Y33.16
G1 X78.813 Y32.95
G1 X79.122 Y32.764
G1 X79.446 Y32.603
G1 X79.781 Y32.469
G1 X80.127 Y32.362
G1 X80.48 Y32.283
G1 X80.838 Y32.232
G1 X81.199 Y32.211
G1 X81.561 Y32.218
G1 X81.921 Y32.255
G1 X82.276 Y32.32
G1 X82.626 Y32.414
G1 X82.967 Y32.535
G1 X83.3 Y32.685
G1 X83.632 Y32.868
G1 X83.958 Y33.083
G1 X84.276 Y33.331
G1 X84.58 Y33.611
G1 X84.864 Y33.919
G1 X85.125 Y34.25
G1 X85.358 Y34.601
G1 X85.561 Y34.968
G1 X85.733 Y35.347
G1 X85.872 Y35.735
G1 X85.979 Y36.129
G1 X86.053 Y36.527
G1 X86.094 Y36.926
G1 X86.104 Y37.325
G1 X86.081 Y37.72
G1 X86.027 Y38.11
G1 X85.942 Y38.494
G1 X85.827 Y38.869
G1 X85.683 Y39.233
G1 X85.509 Y39.585
G1 X85.307 Y39.922
G1 X85.079 Y40.243
G1 X84.824 Y40.545
G1 X84.545 Y40.827
G1 X84.242 Y41.088
G1 X83.918 Y41.324
G1 X83.573 Y41.535
G1 X83.211 Y41.719
G1 X82.833 Y41.874
G1 X82.441 Y41.999
G1 X82.038 Y42.093
G1 X81.627 Y42.154
G1 X81.209 Y42.183
G1 X80.788 Y42.177
G1 X80.367 Y42.138
G1 X79.948 Y42.065
G1 X79.534 Y41.957
G1 X79.129 Y41.817
G1 X78.734 Y41.643
G1 X78.352 Y41.437
G1 X77.987 Y41.201
G1 X77.641 Y40.935
G1 X77.316 Y40.641
G1 X77.015 Y40.32
G1 X76.74 Y39.976
G1 X76.493 Y39.61
G1 X76.275 Y39.224
G1 X76.089 Y38.821
G1 X75.935 Y38.403
G1 X75.815 Y37.974
G1 X75.729 Y37.536
G1 X75.679 Y37.091
G1 X75.665 Y36.643
G1 X75.687 Y36.195
G1 X75.745 Y35.75
G1 X75.838 Y35.311
G1 X75.966 Y34.88
G1 X76.129 Y34.46
G1 X76.325 Y34.054
G1 X76.553 Y33.666
G1 X76.812 Y33.296
G1 X77.1 Y32.949
G1 X77.415 Y32.626
G1 X77.754 Y32.328
G1 X78.117 Y32.059
G1 X78.5 Y31.82
G1 X78.902 Y31.612
G1 X79.318 Y31.437
G1 X79.748 Y31.296
G1 X80.187 Y31.19
G1 X80.634 Y31.12
G1 X81.085 Y31.086
G1 X81.537 Y31.088
G1 X81.988 Y31.126
G1 X82.435 Y31.201
G1 X82.877 Y31.311
G1 X83.313 Y31.459
G1 X83.741 Y31.643
G1 X84.16 Y31.864
G1 X84.567 Y32.123
G1 X84.959 Y32.42
G1 X85.332 Y32.751
G1 X85.679 Y33.115
G1 X85.998 Y33.507
G1 X86.285 Y33.925
G1 X86.537 Y34.363
G1 X86.753 Y34.819
G1 X86.93 Y35.288
G1 X87.068 Y35.767
G1 X87.167 Y36.254
G1 X87.226 Y36.744
G1 X87.246 Y37.234
G1 X87.226 Y37.723
G1 X87.168 Y38.207
G1 X87.07 Y38.683
G1 X86.936 Y39.149
G1 X86.764 Y39.603
G1 X86.556 Y40.041
G1 X86.314 Y40.462
G1 X86.038 Y40.863
G1 X85.73 Y41.242
G1 X85.392 Y41.595
G1 X85.024 Y41.922
G1 X84.63 Y42.219
G1 X84.212 Y42.485
G1 X83.772 Y42.717
G1 X83.312 Y42.915
G1 X82.836 Y43.075
G1 X82.346 Y43.198
G1 X81.845 Y43.281
G1 X81.337 Y43.324
G1 X80.825 Y43.326
G1 X80.312 Y43.286
G1 X79.801 Y43.206
G1 X79.297 Y43.084
G1 X78.802 Y42.921
G1 X78.32 Y42.719
G1 X77.854 Y42.477
G1 X77.407 Y42.198
G1 X76.983 Y41.883
G1 X76.584 Y41.534
G1 X76.214 Y41.153
G1 X75.875 Y40.742
G1 X75.569 Y40.305
G1 X75.298 Y39.843
G1 X75.065 Y39.36
G1 X74.871 Y38.859
G1 X74.717 Y38.344
G1 X74.606 Y37.817
G1 X74.537 Y37.281
G1 X74.511 Y36.742
G1 X74.528 Y36.201
G1 X74.589 Y35.663
G1 X74.693 Y35.132
G1 X74.839 Y34.609
G1 X75.027 Y34.1
G1 X75.255 Y33.608
G1 X75.523 Y33.135
G1 X75.827 Y32.684
G1 X76.167 Y32.26
G1 X76.54 Y31.864
G1 X76.943 Y31.499
G1 X77.375 Y31.167
G1 X77.832 Y30.871
G1 X78.312 Y30.613
G1 X78.81 Y30.394
G1 X79.325 Y30.216
G1 X79.853 Y30.079
G1 X80.39 Y29.986
G1 X80.932 Y29.936
G1 X81.478 Y29.929
G1 X82.023 Y29.966
G1 X82.565 Y30.047
G1 X83.103 Y30.173
G1 X83.633 Y30.342
G1 X84.153 Y30.556
G1 X84.661 Y30.814
G1 X85.152 Y31.115
G1 X85.623 Y31.459
G1 X86.069 Y31.843
G1 X86.485 Y32.264
G1 X86.867 Y32.719
G1 X87.213 Y33.204
G1 X87.518 Y33.715
G1 X87.781 Y34.249
G1 X88. Y34.8
G1 X88.173 Y35.366
G1 X88.3 Y35.942
G1 X88.38 Y36.523
G1 X88.413 Y37.108
G1 X88.399 Y37.691
G1 X88.338 Y38.27
G1 X88.232 Y38.842
G1 X88.08 Y39.402
G1 X87.883 Y39.948
G1 X87.644 Y40.476
G1 X87.362 Y40.984
G1 X87.041 Y41.468
G1 X86.68 Y41.926
G1 X86.283 Y42.354
G1 X85.852 Y42.751
G1 X85.389 Y43.112
G1 X84.897 Y43.437
G1 X84.378 Y43.722
G1 X83.836 Y43.965
G1 X83.274 Y44.165
G1 X82.696 Y44.32
G1 X82.104 Y44.428
G1 X81.504 Y44.488
G1 X80.898 Y44.501
G1 X80.291 Y44.464
G1 X79.687 Y44.379
G1 X79.092 Y44.245
G1 X78.51 Y44.065
G1 X77.944 Y43.839
G1 X77.397 Y43.568
G1 X76.874 Y43.256
G1 X76.376 Y42.903
G1 X75.908 Y42.512
G1 X75.472 Y42.086
G1 X75.071 Y41.627
G1 X74.706 Y41.138
G1 X74.381 Y40.623
G1 X74.097 Y40.083
G1 X73.856 Y39.523
G1 X73.66 Y38.946
G1 X73.509 Y38.355
G1 X73.404 Y37.755
G1 X73.345 Y37.148
G1 X73.334 Y36.538
G1 X73.369 Y35.929
G1 X73.452 Y35.325
G1 X73.58 Y34.729
G1 X73.754 Y34.145
G1 X73.972 Y33.575
G1 X74.233 Y33.024
G1 X74.535 Y32.495
G1 X74.877 Y31.99
G1 X75.257 Y31.513
G1 X75.672 Y31.067
G1 X76.12 Y30.653
G1 X76.598 Y30.275
G1 X77.104 Y29.934
G1 X77.635 Y29.634
G1 X78.186 Y29.374
G1 X78.756 Y29.158
G1 X79.341 Y28.986
G1 X79.938 Y28.86
G1 X80.542 Y28.78
G1 X81.151 Y28.747
G1 X81.761 Y28.761
G1 X82.368 Y28.821
G1 X82.968 Y28.927
G1 X83.559 Y29.078
G1 X84.137 Y29.272
G1 X84.698 Y29.51
G1 X85.241 Y29.787
G1 X85.762 Y30.103
G1 X86.26 Y30.456
G1 X86.731 Y30.844
G1 X87.171 Y31.265
G1 X87.58 Y31.717
G1 X87.956 Y32.197
G1 X88.297 Y32.703
G1 X88.601 Y33.231
G1 X88.867 Y33.78
G1 X89.094 Y34.346
G1 X89.281 Y34.926
G1 X89.426 Y35.518
G1 X89.527 Y36.12
G1 X89.584 Y36.727
G1 X89.597 Y37.336
G1 X89.566 Y37.945
G1 X89.491 Y38.55
G1 X89.373 Y39.149
G1 X89.213 Y39.737
G1 X89.011 Y40.312
G1 X88.768 Y40.871
G1 X88.485 Y41.412
G1 X88.163 Y41.929
G1 X87.804 Y42.422
G1 X87.41 Y42.887
G1 X86.984 Y43.323
G1 X86.527 Y43.727
G1 X86.043 Y44.098
G1 X85.534 Y44.433
G1 X85.003 Y44.732
G1 X84.451 Y44.993
G1 X83.883 Y45.213
G1 X83.3 Y45.391
G1 X82.705 Y45.528
G1 X82.103 Y45.622
G1 X81.496 Y45.674
G1 X80.886 Y45.685
G1 X80.277 Y45.654
G1 X79.672 Y45.581
G1 X79.073 Y45.464
G1 X78.484 Y45.306
G1 X77.908 Y45.107
G1 X77.346 Y44.869
G1 X76.802 Y44.594
G1 X76.278 Y44.283
G1 X75.775 Y43.938
G1 X75.298 Y43.559
G1 X74.848 Y43.147
G1 X74.428 Y42.705
G1 X74.039 Y42.236
G1 X73.682 Y41.742
G1 X73.359 Y41.225
G1 X73.07 Y40.687
G1 X72.819 Y40.132
G1 X72.606 Y39.56
G1 X72.434 Y38.976
G1 X72.302 Y38.38
G1 X72.21 Y37.778
G1 X72.157 Y37.17
G1 X72.145 Y36.561
G1 X72.173 Y35.952
G1 X72.242 Y35.346
G1 X72.353 Y34.746
G1 X72.504 Y34.155
G1 X72.694 Y33.576
G1 X72.922 Y33.011
G1 X73.187 Y32.461
G1 X73.487 Y31.93
G1 X73.821 Y31.42
G1 X74.189 Y30.934
G1 X74.589 Y30.475
G1 X75.02 Y30.043
G1 X75.478 Y29.641
G1 X75.962 Y29.269
G1 X76.469 Y28.93
G1 X76.996 Y28.625
G1 X77.543 Y28.356
G1 X78.108 Y28.125
G1 X78.686 Y27.933
G1 X79.277 Y27.78
G1 X79.876 Y27.667
G1 X80.481 Y27.593
G1 X81.09 Y27.56
G1 X81.699 Y27.566
G1 X82.307 Y27.613
G1 X82.911 Y27.701
G1 X83.507 Y27.83
G1 X84.093 Y27.997
G1 X84.667 Y28.202
G1 X85.227 Y28.443
G1 X85.771 Y28.719
G1 X86.297 Y29.028
G1 X86.801 Y29.37
G1 X87.283 Y29.744
G1 X87.739 Y30.149
G1 X88.168 Y30.582
G1 X88.569 Y31.041
G1 X88.941 Y31.524
G1 X89.283 Y32.029
G1 X89.593 Y32.554
G1 X89.87 Y33.097
G1 X90.112 Y33.657
G1 X90.318 Y34.231
G1 X90.488 Y34.816
G1 X90.62 Y35.412
G1 X90.715 Y36.014
G1 X90.772 Y36.621
G1 X90.791 Y37.23
G1 X90.772 Y37.84
G1 X90.713 Y38.447
G1 X90.616 Y39.049
G1 X90.48 Y39.643
G1 X90.308 Y40.228
G1 X90.099 Y40.801
G1 X89.856 Y41.36
G1 X89.578 Y41.902
G1 X89.265 Y42.426
G1 X88.919 Y42.928
G1 X88.541 Y43.406
G1 X88.134 Y43.86
G1 X87.699 Y44.287
G1 X87.238 Y44.686
G1 X86.753 Y45.057
G1 X86.247 Y45.397
G1 X85.721 Y45.705
G1 X85.176 Y45.979
G1 X84.615 Y46.216
G1 X84.04 Y46.418
G1 X83.453 Y46.584
G1 X82.857 Y46.713
G1 X82.254 Y46.806
G1 X81.647 Y46.863
G1 X81.038 Y46.883
G1 X80.429 Y46.866
G1 X79.821 Y46.809
G1 X79.219 Y46.715
G1 X78.624 Y46.584
G1 X78.037 Y46.417
G1 X77.462 Y46.215
G1 X76.899 Y45.98
G1 X76.352 Y45.712
G1 X75.821 Y45.411
G1 X75.372 Y45.117
G1 X75.295 Y45.05
G1 X73.576 Y43.331
G1 X73.167 Y42.879
G1 X72.805 Y42.453
G1 X72.45 Y41.959
G1 X72.135 Y41.437
G1 X71.859 Y40.893
G1 X71.621 Y40.332
G1 X71.419 Y39.756
G1 X71.253 Y39.17
G1 X71.123 Y38.574
G1 X71.028 Y37.972
G1 X70.969 Y37.365
G1 X70.945 Y36.755
G1 X70.959 Y36.146
G1 X71.009 Y35.538
G1 X71.096 Y34.935
G1 X71.219 Y34.338
G1 X71.377 Y33.749
G1 X71.568 Y33.17
G1 X71.793 Y32.603
G1 X72.05 Y32.05
G1 X72.338 Y31.513
G1 X72.659 Y30.995
G1 X73.011 Y30.497
G1 X73.392 Y30.02
G1 X73.8 Y29.567
G1 X74.234 Y29.139
G1 X74.692 Y28.737
G1 X75.172 Y28.361
G1 X75.673 Y28.014
G1 X76.194 Y27.697
G1 X76.734 Y27.412
G1 X77.289 Y27.161
G1 X77.858 Y26.943
G1 X78.44 Y26.759
G1 X79.071 Y26.601
G1 X79.211 Y26.587
G1 X82.283
G1 X82.892 Y26.618
G1 X83.404 Y26.668
G1 X83.994 Y26.775
G1 X84.583 Y26.931
G1 X85.16 Y27.129
G1 X85.723 Y27.363
G1 X86.27 Y27.631
G1 X86.801 Y27.931
G1 X87.313 Y28.262
G1 X87.804 Y28.624
G1 X88.273 Y29.013
G1 X88.72 Y29.429
G1 X89.142 Y29.869
G1 X89.539 Y30.331
G1 X89.91 Y30.815
G1 X90.255 Y31.318
G1 X90.571 Y31.839
G1 X90.859 Y32.377
G1 X91.114 Y32.93
G1 X91.338 Y33.498
G1 X91.396 Y33.687
G1 X91.412 Y33.843
G1 Y39.453
G1 X91.386 Y39.98
G1 X91.332 Y40.393
G1 X91.235 Y40.845
G1 X91.077 Y41.373
G1 X90.856 Y41.942
G1 X90.591 Y42.491
G1 X90.289 Y43.02
G1 X89.953 Y43.53
G1 X89.588 Y44.017
G1 X89.193 Y44.482
G1 X88.771 Y44.923
G1 X88.326 Y45.339
G1 X87.857 Y45.729
G1 X87.368 Y46.093
G1 X86.86 Y46.43
G1 X86.334 Y46.738
G1 X85.791 Y47.016
G1 X85.234 Y47.264
G1 X84.664 Y47.479
G1 X84.082 Y47.661
G1 X83.491 Y47.811
G1 X82.893 Y47.928
G1 X82.289 Y48.013
G1 X81.681 Y48.066
G1 X81.072 Y48.085
G1 X80.462 Y48.071
G1 X79.854 Y48.024
G1 X79.25 Y47.943
G1 X78.651 Y47.828
G1 X78.041 Y47.674
G1 X77.929 Y47.63
G1 X77.826 Y47.568
G1 X77.735 Y47.49
G1 X75.295 Y45.05
G1 X75.207 Y44.961
G1 X73.664 Y43.419
G1 X73.576 Y43.331
G1 X71.083 Y40.838
G1 X70.934 Y40.673
G1 X70.777 Y40.468
G1 X70.606 Y40.204
G1 X70.435 Y39.889
G1 X70.257 Y39.482
G1 X70.092 Y39.008
G1 X69.945 Y38.438
G1 X69.84 Y37.838
G1 X69.778 Y37.231
G1 X69.756 Y36.622
G1 X69.77 Y36.012
G1 X69.819 Y35.405
G1 X69.901 Y34.8
G1 X70.016 Y34.202
G1 X70.162 Y33.61
G1 X70.34 Y33.027
G1 X70.549 Y32.454
G1 X70.788 Y31.893
G1 X71.056 Y31.345
G1 X71.353 Y30.813
G1 X71.678 Y30.297
G1 X72.03 Y29.799
G1 X72.407 Y29.32
G1 X72.809 Y28.861
G1 X73.234 Y28.424
G1 X73.682 Y28.011
G1 X74.151 Y27.621
G1 X74.64 Y27.257
G1 X75.148 Y26.919
G1 X75.535 Y26.691
G1 X75.654 Y26.634
G1 X75.781 Y26.599
G1 X75.912 Y26.587
G1 X79.211
G1 X79.249 Y26.596 Z-0.994
G1 X79.282 Y26.604 Z-0.976
G1 X79.309 Y26.61 Z-0.948
G1 X79.326 Y26.615 Z-0.914
G1 X79.332 Y26.616 Z-0.875
G0 Z5.
G0 X71.04 Y40.479
G0 Z-0.365
G1 Z-0.683 F1000.
G1 X71.044 Y40.487 Z-0.753
G1 X71.054 Y40.508 Z-0.82
G1 X71.071 Y40.541 Z-0.88
G1 X71.094 Y40.586 Z-0.931
G1 X71.121 Y40.64 Z-0.969
G1 X71.151 Y40.7 Z-0.992
G1 X71.183 Y40.763 Z-1.
G1 X71.189 Y40.792
G1 X71.183 Y40.82
G1 X71.164 Y40.842
G1 X71.137 Y40.854
G1 X71.108 Y40.852
G1 X71.083 Y40.838
G1 X69.651 Y39.401
G1 X69.606 Y39.314
G1 X69.591 Y39.245
G1 X69.588 Y32.943
G1 X69.61 Y32.503
G1 X69.654 Y32.16
G1 X69.736 Y31.78
G1 X69.873 Y31.323
G1 X70.082 Y30.787
G1 X70.348 Y30.238
G1 X70.652 Y29.71
G1 X70.988 Y29.201
G1 X71.352 Y28.712
G1 X71.742 Y28.243
G1 X72.155 Y27.795
G1 X72.59 Y27.368
G1 X73.046 Y26.962
G1 X73.307 Y26.752
G1 X73.448 Y26.662
G1 X73.606 Y26.606
G1 X73.772 Y26.587
G3 X74.028 Y27.076 I-0.011 J0.317
G1 X70.172 Y33.103
G3 X69.588 Y32.943 I-0.267 J-0.171
G1 Y30.45
G1 X69.601 Y30.175
G1 X69.632 Y29.939
G1 X69.688 Y29.68
G1 X69.781 Y29.368
G1 X69.916 Y29.02
G1 X70.119 Y28.603
G1 X70.401 Y28.125
G1 X70.751 Y27.626
G1 X71.138 Y27.154
G1 X71.445 Y26.824
G1 X71.602 Y26.696
G1 X71.787 Y26.615
G1 X71.987 Y26.587
G3 X72.25 Y27.065 I-0.011 J0.317
G1 X70.179 Y30.599
G3 X69.906 Y30.756 I-0.274 J-0.161
G1 X69.905
G3 X69.588 Y30.45 I0. J-0.317
G1 Y28.511
G1 X69.601 Y28.247
G1 X69.625 Y28.065
G1 X69.671 Y27.846
G1 X69.747 Y27.594
G1 X69.855 Y27.318
G1 X69.987 Y27.046
G1 X70.041 Y26.952
G1 X70.159 Y26.801
G1 X70.312 Y26.685
G1 X70.49 Y26.612
G1 X70.68 Y26.587
G3 X70.955 Y27.042 I-0.011 J0.317
G1 X70.191 Y28.637
G3 X69.588 Y28.511 I-0.286 J-0.137
G1 Y26.987
G1 X69.596 Y26.849
G1 X69.642 Y26.745
G1 X69.709 Y26.664
G1 X69.779 Y26.619
G1 X69.883 Y26.589
G1 X75.912 Y26.587
G1 X75.949 Y26.596 Z-0.994
G1 X75.983 Y26.604 Z-0.976
G1 X76.01 Y26.61 Z-0.948
G1 X76.027 Y26.615 Z-0.914
G1 X76.033 Y26.616 Z-0.875
G0 Z5.
G0 X82.567 Y26.811
G0 Z-0.365
G1 Z-0.683 F1000.
G1 X82.559 Y26.808 Z-0.753
G1 X82.537 Y26.801 Z-0.82
G1 X82.501 Y26.789 Z-0.88
G1 X82.454 Y26.773 Z-0.931
G1 X82.396 Y26.754 Z-0.969
G1 X82.333 Y26.733 Z-0.992
G1 X82.266 Y26.711 Z-1.
G1 X82.241 Y26.696
G1 X82.225 Y26.671
G1 X82.223 Y26.642
G1 X82.234 Y26.615
G1 X82.255 Y26.595
G1 X82.283 Y26.587
G1 X85.609
G1 X85.892 Y26.602
G1 X86.158 Y26.637
G1 X86.462 Y26.702
G1 X86.815 Y26.807
G1 X87.231 Y26.969
G1 X87.678 Y27.186
G1 X88.192 Y27.489
G1 X88.691 Y27.84
G1 X89.165 Y28.224
G1 X89.614 Y28.636
G1 X90.039 Y29.074
G1 X90.44 Y29.533
G1 X90.817 Y30.012
G1 X91.169 Y30.509
G1 X91.297 Y30.711
G1 X91.36 Y30.835
G1 X91.399 Y30.969
G1 X91.412 Y31.108
G3 X90.902 Y31.349 I-0.317 J-0.011
G1 X85.427 Y27.157
G3 X85.609 Y26.587 I0.193 J-0.252
G1 X87.687
G1 X87.945 Y26.6
G1 X88.147 Y26.627
G1 X88.369 Y26.674
G1 X88.64 Y26.755
G1 X88.923 Y26.866
G1 X89.27 Y27.034
G1 X89.648 Y27.257
G1 X90.078 Y27.559
G1 X90.548 Y27.949
G1 X90.985 Y28.373
G1 X91.22 Y28.632
G1 X91.325 Y28.78
G1 X91.39 Y28.949
G1 X91.412 Y29.129
G3 X90.922 Y29.384 I-0.317 J-0.011
G1 X87.525 Y27.171
G3 X87.687 Y26.587 I0.173 J-0.266
G1 X89.488
G1 X89.686 Y26.597
G1 X89.864 Y26.621
G1 X90.07 Y26.665
G1 X90.282 Y26.728
G1 X90.542 Y26.83
G1 X90.815 Y26.962
G1 X91.098 Y27.129
G1 X91.229 Y27.247
G1 X91.329 Y27.393
G1 X91.391 Y27.559
G1 X91.412 Y27.735
G3 X90.95 Y28.006 I-0.317 J-0.011
G1 X89.354 Y27.187
G3 X89.488 Y26.587 I0.145 J-0.282
G1 X90.95
G1 X90.984
G1 X91.012
G1 X91.143 Y26.594
G3 X91.092 Y27.045 I-0.046 J0.223
G1 X91.04 Y27.043
G1 X91.014
G3 X91.012 Y26.587 I0.006 J-0.228
G1 X91.151 Y26.595
G1 X91.255 Y26.639
G1 X91.331 Y26.71
G1 X91.378 Y26.779
G1 X91.41 Y26.883
G1 X91.412 Y33.843
G1 Y33.968
G1 Y39.328
G1 Y39.453
G1 Y42.223
G1 X91.4 Y42.464
G1 X91.369 Y42.701
G1 X91.311 Y42.974
G1 X91.219 Y43.282
G1 X91.08 Y43.637
G1 X90.878 Y44.053
G1 X90.617 Y44.498
G1 X90.266 Y44.997
G1 X89.877 Y45.466
G1 X89.457 Y45.909
G1 X89.012 Y46.325
G1 X88.544 Y46.715
G1 X88.055 Y47.081
G1 X87.549 Y47.421
G1 X87.026 Y47.734
G1 X86.488 Y48.021
G1 X85.936 Y48.279
G1 X85.371 Y48.509
G1 X84.795 Y48.708
G1 X84.21 Y48.879
G1 X83.616 Y49.021
G1 X83.017 Y49.133
G1 X82.413 Y49.216
G1 X81.806 Y49.27
G1 X81.197 Y49.294
G1 X80.587 Y49.288
G1 X79.978 Y49.252
G1 X79.695 Y49.221
G1 X79.533 Y49.184
G1 X79.383 Y49.112
G1 X79.253 Y49.008
G1 X77.735 Y47.49
G3 X77.853 Y46.977 I0.232 J-0.217
G1 X90.981 Y41.938
G3 X91.412 Y42.223 I0.114 J0.296
G1 Y44.162
G1 X91.401 Y44.396
G1 X91.377 Y44.575
G1 X91.331 Y44.79
G1 X91.257 Y45.037
G1 X91.153 Y45.304
G1 X91. Y45.62
G1 X90.794 Y45.969
G1 X90.521 Y46.358
G1 X90.153 Y46.802
G1 X89.727 Y47.238
G1 X89.272 Y47.643
G1 X88.792 Y48.02
G1 X88.293 Y48.37
G1 X87.777 Y48.695
G1 X87.245 Y48.993
G1 X86.699 Y49.264
G1 X86.14 Y49.509
G1 X85.571 Y49.726
G1 X84.992 Y49.917
G1 X84.405 Y50.082
G1 X83.811 Y50.22
G1 X83.211 Y50.331
G1 X82.608 Y50.416
G1 X82.001 Y50.474
G1 X81.392 Y50.505
G1 X81.065 Y50.508
G1 X80.871 Y50.483
G1 X80.691 Y50.409
G1 X80.536 Y50.291
G1 X79.253 Y49.008
G3 X79.368 Y48.497 I0.232 J-0.217
G1 X90.978 Y43.878
G3 X91.412 Y44.162 I0.117 J0.295
G1 Y45.963
G1 X91.406 Y46.098
G1 X91.378 Y46.281
G1 X91.334 Y46.467
G1 X91.262 Y46.689
G1 X91.158 Y46.939
G1 X91.02 Y47.209
G1 X90.828 Y47.521
G1 X90.571 Y47.87
G1 X90.245 Y48.246
G1 X89.811 Y48.672
G1 X89.343 Y49.063
G1 X88.85 Y49.423
G1 X88.338 Y49.753
G1 X87.809 Y50.056
G1 X87.266 Y50.333
G1 X86.71 Y50.584
G1 X86.144 Y50.81
G1 X85.568 Y51.012
G1 X84.985 Y51.188
G1 X84.394 Y51.339
G1 X83.798 Y51.466
G1 X83.196 Y51.568
G1 X82.592 Y51.645
G1 X82.289 Y51.671
G1 X82.075 Y51.658
G1 X81.874 Y51.585
G1 X81.702 Y51.457
G1 X80.536 Y50.291
G3 X80.651 Y49.779 I0.232 J-0.217
G1 X90.978 Y45.679
G3 X91.412 Y45.963 I0.117 J0.295
G1 Y47.486
G1 X91.406 Y47.621
G1 X91.384 Y47.783
G1 X91.348 Y47.95
G1 X91.288 Y48.15
G1 X91.199 Y48.375
G1 X91.085 Y48.61
G1 X90.92 Y48.889
G1 X90.717 Y49.177
G1 X90.44 Y49.509
G1 X90.076 Y49.88
G1 X89.616 Y50.28
G1 X89.125 Y50.642
G1 X88.611 Y50.97
G1 X88.08 Y51.269
G1 X87.534 Y51.541
G1 X86.976 Y51.787
G1 X86.408 Y52.008
G1 X85.831 Y52.206
G1 X85.247 Y52.38
G1 X84.656 Y52.531
G1 X84.06 Y52.659
G1 X83.402 Y52.77
G1 X83.184 Y52.76
G1 X82.977 Y52.687
G1 X82.802 Y52.557
G1 X81.702 Y51.457
G3 X81.814 Y50.946 I0.232 J-0.217
G1 X90.975 Y47.203
G3 X91.412 Y47.486 I0.12 J0.294
G1 Y49.01
G1 X91.406 Y49.145
G1 X91.38 Y49.302
G1 X91.334 Y49.484
G1 X91.272 Y49.668
G1 X91.178 Y49.889
G1 X91.052 Y50.128
G1 X90.889 Y50.384
G1 X90.671 Y50.673
G1 X90.389 Y50.99
G1 X90.04 Y51.325
G1 X89.58 Y51.699
G1 X89.078 Y52.045
G1 X88.554 Y52.357
G1 X88.013 Y52.638
G1 X87.459 Y52.893
G1 X86.894 Y53.122
G1 X86.32 Y53.327
G1 X85.738 Y53.51
G1 X85.15 Y53.67
G1 X84.519 Y53.806
G1 X84.338 Y53.82
G1 X84.158 Y53.789
G1 X83.992 Y53.716
G1 X83.849 Y53.604
G1 X82.802 Y52.557
G3 X82.913 Y52.046 I0.232 J-0.217
G1 X90.974 Y48.727
G3 X91.412 Y49.01 I0.121 J0.294
G1 Y50.395
G1 X91.406 Y50.53
G1 X91.387 Y50.667
G1 X91.351 Y50.83
G1 X91.296 Y51.011
G1 X91.221 Y51.201
G1 X91.109 Y51.428
G1 X90.973 Y51.657
G1 X90.785 Y51.922
G1 X90.553 Y52.199
G1 X90.24 Y52.516
G1 X89.854 Y52.85
G1 X89.362 Y53.21
G1 X88.843 Y53.53
G1 X88.305 Y53.817
G1 X87.752 Y54.073
G1 X87.187 Y54.304
G1 X86.614 Y54.511
G1 X86.032 Y54.694
G1 X85.585 Y54.81
G1 X85.513 Y54.823
G1 X85.336 Y54.832
G1 X85.162 Y54.799
G1 X85.001 Y54.726
G1 X84.862 Y54.617
G1 X83.849 Y53.604
G3 X83.957 Y53.095 I0.232 J-0.217
G1 X90.971 Y50.114
G3 X91.412 Y50.395 I0.124 J0.292
G1 Y51.78
G1 X91.406 Y51.915
G1 X91.385 Y52.063
G1 X91.35 Y52.214
G1 X91.296 Y52.388
G1 X91.216 Y52.588
G1 X91.116 Y52.789
G1 X90.97 Y53.029
G1 X90.795 Y53.273
G1 X90.557 Y53.553
G1 X90.273 Y53.837
G1 X89.895 Y54.16
G1 X89.413 Y54.508
G1 X88.891 Y54.824
G1 X88.35 Y55.105
G1 X87.794 Y55.355
G1 X87.227 Y55.579
G1 X86.757 Y55.737
G1 X86.542 Y55.79
G1 X86.354 Y55.812
G1 X86.165 Y55.785
G1 X85.991 Y55.711
G1 X85.84 Y55.595
G1 X84.862 Y54.617
G3 X84.967 Y54.109 I0.232 J-0.217
G1 X90.969 Y51.5
G3 X91.412 Y51.78 I0.127 J0.291
G1 Y53.165
G1 X91.406 Y53.3
G1 X91.382 Y53.447
G1 X91.345 Y53.597
G1 X91.285 Y53.775
G1 X91.204 Y53.966
G1 X91.096 Y54.172
G1 X90.944 Y54.413
G1 X90.767 Y54.648
G1 X90.521 Y54.926
G1 X90.23 Y55.207
G1 X89.849 Y55.519
G1 X89.36 Y55.858
G1 X88.832 Y56.164
G1 X88.285 Y56.433
G1 X87.838 Y56.618
G1 X87.471 Y56.73
G1 X87.284 Y56.749
G1 X87.099 Y56.721
G1 X86.926 Y56.647
G1 X86.778 Y56.533
G1 X85.84 Y55.595
G3 X85.945 Y55.088 I0.232 J-0.217
G1 X90.968 Y52.885
G3 X91.412 Y53.165 I0.127 J0.291
G1 Y54.412
G1 X91.404 Y54.589
G1 X91.386 Y54.724
G1 X91.354 Y54.874
G1 X91.306 Y55.033
G1 X91.233 Y55.221
G1 X91.141 Y55.411
G1 X91.013 Y55.628
G1 X90.846 Y55.866
G1 X90.641 Y56.113
G1 X90.374 Y56.387
G1 X90.032 Y56.685
G1 X89.637 Y56.977
G1 X89.202 Y57.248
G1 X88.858 Y57.425
G1 X88.562 Y57.549
G1 X88.415 Y57.597
G1 X88.215 Y57.633
G1 X88.013 Y57.613
G1 X87.824 Y57.539
G1 X87.662 Y57.417
G3 X87.686 Y56.96 I0.232 J-0.217
G1 X90.887 Y54.183
G3 X91.412 Y54.412 I0.208 J0.24
G1 Y55.797
G1 X91.406 Y55.932
G1 X91.386 Y56.065
G1 X91.35 Y56.216
G1 X91.294 Y56.389
G1 X91.222 Y56.564
G1 X91.116 Y56.771
G1 X90.989 Y56.977
G1 X90.816 Y57.213
G1 X90.615 Y57.445
G1 X90.371 Y57.685
G1 X90.098 Y57.914
G1 X89.838 Y58.098
G1 X89.588 Y58.246
G1 X89.347 Y58.361
G1 X89.259 Y58.389
G1 X89.168 Y58.407
G1 X89.076 Y58.412
G3 X88.848 Y57.886 I0.011 J-0.317
G1 X89.866 Y56.727
G1 X90.857 Y55.598
G3 X91.412 Y55.797 I0.239 J0.209
G1 Y57.043
G1 X91.405 Y57.201
G1 X91.387 Y57.335
G1 X91.357 Y57.474
G1 X91.309 Y57.632
G1 X91.246 Y57.792
G1 X91.159 Y57.97
G1 X91.111 Y58.05
G1 X90.993 Y58.2
G1 X90.841 Y58.315
G1 X90.664 Y58.388
G1 X90.474 Y58.412
G3 X90.211 Y57.935 I0.011 J-0.317
G1 X90.821 Y56.894
G3 X91.094 Y56.737 I0.274 J0.161
G1 X91.095
G3 X91.412 Y57.043 I0. J0.318
G1 X91.41 Y58.117
G1 X91.378 Y58.221
G1 X91.312 Y58.312
G1 X91.22 Y58.38
G1 X91.116 Y58.411
G1 X88.761
G1 X88.657 Y58.381
G1 X88.596 Y58.344
G1 X86.778 Y56.533
G1 X86.757 Y56.5 Z-0.994
G1 X86.739 Y56.471 Z-0.976
G1 X86.725 Y56.447 Z-0.948
G1 X86.716 Y56.432 Z-0.914
G1 X86.712 Y56.427 Z-0.875
G0 Z5.
G0 X79.95 Y37.419
G0 Z1.5
G3 X82.619 Y36.014 Z1.335 I1.335 J-0.702 F333.
G3 X79.95 Y37.419 Z1.169 I-1.335 J0.702
G3 X82.619 Y36.014 Z1.004 I1.335 J-0.702
G3 X79.95 Y37.419 Z0.838 I-1.335 J0.702
G3 X82.619 Y36.014 Z0.673 I1.335 J-0.702
G3 X79.95 Y37.419 Z0.507 I-1.335 J0.702
G3 X82.619 Y36.014 Z0.342 I1.335 J-0.702
G3 X79.95 Y37.419 Z0.176 I-1.335 J0.702
G3 X82.619 Y36.014 Z0.011 I1.335 J-0.702
G3 X79.95 Y37.419 Z-0.155 I-1.335 J0.702
G3 X82.619 Y36.014 Z-0.32 I1.335 J-0.702
G3 X79.95 Y37.419 Z-0.485 I-1.335 J0.702
G3 X82.619 Y36.014 Z-0.651 I1.335 J-0.702
G3 X79.95 Y37.419 Z-0.816 I-1.335 J0.702
G3 X82.619 Y36.014 Z-0.982 I1.335 J-0.702
G3 X79.95 Y37.419 Z-1.147 I-1.335 J0.702
G3 X82.619 Y36.014 Z-1.313 I1.335 J-0.702
G3 X79.95 Y37.419 Z-1.478 I-1.335 J0.702
G3 X82.619 Y36.014 Z-1.644 I1.335 J-0.702
G3 X79.95 Y37.419 Z-1.809 I-1.335 J0.702
G3 X82.619 Y36.014 Z-1.974 I1.335 J-0.702
G3 X82.793 Y36.716 Z-2. I-1.335 J0.702
G3 X79.776 I-1.508 J0.
G3 X82.793 I1.508 J0.
G1 X82.797 Y36.869 F1000.
G1 X82.926 Y37.414
G1 X82.946 Y37.548
G1 X82.945 Y37.683
G1 X82.926 Y37.816
G1 X82.891 Y37.946
G1 X82.841 Y38.072
G1 X82.779 Y38.192
G1 X82.706 Y38.306
G1 X82.623 Y38.412
G1 X82.532 Y38.511
G1 X82.43 Y38.604
G1 X82.318 Y38.691
G1 X82.195 Y38.772
G1 X82.062 Y38.845
G1 X81.92 Y38.908
G1 X81.77 Y38.961
G1 X81.613 Y39.003
G1 X81.45 Y39.032
G1 X81.282 Y39.049
G1 X81.111 Y39.052
G1 X80.937 Y39.041
G1 X80.763 Y39.016
G1 X80.589 Y38.977
G1 X80.417 Y38.923
G1 X80.249 Y38.855
G1 X80.085 Y38.773
G1 X79.927 Y38.678
G1 X79.777 Y38.569
G1 X79.635 Y38.449
G1 X79.502 Y38.316
G1 X79.38 Y38.173
G1 X79.269 Y38.02
G1 X79.171 Y37.857
G1 X79.086 Y37.687
G1 X79.015 Y37.511
G1 X78.957 Y37.328
G1 X78.915 Y37.142
G1 X78.888 Y36.952
G1 X78.876 Y36.76
G1 X78.879 Y36.568
G1 X78.898 Y36.377
G1 X78.932 Y36.187
G1 X78.981 Y36.
G1 X79.046 Y35.818
G1 X79.124 Y35.642
G1 X79.217 Y35.473
G1 X79.323 Y35.311
G1 X79.442 Y35.158
G1 X79.572 Y35.015
G1 X79.714 Y34.883
G1 X79.866 Y34.763
G1 X80.027 Y34.656
G1 X80.196 Y34.561
G1 X80.372 Y34.481
G1 X80.554 Y34.415
G1 X80.741 Y34.364
G1 X80.931 Y34.328
G1 X81.124 Y34.307
G1 X81.318 Y34.302
G1 X81.511 Y34.312
G1 X81.704 Y34.338
G1 X81.893 Y34.379
G1 X82.079 Y34.436
G1 X82.259 Y34.507
G1 X82.433 Y34.592
G1 X82.6 Y34.691
G1 X82.758 Y34.803
G1 X82.907 Y34.928
G1 X83.045 Y35.063
G1 X83.172 Y35.21
G1 X83.287 Y35.366
G1 X83.43 Y35.598
G1 X83.626 Y35.981
G1 X83.753 Y36.289
G1 X83.838 Y36.553
G1 X83.895 Y36.795
G1 X83.931 Y37.026
G1 X83.946 Y37.248
G1 X83.944 Y37.463
G1 X83.925 Y37.673
G1 X83.89 Y37.879
G1 X83.839 Y38.079
G1 X83.771 Y38.276
G1 X83.688 Y38.467
G1 X83.589 Y38.652
G1 X83.474 Y38.831
G1 X83.344 Y39.001
G1 X83.199 Y39.162
G1 X83.039 Y39.313
G1 X82.866 Y39.452
G1 X82.679 Y39.579
G1 X82.48 Y39.693
G1 X82.27 Y39.791
G1 X82.049 Y39.873
G1 X81.819 Y39.938
G1 X81.582 Y39.985
G1 X81.34 Y40.013
G1 X81.093 Y40.022
G1 X80.844 Y40.01
G1 X80.594 Y39.979
G1 X80.345 Y39.927
G1 X80.1 Y39.854
G1 X79.86 Y39.762
G1 X79.626 Y39.65
G1 X79.4 Y39.519
G1 X79.185 Y39.369
G1 X78.982 Y39.201
G1 X78.791 Y39.017
G1 X78.615 Y38.817
G1 X78.455 Y38.603
G1 X78.313 Y38.377
G1 X78.189 Y38.138
G1 X78.083 Y37.89
G1 X77.998 Y37.633
G1 X77.934 Y37.37
G1 X77.891 Y37.102
G1 X77.869 Y36.831
G1 X77.87 Y36.559
G1 X77.892 Y36.287
G1 X77.936 Y36.018
G1 X78.002 Y35.753
G1 X78.088 Y35.493
G1 X78.196 Y35.241
G1 X78.323 Y34.999
G1 X78.469 Y34.767
G1 X78.634 Y34.548
G1 X78.816 Y34.342
G1 X79.014 Y34.152
G1 X79.226 Y33.978
G1 X79.452 Y33.822
G1 X79.69 Y33.684
G1 X79.938 Y33.566
G1 X80.195 Y33.468
G1 X80.459 Y33.391
G1 X80.728 Y33.335
G1 X81.001 Y33.301
G1 X81.276 Y33.289
G1 X81.551 Y33.3
G1 X81.824 Y33.332
G1 X82.094 Y33.386
G1 X82.358 Y33.462
G1 X82.616 Y33.558
G1 X82.865 Y33.675
G1 X83.104 Y33.812
G1 X83.331 Y33.967
G1 X83.557 Y34.15
G1 X83.798 Y34.379
G1 X84.025 Y34.633
G1 X84.239 Y34.915
G1 X84.431 Y35.215
G1 X84.596 Y35.524
G1 X84.731 Y35.836
G1 X84.838 Y36.15
G1 X84.917 Y36.462
G1 X84.97 Y36.774
G1 X84.997 Y37.085
G1 X84.999 Y37.392
G1 X84.977 Y37.696
G1 X84.931 Y37.994
G1 X84.861 Y38.287
G1 X84.768 Y38.573
G1 X84.653 Y38.85
G1 X84.515 Y39.117
G1 X84.356 Y39.373
G1 X84.176 Y39.617
G1 X83.976 Y39.847
G1 X83.756 Y40.062
G1 X83.519 Y40.26
G1 X83.264 Y40.439
G1 X82.993 Y40.599
G1 X82.707 Y40.738
G1 X82.409 Y40.855
G1 X82.1 Y40.948
G1 X81.782 Y41.016
G1 X81.457 Y41.059
G1 X81.127 Y41.076
G1 X80.795 Y41.067
G1 X80.462 Y41.03
G1 X80.131 Y40.966
G1 X79.804 Y40.876
G1 X79.484 Y40.759
G1 X79.173 Y40.616
G1 X78.872 Y40.447
G1 X78.585 Y40.254
G1 X78.312 Y40.038
G1 X78.057 Y39.799
G1 X77.821 Y39.54
G1 X77.606 Y39.261
G1 X77.414 Y38.966
G1 X77.245 Y38.655
G1 X77.101 Y38.33
G1 X76.984 Y37.994
G1 X76.893 Y37.65
G1 X76.831 Y37.298
G1 X76.797 Y36.942
G1 X76.791 Y36.584
G1 X76.815 Y36.226
G1 X76.867 Y35.871
G1 X76.947 Y35.52
G1 X77.056 Y35.177
G1 X77.191 Y34.844
G1 X77.353 Y34.522
G1 X77.541 Y34.214
G1 X77.753 Y33.922
G1 X77.987 Y33.648
G1 X78.243 Y33.394
G1 X78.519 Y33.16
G1 X78.813 Y32.95
G1 X79.122 Y32.764
G1 X79.446 Y32.603
G1 X79.781 Y32.469
G1 X80.127 Y32.362
G1 X80.48 Y32.283
G1 X80.838 Y32.232
G1 X81.199 Y32.211
G1 X81.561 Y32.218
G1 X81.921 Y32.255
G1 X82.276 Y32.32
G1 X82.626 Y32.414
G1 X82.967 Y32.535
G1 X83.3 Y32.685
G1 X83.632 Y32.868
G1 X83.958 Y33.083
G1 X84.276 Y33.331
G1 X84.58 Y33.611
G1 X84.864 Y33.919
G1 X85.125 Y34.25
G1 X85.358 Y34.601
G1 X85.561 Y34.968
G1 X85.733 Y35.347
G1 X85.872 Y35.735
G1 X85.979 Y36.129
G1 X86.053 Y36.527
G1 X86.094 Y36.926
G1 X86.104 Y37.325
G1 X86.081 Y37.72
G1 X86.027 Y38.11
G1 X85.942 Y38.494
G1 X85.827 Y38.869
G1 X85.683 Y39.233
G1 X85.509 Y39.585
G1 X85.307 Y39.922
G1 X85.079 Y40.243
G1 X84.824 Y40.545
G1 X84.545 Y40.827
G1 X84.242 Y41.088
G1 X83.918 Y41.324
G1 X83.573 Y41.535
G1 X83.211 Y41.719
G1 X82.833 Y41.874
G1 X82.441 Y41.999
G1 X82.038 Y42.093
G1 X81.627 Y42.154
G1 X81.209 Y42.183
G1 X80.788 Y42.177
G1 X80.367 Y42.138
G1 X79.948 Y42.065
G1 X79.534 Y41.957
G1 X79.129 Y41.817
G1 X78.734 Y41.643
G1 X78.352 Y41.437
G1 X77.987 Y41.201
G1 X77.641 Y40.935
G1 X77.316 Y40.641
G1 X77.015 Y40.32
G1 X76.74 Y39.976
G1 X76.493 Y39.61
G1 X76.275 Y39.224
G1 X76.089 Y38.821
G1 X75.935 Y38.403
G1 X75.815 Y37.974
G1 X75.729 Y37.536
G1 X75.679 Y37.091
G1 X75.665 Y36.643
G1 X75.687 Y36.195
G1 X75.745 Y35.75
G1 X75.838 Y35.311
G1 X75.966 Y34.88
G1 X76.129 Y34.46
G1 X76.325 Y34.054
G1 X76.553 Y33.666
G1 X76.812 Y33.296
G1 X77.1 Y32.949
G1 X77.415 Y32.626
G1 X77.754 Y32.328
G1 X78.117 Y32.059
G1 X78.5 Y31.82
G1 X78.902 Y31.612
G1 X79.318 Y31.437
G1 X79.748 Y31.296
G1 X80.187 Y31.19
G1 X80.634 Y31.12
G1 X81.085 Y31.086
G1 X81.537 Y31.088
G1 X81.988 Y31.126
G1 X82.435 Y31.201
G1 X82.877 Y31.311
G1 X83.313 Y31.459
G1 X83.741 Y31.643
G1 X84.16 Y31.864
G1 X84.567 Y32.123
G1 X84.959 Y32.42
G1 X85.332 Y32.751
G1 X85.679 Y33.115
G1 X85.998 Y33.507
G1 X86.285 Y33.925
G1 X86.537 Y34.363
G1 X86.753 Y34.819
G1 X86.93 Y35.288
G1 X87.068 Y35.767
G1 X87.167 Y36.254
G1 X87.226 Y36.744
G1 X87.246 Y37.234
G1 X87.226 Y37.723
G1 X87.168 Y38.207
G1 X87.07 Y38.683
G1 X86.936 Y39.149
G1 X86.764 Y39.603
G1 X86.556 Y40.041
G1 X86.314 Y40.462
G1 X86.038 Y40.863
G1 X85.73 Y41.242
G1 X85.392 Y41.595
G1 X85.024 Y41.922
G1 X84.63 Y42.219
G1 X84.212 Y42.485
G1 X83.772 Y42.717
G1 X83.312 Y42.915
G1 X82.836 Y43.075
G1 X82.346 Y43.198
G1 X81.845 Y43.281
G1 X81.337 Y43.324
G1 X80.825 Y43.326
G1 X80.312 Y43.286
G1 X79.801 Y43.206
G1 X79.297 Y43.084
G1 X78.802 Y42.921
G1 X78.32 Y42.719
G1 X77.854 Y42.477
G1 X77.407 Y42.198
G1 X76.983 Y41.883
G1 X76.584 Y41.534
G1 X76.214 Y41.153
G1 X75.875 Y40.742
G1 X75.569 Y40.305
G1 X75.298 Y39.843
G1 X75.065 Y39.36
G1 X74.871 Y38.859
G1 X74.717 Y38.344
G1 X74.606 Y37.817
G1 X74.537 Y37.281
G1 X74.511 Y36.742
G1 X74.528 Y36.201
G1 X74.589 Y35.663
G1 X74.693 Y35.132
G1 X74.839 Y34.609
G1 X75.027 Y34.1
G1 X75.255 Y33.608
G1 X75.523 Y33.135
G1 X75.827 Y32.684
G1 X76.167 Y32.26
G1 X76.54 Y31.864
G1 X76.943 Y31.499
G1 X77.375 Y31.167
G1 X77.832 Y30.871
G1 X78.312 Y30.613
G1 X78.81 Y30.394
G1 X79.325 Y30.216
G1 X79.853 Y30.079
G1 X80.39 Y29.986
G1 X80.932 Y29.936
G1 X81.478 Y29.929
G1 X82.023 Y29.966
G1 X82.565 Y30.047
G1 X83.103 Y30.173
G1 X83.633 Y30.342
G1 X84.153 Y30.556
G1 X84.661 Y30.814
G1 X85.152 Y31.115
G1 X85.623 Y31.459
G1 X86.069 Y31.843
G1 X86.485 Y32.264
G1 X86.867 Y32.719
G1 X87.213 Y33.204
G1 X87.518 Y33.715
G1 X87.781 Y34.249
G1 X88. Y34.8
G1 X88.173 Y35.366
G1 X88.3 Y35.942
G1 X88.38 Y36.523
G1 X88.413 Y37.108
G1 X88.399 Y37.691
G1 X88.338 Y38.27
G1 X88.232 Y38.842
G1 X88.08 Y39.402
G1 X87.883 Y39.948
G1 X87.644 Y40.476
G1 X87.362 Y40.984
G1 X87.041 Y41.468
G1 X86.68 Y41.926
G1 X86.283 Y42.354
G1 X85.852 Y42.751
G1 X85.389 Y43.112
G1 X84.897 Y43.437
G1 X84.378 Y43.722
G1 X83.836 Y43.965
G1 X83.274 Y44.165
G1 X82.696 Y44.32
G1 X82.104 Y44.428
G1 X81.504 Y44.488
G1 X80.898 Y44.501
G1 X80.291 Y44.464
G1 X79.687 Y44.379
G1 X79.092 Y44.245
G1 X78.51 Y44.065
G1 X77.944 Y43.839
G1 X77.397 Y43.568
G1 X76.874 Y43.256
G1 X76.376 Y42.903
G1 X75.908 Y42.512
G1 X75.472 Y42.086
G1 X75.071 Y41.627
G1 X74.706 Y41.138
G1 X74.381 Y40.623
G1 X74.097 Y40.083
G1 X73.856 Y39.523
G1 X73.66 Y38.946
G1 X73.509 Y38.355
G1 X73.404 Y37.755
G1 X73.345 Y37.148
G1 X73.334 Y36.538
G1 X73.369 Y35.929
G1 X73.452 Y35.325
G1 X73.58 Y34.729
G1 X73.754 Y34.145
G1 X73.972 Y33.575
G1 X74.233 Y33.024
G1 X74.535 Y32.495
G1 X74.877 Y31.99
G1 X75.257 Y31.513
G1 X75.672 Y31.067
G1 X76.12 Y30.653
G1 X76.598 Y30.275
G1 X77.104 Y29.934
G1 X77.635 Y29.634
G1 X78.186 Y29.374
G1 X78.756 Y29.158
G1 X79.341 Y28.986
G1 X79.938 Y28.86
G1 X80.542 Y28.78
G1 X81.151 Y28.747
G1 X81.761 Y28.761
G1 X82.368 Y28.821
G1 X82.968 Y28.927
G1 X83.559 Y29.078
G1 X84.137 Y29.272
G1 X84.698 Y29.51
G1 X85.241 Y29.787
G1 X85.762 Y30.103
G1 X86.26 Y30.456
G1 X86.731 Y30.844
G1 X87.171 Y31.265
G1 X87.58 Y31.717
G1 X87.956 Y32.197
G1 X88.297 Y32.703
G1 X88.601 Y33.231
G1 X88.867 Y33.78
G1 X89.094 Y34.346
G1 X89.281 Y34.926
G1 X89.426 Y35.518
G1 X89.527 Y36.12
G1 X89.584 Y36.727
G1 X89.597 Y37.336
G1 X89.566 Y37.945
G1 X89.491 Y38.55
G1 X89.373 Y39.149
G1 X89.213 Y39.737
G1 X89.011 Y40.312
G1 X88.768 Y40.871
G1 X88.485 Y41.412
G1 X88.163 Y41.929
G1 X87.804 Y42.422
G1 X87.41 Y42.887
G1 X86.984 Y43.323
G1 X86.527 Y43.727
G1 X86.043 Y44.098
G1 X85.534 Y44.433
G1 X85.003 Y44.732
G1 X84.451 Y44.993
G1 X83.883 Y45.213
G1 X83.3 Y45.391
G1 X82.705 Y45.528
G1 X82.103 Y45.622
G1 X81.496 Y45.674
G1 X80.886 Y45.685
G1 X80.277 Y45.654
G1 X79.672 Y45.581
G1 X79.073 Y45.464
G1 X78.484 Y45.306
G1 X77.908 Y45.107
G1 X77.346 Y44.869
G1 X76.802 Y44.594
G1 X76.278 Y44.283
G1 X75.775 Y43.938
G1 X75.298 Y43.559
G1 X74.848 Y43.147
G1 X74.428 Y42.705
G1 X74.039 Y42.236
G1 X73.682 Y41.742
G1 X73.359 Y41.225
G1 X73.07 Y40.687
G1 X72.819 Y40.132
G1 X72.606 Y39.56
G1 X72.434 Y38.976
G1 X72.302 Y38.38
G1 X72.21 Y37.778
G1 X72.157 Y37.17
G1 X72.145 Y36.561
G1 X72.173 Y35.952
G1 X72.242 Y35.346
G1 X72.353 Y34.746
G1 X72.504 Y34.155
G1 X72.694 Y33.576
G1 X72.922 Y33.011
G1 X73.187 Y32.461
G1 X73.487 Y31.93
G1 X73.821 Y31.42
G1 X74.189 Y30.934
G1 X74.589 Y30.475
G1 X75.02 Y30.043
G1 X75.478 Y29.641
G1 X75.962 Y29.269
G1 X76.469 Y28.93
G1 X76.996 Y28.625
G1 X77.543 Y28.356
G1 X78.108 Y28.125
G1 X78.686 Y27.933
G1 X79.277 Y27.78
G1 X79.876 Y27.667
G1 X80.481 Y27.593
G1 X81.09 Y27.56
G1 X81.699 Y27.566
G1 X82.307 Y27.613
G1 X82.911 Y27.701
G1 X83.507 Y27.83
G1 X84.093 Y27.997
G1 X84.667 Y28.202
G1 X85.227 Y28.443
G1 X85.771 Y28.719
G1 X86.297 Y29.028
G1 X86.801 Y29.37
G1 X87.283 Y29.744
G1 X87.739 Y30.149
G1 X88.168 Y30.582
G1 X88.569 Y31.041
G1 X88.941 Y31.524
G1 X89.283 Y32.029
G1 X89.593 Y32.554
G1 X89.87 Y33.097
G1 X90.112 Y33.657
G1 X90.318 Y34.231
G1 X90.488 Y34.816
G1 X90.62 Y35.412
G1 X90.715 Y36.014
G1 X90.772 Y36.621
G1 X90.791 Y37.23
G1 X90.772 Y37.84
G1 X90.713 Y38.447
G1 X90.616 Y39.049
G1 X90.48 Y39.643
G1 X90.308 Y40.228
G1 X90.099 Y40.801
G1 X89.856 Y41.36
G1 X89.578 Y41.902
G1 X89.265 Y42.426
G1 X88.919 Y42.928
G1 X88.541 Y43.406
G1 X88.134 Y43.86
G1 X87.699 Y44.287
G1 X87.238 Y44.686
G1 X86.753 Y45.057
G1 X86.247 Y45.397
G1 X85.721 Y45.705
G1 X85.176 Y45.979
G1 X84.615 Y46.216
G1 X84.04 Y46.418
G1 X83.453 Y46.584
G1 X82.857 Y46.713
G1 X82.254 Y46.806
G1 X81.647 Y46.863
G1 X81.038 Y46.883
G1 X80.429 Y46.866
G1 X79.821 Y46.809
G1 X79.219 Y46.715
G1 X78.624 Y46.584
G1 X78.037 Y46.417
G1 X77.462 Y46.215
G1 X76.899 Y45.98
G1 X76.352 Y45.712
G1 X75.821 Y45.411
G1 X75.372 Y45.117
G1 X75.295 Y45.05
G1 X73.576 Y43.331
G1 X73.167 Y42.879
G1 X72.805 Y42.453
G1 X72.45 Y41.959
G1 X72.135 Y41.437
G1 X71.859 Y40.893
G1 X71.621 Y40.332
G1 X71.419 Y39.756
G1 X71.253 Y39.17
G1 X71.123 Y38.574
G1 X71.028 Y37.972
G1 X70.969 Y37.365
G1 X70.945 Y36.755
G1 X70.959 Y36.146
G1 X71.009 Y35.538
G1 X71.096 Y34.935
G1 X71.219 Y34.338
G1 X71.377 Y33.749
G1 X71.568 Y33.17
G1 X71.793 Y32.603
G1 X72.05 Y32.05
G1 X72.338 Y31.513
G1 X72.659 Y30.995
G1 X73.011 Y30.497
G1 X73.392 Y30.02
G1 X73.8 Y29.567
G1 X74.234 Y29.139
G1 X74.692 Y28.737
G1 X75.172 Y28.361
G1 X75.673 Y28.014
G1 X76.194 Y27.697
G1 X76.734 Y27.412
G1 X77.289 Y27.161
G1 X77.858 Y26.943
G1 X78.44 Y26.759
G1 X79.071 Y26.601
G1 X79.211 Y26.587
G1 X82.283
G1 X82.892 Y26.618
G1 X83.404 Y26.668
G1 X83.994 Y26.775
G1 X84.583 Y26.931
G1 X85.16 Y27.129
G1 X85.723 Y27.363
G1 X86.27 Y27.631
G1 X86.801 Y27.931
G1 X87.313 Y28.262
G1 X87.804 Y28.624
G1 X88.273 Y29.013
G1 X88.72 Y29.429
G1 X89.142 Y29.869
G1 X89.539 Y30.331
G1 X89.91 Y30.815
G1 X90.255 Y31.318
G1 X90.571 Y31.839
G1 X90.859 Y32.377
G1 X91.114 Y32.93
G1 X91.338 Y33.498
G1 X91.396 Y33.687
G1 X91.412 Y33.843
G1 Y39.453
G1 X91.386 Y39.98
G1 X91.332 Y40.393
G1 X91.235 Y40.845
G1 X91.077 Y41.373
G1 X90.856 Y41.942
G1 X90.591 Y42.491
G1 X90.289 Y43.02
G1 X89.953 Y43.53
G1 X89.588 Y44.017
G1 X89.193 Y44.482
G1 X88.771 Y44.923
G1 X88.326 Y45.339
G1 X87.857 Y45.729
G1 X87.368 Y46.093
G1 X86.86 Y46.43
G1 X86.334 Y46.738
G1 X85.791 Y47.016
G1 X85.234 Y47.264
G1 X84.664 Y47.479
G1 X84.082 Y47.661
G1 X83.491 Y47.811
G1 X82.893 Y47.928
G1 X82.289 Y48.013
G1 X81.681 Y48.066
G1 X81.072 Y48.085
G1 X80.462 Y48.071
G1 X79.854 Y48.024
G1 X79.25 Y47.943
G1 X78.651 Y47.828
G1 X78.041 Y47.674
G1 X77.929 Y47.63
G1 X77.826 Y47.568
G1 X77.735 Y47.49
G1 X75.295 Y45.05
G1 X75.207 Y44.961
G1 X73.664 Y43.419
G1 X73.576 Y43.331
G1 X71.083 Y40.838
G1 X70.934 Y40.673
G1 X70.777 Y40.468
G1 X70.606 Y40.204
G1 X70.435 Y39.889
G1 X70.257 Y39.482
G1 X70.092 Y39.008
G1 X69.945 Y38.438
G1 X69.84 Y37.838
G1 X69.778 Y37.231
G1 X69.756 Y36.622
G1 X69.77 Y36.012
G1 X69.819 Y35.405
G1 X69.901 Y34.8
G1 X70.016 Y34.202
G1 X70.162 Y33.61
G1 X70.34 Y33.027
G1 X70.549 Y32.454
G1 X70.788 Y31.893
G1 X71.056 Y31.345
G1 X71.353 Y30.813
G1 X71.678 Y30.297
G1 X72.03 Y29.799
G1 X72.407 Y29.32
G1 X72.809 Y28.861
G1 X73.234 Y28.424
G1 X73.682 Y28.011
G1 X74.151 Y27.621
G1 X74.64 Y27.257
G1 X75.148 Y26.919
G1 X75.535 Y26.691
G1 X75.654 Y26.634
G1 X75.781 Y26.599
G1 X75.912 Y26.587
G1 X79.211
G1 X79.249 Y26.596 Z-1.994
G1 X79.282 Y26.604 Z-1.976
G1 X79.309 Y26.61 Z-1.948
G1 X79.326 Y26.615 Z-1.914
G1 X79.332 Y26.616 Z-1.875
G0 Z5.
G0 X71.04 Y40.479
G0 Z-1.365
G1 Z-1.683 F1000.
G1 X71.044 Y40.487 Z-1.753
G1 X71.054 Y40.508 Z-1.82
G1 X71.071 Y40.541 Z-1.88
G1 X71.094 Y40.586 Z-1.931
G1 X71.121 Y40.64 Z-1.969
G1 X71.151 Y40.7 Z-1.992
G1 X71.183 Y40.763 Z-2.
G1 X71.189 Y40.792
G1 X71.183 Y40.82
G1 X71.164 Y40.842
G1 X71.137 Y40.854
G1 X71.108 Y40.852
G1 X71.083 Y40.838
G1 X69.651 Y39.401
G1 X69.606 Y39.314
G1 X69.591 Y39.245
G1 X69.588 Y32.943
G1 X69.61 Y32.503
G1 X69.654 Y32.16
G1 X69.736 Y31.78
G1 X69.873 Y31.323
G1 X70.082 Y30.787
G1 X70.348 Y30.238
G1 X70.652 Y29.71
G1 X70.988 Y29.201
G1 X71.352 Y28.712
G1 X71.742 Y28.243
G1 X72.155 Y27.795
G1 X72.59 Y27.368
G1 X73.046 Y26.962
G1 X73.307 Y26.752
G1 X73.448 Y26.662
G1 X73.606 Y26.606
G1 X73.772 Y26.587
G3 X74.028 Y27.076 I-0.011 J0.317
G1 X70.172 Y33.103
G3 X69.588 Y32.943 I-0.267 J-0.171
G1 Y30.45
G1 X69.601 Y30.175
G1 X69.632 Y29.939
G1 X69.688 Y29.68
G1 X69.781 Y29.368
G1 X69.916 Y29.02
G1 X70.119 Y28.603
G1 X70.401 Y28.125
G1 X70.751 Y27.626
G1 X71.138 Y27.154
G1 X71.445 Y26.824
G1 X71.602 Y26.696
G1 X71.787 Y26.615
G1 X71.987 Y26.587
G3 X72.25 Y27.065 I-0.011 J0.317
G1 X70.179 Y30.599
G3 X69.906 Y30.756 I-0.274 J-0.161
G1 X69.905
G3 X69.588 Y30.45 I0. J-0.317
G1 Y28.511
G1 X69.601 Y28.247
G1 X69.625 Y28.065
G1 X69.671 Y27.846
G1 X69.747 Y27.594
G1 X69.855 Y27.318
G1 X69.987 Y27.046
G1 X70.041 Y26.952
G1 X70.159 Y26.801
G1 X70.312 Y26.685
G1 X70.49 Y26.612
G1 X70.68 Y26.587
G3 X70.955 Y27.042 I-0.011 J0.317
G1 X70.191 Y28.637
G3 X69.588 Y28.511 I-0.286 J-0.137
G1 Y26.987
G1 X69.596 Y26.849
G1 X69.642 Y26.745
G1 X69.709 Y26.664
G1 X69.779 Y26.619
G1 X69.883 Y26.589
G1 X75.912 Y26.587
G1 X75.949 Y26.596 Z-1.994
G1 X75.983 Y26.604 Z-1.976
G1 X76.01 Y26.61 Z-1.948
G1 X76.027 Y26.615 Z-1.914
G1 X76.033 Y26.616 Z-1.875
G0 Z5.
G0 X82.567 Y26.811
G0 Z-1.365
G1 Z-1.683 F1000.
G1 X82.559 Y26.808 Z-1.753
G1 X82.537 Y26.801 Z-1.82
G1 X82.501 Y26.789 Z-1.88
G1 X82.454 Y26.773 Z-1.931
G1 X82.396 Y26.754 Z-1.969
G1 X82.333 Y26.733 Z-1.992
G1 X82.266 Y26.711 Z-2.
G1 X82.241 Y26.696
G1 X82.225 Y26.671
G1 X82.223 Y26.642
G1 X82.234 Y26.615
G1 X82.255 Y26.595
G1 X82.283 Y26.587
G1 X85.609
G1 X85.892 Y26.602
G1 X86.158 Y26.637
G1 X86.462 Y26.702
G1 X86.815 Y26.807
G1 X87.231 Y26.969
G1 X87.678 Y27.186
G1 X88.192 Y27.489
G1 X88.691 Y27.84
G1 X89.165 Y28.224
G1 X89.614 Y28.636
G1 X90.039 Y29.074
G1 X90.44 Y29.533
G1 X90.817 Y30.012
G1 X91.169 Y30.509
G1 X91.297 Y30.711
G1 X91.36 Y30.835
G1 X91.399 Y30.969
G1 X91.412 Y31.108
G3 X90.902 Y31.349 I-0.317 J-0.011
G1 X85.427 Y27.157
G3 X85.609 Y26.587 I0.193 J-0.252
G1 X87.687
G1 X87.945 Y26.6
G1 X88.147 Y26.627
G1 X88.369 Y26.674
G1 X88.64 Y26.755
G1 X88.923 Y26.866
G1 X89.27 Y27.034
G1 X89.648 Y27.257
G1 X90.078 Y27.559
G1 X90.548 Y27.949
G1 X90.985 Y28.373
G1 X91.22 Y28.632
G1 X91.325 Y28.78
G1 X91.39 Y28.949
G1 X91.412 Y29.129
G3 X90.922 Y29.384 I-0.317 J-0.011
G1 X87.525 Y27.171
G3 X87.687 Y26.587 I0.173 J-0.266
G1 X89.488
G1 X89.686 Y26.597
G1 X89.864 Y26.621
G1 X90.07 Y26.665
G1 X90.282 Y26.728
G1 X90.542 Y26.83
G1 X90.815 Y26.962
G1 X91.098 Y27.129
G1 X91.229 Y27.247
G1 X91.329 Y27.393
G1 X91.391 Y27.559
G1 X91.412 Y27.735
G3 X90.95 Y28.006 I-0.317 J-0.011
G1 X89.354 Y27.187
G3 X89.488 Y26.587 I0.145 J-0.282
G1 X90.95
G1 X90.984
G1 X91.012
G1 X91.143 Y26.594
G3 X91.092 Y27.045 I-0.046 J0.223
G1 X91.04 Y27.043
G1 X91.014
G3 X91.012 Y26.587 I0.006 J-0.228
G1 X91.151 Y26.595
G1 X91.255 Y26.639
G1 X91.331 Y26.71
G1 X91.378 Y26.779
G1 X91.41 Y26.883
G1 X91.412 Y33.843
G1 Y33.968
G1 Y39.328
G1 Y39.453
G1 Y42.223
G1 X91.4 Y42.464
G1 X91.369 Y42.701
G1 X91.311 Y42.974
G1 X91.219 Y43.282
G1 X91.08 Y43.637
G1 X90.878 Y44.053
G1 X90.617 Y44.498
G1 X90.266 Y44.997
G1 X89.877 Y45.466
G1 X89.457 Y45.909
G1 X89.012 Y46.325
G1 X88.544 Y46.715
G1 X88.055 Y47.081
G1 X87.549 Y47.421
G1 X87.026 Y47.734
G1 X86.488 Y48.021
G1 X85.936 Y48.279
G1 X85.371 Y48.509
G1 X84.795 Y48.708
G1 X84.21 Y48.879
G1 X83.616 Y49.021
G1 X83.017 Y49.133
G1 X82.413 Y49.216
G1 X81.806 Y49.27
G1 X81.197 Y49.294
G1 X80.587 Y49.288
G1 X79.978 Y49.252
G1 X79.695 Y49.221
G1 X79.533 Y49.184
G1 X79.383 Y49.112
G1 X79.253 Y49.008
G1 X77.735 Y47.49
G3 X77.853 Y46.977 I0.232 J-0.217
G1 X90.981 Y41.938
G3 X91.412 Y42.223 I0.114 J0.296
G1 Y44.162
G1 X91.401 Y44.396
G1 X91.377 Y44.575
G1 X91.331 Y44.79
G1 X91.257 Y45.037
G1 X91.153 Y45.304
G1 X91. Y45.62
G1 X90.794 Y45.969
G1 X90.521 Y46.358
G1 X90.153 Y46.802
G1 X89.727 Y47.238
G1 X89.272 Y47.643
G1 X88.792 Y48.02
G1 X88.293 Y48.37
G1 X87.777 Y48.695
G1 X87.245 Y48.993
G1 X86.699 Y49.264
G1 X86.14 Y49.509
G1 X85.571 Y49.726
G1 X84.992 Y49.917
G1 X84.405 Y50.082
G1 X83.811 Y50.22
G1 X83.211 Y50.331
G1 X82.608 Y50.416
G1 X82.001 Y50.474
G1 X81.392 Y50.505
G1 X81.065 Y50.508
G1 X80.871 Y50.483
G1 X80.691 Y50.409
G1 X80.536 Y50.291
G1 X79.253 Y49.008
G3 X79.368 Y48.497 I0.232 J-0.217
G1 X90.978 Y43.878
G3 X91.412 Y44.162 I0.117 J0.295
G1 Y45.963
G1 X91.406 Y46.098
G1 X91.378 Y46.281
G1 X91.334 Y46.467
G1 X91.262 Y46.689
G1 X91.158 Y46.939
G1 X91.02 Y47.209
G1 X90.828 Y47.521
G1 X90.571 Y47.87
G1 X90.245 Y48.246
G1 X89.811 Y48.672
G1 X89.343 Y49.063
G1 X88.85 Y49.423
G1 X88.338 Y49.753
G1 X87.809 Y50.056
G1 X87.266 Y50.333
G1 X86.71 Y50.584
G1 X86.144 Y50.81
G1 X85.568 Y51.012
G1 X84.985 Y51.188
G1 X84.394 Y51.339
G1 X83.798 Y51.466
G1 X83.196 Y51.568
G1 X82.592 Y51.645
G1 X82.289 Y51.671
G1 X82.075 Y51.658
G1 X81.874 Y51.585
G1 X81.702 Y51.457
G1 X80.536 Y50.291
G3 X80.651 Y49.779 I0.232 J-0.217
G1 X90.978 Y45.679
G3 X91.412 Y45.963 I0.117 J0.295
G1 Y47.486
G1 X91.406 Y47.621
G1 X91.384 Y47.783
G1 X91.348 Y47.95
G1 X91.288 Y48.15
G1 X91.199 Y48.375
G1 X91.085 Y48.61
G1 X90.92 Y48.889
G1 X90.717 Y49.177
G1 X90.44 Y49.509
G1 X90.076 Y49.88
G1 X89.616 Y50.28
G1 X89.125 Y50.642
G1 X88.611 Y50.97
G1 X88.08 Y51.269
G1 X87.534 Y51.541
G1 X86.976 Y51.787
G1 X86.408 Y52.008
G1 X85.831 Y52.206
G1 X85.247 Y52.38
G1 X84.656 Y52.531
G1 X84.06 Y52.659
G1 X83.402 Y52.77
G1 X83.184 Y52.76
G1 X82.977 Y52.687
G1 X82.802 Y52.557
G1 X81.702 Y51.457
G3 X81.814 Y50.946 I0.232 J-0.217
G1 X90.975 Y47.203
G3 X91.412 Y47.486 I0.12 J0.294
G1 Y49.01
G1 X91.406 Y49.145
G1 X91.38 Y49.302
G1 X91.334 Y49.484
G1 X91.272 Y49.668
G1 X91.178 Y49.889
G1 X91.052 Y50.128
G1 X90.889 Y50.384
G1 X90.671 Y50.673
G1 X90.389 Y50.99
G1 X90.04 Y51.325
G1 X89.58 Y51.699
G1 X89.078 Y52.045
G1 X88.554 Y52.357
G1 X88.013 Y52.638
G1 X87.459 Y52.893
G1 X86.894 Y53.122
G1 X86.32 Y53.327
G1 X85.738 Y53.51
G1 X85.15 Y53.67
G1 X84.519 Y53.806
G1 X84.338 Y53.82
G1 X84.158 Y53.789
G1 X83.992 Y53.716
G1 X83.849 Y53.604
G1 X82.802 Y52.557
G3 X82.913 Y52.046 I0.232 J-0.217
G1 X90.974 Y48.727
G3 X91.412 Y49.01 I0.121 J0.294
G1 Y50.395
G1 X91.406 Y50.53
G1 X91.387 Y50.667
G1 X91.351 Y50.83
G1 X91.296 Y51.011
G1 X91.221 Y51.201
G1 X91.109 Y51.428
G1 X90.973 Y51.657
G1 X90.785 Y51.922
G1 X90.553 Y52.199
G1 X90.24 Y52.516
G1 X89.854 Y52.85
G1 X89.362 Y53.21
G1 X88.843 Y53.53
G1 X88.305 Y53.817
G1 X87.752 Y54.073
G1 X87.187 Y54.304
G1 X86.614 Y54.511
G1 X86.032 Y54.694
G1 X85.585 Y54.81
G1 X85.513 Y54.823
G1 X85.336 Y54.832
G1 X85.162 Y54.799
G1 X85.001 Y54.726
G1 X84.862 Y54.617
G1 X83.849 Y53.604
G3 X83.957 Y53.095 I0.232 J-0.217
G1 X90.971 Y50.114
G3 X91.412 Y50.395 I0.124 J0.292
G1 Y51.78
G1 X91.406 Y51.915
G1 X91.385 Y52.063
G1 X91.35 Y52.214
G1 X91.296 Y52.388
G1 X91.216 Y52.588
G1 X91.116 Y52.789
G1 X90.97 Y53.029
G1 X90.795 Y53.273
G1 X90.557 Y53.553
G1 X90.273 Y53.837
G1 X89.895 Y54.16
G1 X89.413 Y54.508
G1 X88.891 Y54.824
G1 X88.35 Y55.105
G1 X87.794 Y55.355
G1 X87.227 Y55.579
G1 X86.757 Y55.737
G1 X86.542 Y55.79
G1 X86.354 Y55.812
G1 X86.165 Y55.785
G1 X85.991 Y55.711
G1 X85.84 Y55.595
G1 X84.862 Y54.617
G3 X84.967 Y54.109 I0.232 J-0.217
G1 X90.969 Y51.5
G3 X91.412 Y51.78 I0.127 J0.291
G1 Y53.165
G1 X91.406 Y53.3
G1 X91.382 Y53.447
G1 X91.345 Y53.597
G1 X91.285 Y53.775
G1 X91.204 Y53.966
G1 X91.096 Y54.172
G1 X90.944 Y54.413
G1 X90.767 Y54.648
G1 X90.521 Y54.926
G1 X90.23 Y55.207
G1 X89.849 Y55.519
G1 X89.36 Y55.858
G1 X88.832 Y56.164
G1 X88.285 Y56.433
G1 X87.838 Y56.618
G1 X87.471 Y56.73
G1 X87.284 Y56.749
G1 X87.099 Y56.721
G1 X86.926 Y56.647
G1 X86.778 Y56.533
G1 X85.84 Y55.595
G3 X85.945 Y55.088 I0.232 J-0.217
G1 X90.968 Y52.885
G3 X91.412 Y53.165 I0.127 J0.291
G1 Y54.412
G1 X91.404 Y54.589
G1 X91.386 Y54.724
G1 X91.354 Y54.874
G1 X91.306 Y55.033
G1 X91.233 Y55.221
G1 X91.141 Y55.411
G1 X91.013 Y55.628
G1 X90.846 Y55.866
G1 X90.641 Y56.113
G1 X90.374 Y56.387
G1 X90.032 Y56.685
G1 X89.637 Y56.977
G1 X89.202 Y57.248
G1 X88.858 Y57.425
G1 X88.562 Y57.549
G1 X88.415 Y57.597
G1 X88.215 Y57.633
G1 X88.013 Y57.613
G1 X87.824 Y57.539
G1 X87.662 Y57.417
G3 X87.686 Y56.96 I0.232 J-0.217
G1 X90.887 Y54.183
G3 X91.412 Y54.412 I0.208 J0.24
G1 Y55.797
G1 X91.406 Y55.932
G1 X91.386 Y56.065
G1 X91.35 Y56.216
G1 X91.294 Y56.389
G1 X91.222 Y56.564
G1 X91.116 Y56.771
G1 X90.989 Y56.977
G1 X90.816 Y57.213
G1 X90.615 Y57.445
G1 X90.371 Y57.685
G1 X90.098 Y57.914
G1 X89.838 Y58.098
G1 X89.588 Y58.246
G1 X89.347 Y58.361
G1 X89.259 Y58.389
G1 X89.168 Y58.407
G1 X89.076 Y58.412
G3 X88.848 Y57.886 I0.011 J-0.317
G1 X89.866 Y56.727
G1 X90.857 Y55.598
G3 X91.412 Y55.797 I0.239 J0.209
G1 Y57.043
G1 X91.405 Y57.201
G1 X91.387 Y57.335
G1 X91.357 Y57.474
G1 X91.309 Y57.632
G1 X91.246 Y57.792
G1 X91.159 Y57.97
G1 X91.111 Y58.05
G1 X90.993 Y58.2
G1 X90.841 Y58.315
G1 X90.664 Y58.388
G1 X90.474 Y58.412
G3 X90.211 Y57.935 I0.011 J-0.317
G1 X90.821 Y56.894
G3 X91.094 Y56.737 I0.274 J0.161
G1 X91.095
G3 X91.412 Y57.043 I0. J0.318
G1 X91.41 Y58.117
G1 X91.378 Y58.221
G1 X91.312 Y58.312
G1 X91.22 Y58.38
G1 X91.116 Y58.411
G1 X88.761
G1 X88.657 Y58.381
G1 X88.596 Y58.344
G1 X86.778 Y56.533
G1 X86.757 Y56.5 Z-1.994
G1 X86.739 Y56.471 Z-1.976
G1 X86.725 Y56.447 Z-1.948
G1 X86.716 Y56.432 Z-1.914
G1 X86.712 Y56.427 Z-1.875
G0 Z5.
G0 X82.664 Y36.108
G0 Z0.5
G3 X79.905 Y37.325 Z0.335 I-1.38 J0.608 F333.
G3 X82.664 Y36.108 Z0.169 I1.38 J-0.608
G3 X79.905 Y37.325 Z0.004 I-1.38 J0.608
G3 X82.664 Y36.108 Z-0.162 I1.38 J-0.608
G3 X79.905 Y37.325 Z-0.327 I-1.38 J0.608
G3 X82.664 Y36.108 Z-0.493 I1.38 J-0.608
G3 X79.905 Y37.325 Z-0.658 I-1.38 J0.608
G3 X82.664 Y36.108 Z-0.824 I1.38 J-0.608
G3 X79.905 Y37.325 Z-0.989 I-1.38 J0.608
G3 X82.664 Y36.108 Z-1.155 I1.38 J-0.608
G3 X79.905 Y37.325 Z-1.32 I-1.38 J0.608
G3 X82.664 Y36.108 Z-1.485 I1.38 J-0.608
G3 X79.905 Y37.325 Z-1.651 I-1.38 J0.608
G3 X82.664 Y36.108 Z-1.816 I1.38 J-0.608
G3 X79.905 Y37.325 Z-1.982 I-1.38 J0.608
G3 X82.664 Y36.108 Z-2.147 I1.38 J-0.608
G3 X79.905 Y37.325 Z-2.313 I-1.38 J0.608
G3 X82.664 Y36.108 Z-2.478 I1.38 J-0.608
G3 X82.793 Y36.716 Z-2.5 I-1.38 J0.608
G3 X79.776 I-1.508 J0.
G3 X82.793 I1.508 J0.
G1 X82.797 Y36.869 F1000.
G1 X82.926 Y37.414
G1 X82.946 Y37.548
G1 X82.945 Y37.683
G1 X82.926 Y37.816
G1 X82.891 Y37.946
G1 X82.841 Y38.072
G1 X82.779 Y38.192
G1 X82.706 Y38.306
G1 X82.623 Y38.412
G1 X82.532 Y38.511
G1 X82.43 Y38.604
G1 X82.318 Y38.691
G1 X82.195 Y38.772
G1 X82.062 Y38.845
G1 X81.92 Y38.908
G1 X81.77 Y38.961
G1 X81.613 Y39.003
G1 X81.45 Y39.032
G1 X81.282 Y39.049
G1 X81.111 Y39.052
G1 X80.937 Y39.041
G1 X80.763 Y39.016
G1 X80.589 Y38.977
G1 X80.417 Y38.923
G1 X80.249 Y38.855
G1 X80.085 Y38.773
G1 X79.927 Y38.678
G1 X79.777 Y38.569
G1 X79.635 Y38.449
G1 X79.502 Y38.316
G1 X79.38 Y38.173
G1 X79.269 Y38.02
G1 X79.171 Y37.857
G1 X79.086 Y37.687
G1 X79.015 Y37.511
G1 X78.957 Y37.328
G1 X78.915 Y37.142
G1 X78.888 Y36.952
G1 X78.876 Y36.76
G1 X78.879 Y36.568
G1 X78.898 Y36.377
G1 X78.932 Y36.187
G1 X78.981 Y36.
G1 X79.046 Y35.818
G1 X79.124 Y35.642
G1 X79.217 Y35.473
G1 X79.323 Y35.311
G1 X79.442 Y35.158
G1 X79.572 Y35.015
G1 X79.714 Y34.883
G1 X79.866 Y34.763
G1 X80.027 Y34.656
G1 X80.196 Y34.561
G1 X80.372 Y34.481
G1 X80.554 Y34.415
G1 X80.741 Y34.364
G1 X80.931 Y34.328
G1 X81.124 Y34.307
G1 X81.318 Y34.302
G1 X81.511 Y34.312
G1 X81.704 Y34.338
G1 X81.893 Y34.379
G1 X82.079 Y34.436
G1 X82.259 Y34.507
G1 X82.433 Y34.592
G1 X82.6 Y34.691
G1 X82.758 Y34.803
G1 X82.907 Y34.928
G1 X83.045 Y35.063
G1 X83.172 Y35.21
G1 X83.287 Y35.366
G1 X83.43 Y35.598
G1 X83.626 Y35.981
G1 X83.753 Y36.289
G1 X83.838 Y36.553
G1 X83.895 Y36.795
G1 X83.931 Y37.026
G1 X83.946 Y37.248
G1 X83.944 Y37.463
G1 X83.925 Y37.673
G1 X83.89 Y37.879
G1 X83.839 Y38.079
G1 X83.771 Y38.276
G1 X83.688 Y38.467
G1 X83.589 Y38.652
G1 X83.474 Y38.831
G1 X83.344 Y39.001
G1 X83.199 Y39.162
G1 X83.039 Y39.313
G1 X82.866 Y39.452
G1 X82.679 Y39.579
G1 X82.48 Y39.693
G1 X82.27 Y39.791
G1 X82.049 Y39.873
G1 X81.819 Y39.938
G1 X81.582 Y39.985
G1 X81.34 Y40.013
G1 X81.093 Y40.022
G1 X80.844 Y40.01
G1 X80.594 Y39.979
G1 X80.345 Y39.927
G1 X80.1 Y39.854
G1 X79.86 Y39.762
G1 X79.626 Y39.65
G1 X79.4 Y39.519
G1 X79.185 Y39.369
G1 X78.982 Y39.201
G1 X78.791 Y39.017
G1 X78.615 Y38.817
G1 X78.455 Y38.603
G1 X78.313 Y38.377
G1 X78.189 Y38.138
G1 X78.083 Y37.89
G1 X77.998 Y37.633
G1 X77.934 Y37.37
G1 X77.891 Y37.102
G1 X77.869 Y36.831
G1 X77.87 Y36.559
G1 X77.892 Y36.287
G1 X77.936 Y36.018
G1 X78.002 Y35.753
G1 X78.088 Y35.493
G1 X78.196 Y35.241
G1 X78.323 Y34.999
G1 X78.469 Y34.767
G1 X78.634 Y34.548
G1 X78.816 Y34.342
G1 X79.014 Y34.152
G1 X79.226 Y33.978
G1 X79.452 Y33.822
G1 X79.69 Y33.684
G1 X79.938 Y33.566
G1 X80.195 Y33.468
G1 X80.459 Y33.391
G1 X80.728 Y33.335
G1 X81.001 Y33.301
G1 X81.276 Y33.289
G1 X81.551 Y33.3
G1 X81.824 Y33.332
G1 X82.094 Y33.386
G1 X82.358 Y33.462
G1 X82.616 Y33.558
G1 X82.865 Y33.675
G1 X83.104 Y33.812
G1 X83.331 Y33.967
G1 X83.557 Y34.15
G1 X83.798 Y34.379
G1 X84.025 Y34.633
G1 X84.239 Y34.915
G1 X84.431 Y35.215
G1 X84.596 Y35.524
G1 X84.731 Y35.836
G1 X84.838 Y36.15
G1 X84.917 Y36.462
G1 X84.97 Y36.774
G1 X84.997 Y37.085
G1 X84.999 Y37.392
G1 X84.977 Y37.696
G1 X84.931 Y37.994
G1 X84.861 Y38.287
G1 X84.768 Y38.573
G1 X84.653 Y38.85
G1 X84.515 Y39.117
G1 X84.356 Y39.373
G1 X84.176 Y39.617
G1 X83.976 Y39.847
G1 X83.756 Y40.062
G1 X83.519 Y40.26
G1 X83.264 Y40.439
G1 X82.993 Y40.599
G1 X82.707 Y40.738
G1 X82.409 Y40.855
G1 X82.1 Y40.948
G1 X81.782 Y41.016
G1 X81.457 Y41.059
G1 X81.127 Y41.076
G1 X80.795 Y41.067
G1 X80.462 Y41.03
G1 X80.131 Y40.966
G1 X79.804 Y40.876
G1 X79.484 Y40.759
G1 X79.173 Y40.616
G1 X78.872 Y40.447
G1 X78.585 Y40.254
G1 X78.312 Y40.038
G1 X78.057 Y39.799
G1 X77.821 Y39.54
G1 X77.606 Y39.261
G1 X77.414 Y38.966
G1 X77.245 Y38.655
G1 X77.101 Y38.33
G1 X76.984 Y37.994
G1 X76.893 Y37.65
G1 X76.831 Y37.298
G1 X76.797 Y36.942
G1 X76.791 Y36.584
G1 X76.815 Y36.226
G1 X76.867 Y35.871
G1 X76.947 Y35.52
G1 X77.056 Y35.177
G1 X77.191 Y34.844
G1 X77.353 Y34.522
G1 X77.541 Y34.214
G1 X77.753 Y33.922
G1 X77.987 Y33.648
G1 X78.243 Y33.394
G1 X78.519 Y33.16
G1 X78.813 Y32.95
G1 X79.122 Y32.764
G1 X79.446 Y32.603
G1 X79.781 Y32.469
G1 X80.127 Y32.362
G1 X80.48 Y32.283
G1 X80.838 Y32.232
G1 X81.199 Y32.211
G1 X81.561 Y32.218
G1 X81.921 Y32.255
G1 X82.276 Y32.32
G1 X82.626 Y32.414
G1 X82.967 Y32.535
G1 X83.3 Y32.685
G1 X83.632 Y32.868
G1 X83.958 Y33.083
G1 X84.276 Y33.331
G1 X84.58 Y33.611
G1 X84.864 Y33.919
G1 X85.125 Y34.25
G1 X85.358 Y34.601
G1 X85.561 Y34.968
G1 X85.733 Y35.347
G1 X85.872 Y35.735
G1 X85.979 Y36.129
G1 X86.053 Y36.527
G1 X86.094 Y36.926
G1 X86.104 Y37.325
G1 X86.081 Y37.72
G1 X86.027 Y38.11
G1 X85.942 Y38.494
G1 X85.827 Y38.869
G1 X85.683 Y39.233
G1 X85.509 Y39.585
G1 X85.307 Y39.922
G1 X85.079 Y40.243
G1 X84.824 Y40.545
G1 X84.545 Y40.827
G1 X84.242 Y41.088
G1 X83.918 Y41.324
G1 X83.573 Y41.535
G1 X83.211 Y41.719
G1 X82.833 Y41.874
G1 X82.441 Y41.999
G1 X82.038 Y42.093
G1 X81.627 Y42.154
G1 X81.209 Y42.183
G1 X80.788 Y42.177
G1 X80.367 Y42.138
G1 X79.948 Y42.065
G1 X79.534 Y41.957
G1 X79.129 Y41.817
G1 X78.734 Y41.643
G1 X78.352 Y41.437
G1 X77.987 Y41.201
G1 X77.641 Y40.935
G1 X77.316 Y40.641
G1 X77.015 Y40.32
G1 X76.74 Y39.976
G1 X76.493 Y39.61
G1 X76.275 Y39.224
G1 X76.089 Y38.821
G1 X75.935 Y38.403
G1 X75.815 Y37.974
G1 X75.729 Y37.536
G1 X75.679 Y37.091
G1 X75.665 Y36.643
G1 X75.687 Y36.195
G1 X75.745 Y35.75
G1 X75.838 Y35.311
G1 X75.966 Y34.88
G1 X76.129 Y34.46
G1 X76.325 Y34.054
G1 X76.553 Y33.666
G1 X76.812 Y33.296
G1 X77.1 Y32.949
G1 X77.415 Y32.626
G1 X77.754 Y32.328
G1 X78.117 Y32.059
G1 X78.5 Y31.82
G1 X78.902 Y31.612
G1 X79.318 Y31.437
G1 X79.748 Y31.296
G1 X80.187 Y31.19
G1 X80.634 Y31.12
G1 X81.085 Y31.086
G1 X81.537 Y31.088
G1 X81.988 Y31.126
G1 X82.435 Y31.201
G1 X82.877 Y31.311
G1 X83.313 Y31.459
G1 X83.741 Y31.643
G1 X84.16 Y31.864
G1 X84.567 Y32.123
G1 X84.959 Y32.42
G1 X85.332 Y32.751
G1 X85.679 Y33.115
G1 X85.998 Y33.507
G1 X86.285 Y33.925
G1 X86.537 Y34.363
G1 X86.753 Y34.819
G1 X86.93 Y35.288
G1 X87.068 Y35.767
G1 X87.167 Y36.254
G1 X87.226 Y36.744
G1 X87.246 Y37.234
G1 X87.226 Y37.723
G1 X87.168 Y38.207
G1 X87.07 Y38.683
G1 X86.936 Y39.149
G1 X86.764 Y39.603
G1 X86.556 Y40.041
G1 X86.314 Y40.462
G1 X86.038 Y40.863
G1 X85.73 Y41.242
G1 X85.392 Y41.595
G1 X85.024 Y41.922
G1 X84.63 Y42.219
G1 X84.212 Y42.485
G1 X83.772 Y42.717
G1 X83.312 Y42.915
G1 X82.836 Y43.075
G1 X82.346 Y43.198
G1 X81.845 Y43.281
G1 X81.337 Y43.324
G1 X80.825 Y43.326
G1 X80.312 Y43.286
G1 X79.801 Y43.206
G1 X79.297 Y43.084
G1 X78.802 Y42.921
G1 X78.32 Y42.719
G1 X77.854 Y42.477
G1 X77.407 Y42.198
G1 X76.983 Y41.883
G1 X76.584 Y41.534
G1 X76.214 Y41.153
G1 X75.875 Y40.742
G1 X75.569 Y40.305
G1 X75.298 Y39.843
G1 X75.065 Y39.36
G1 X74.871 Y38.859
G1 X74.717 Y38.344
G1 X74.606 Y37.817
G1 X74.537 Y37.281
G1 X74.511 Y36.742
G1 X74.528 Y36.201
G1 X74.589 Y35.663
G1 X74.693 Y35.132
G1 X74.839 Y34.609
G1 X75.027 Y34.1
G1 X75.255 Y33.608
G1 X75.523 Y33.135
G1 X75.827 Y32.684
G1 X76.167 Y32.26
G1 X76.54 Y31.864
G1 X76.943 Y31.499
G1 X77.375 Y31.167
G1 X77.832 Y30.871
G1 X78.312 Y30.613
G1 X78.81 Y30.394
G1 X79.325 Y30.216
G1 X79.853 Y30.079
G1 X80.39 Y29.986
G1 X80.932 Y29.936
G1 X81.478 Y29.929
G1 X82.023 Y29.966
G1 X82.565 Y30.047
G1 X83.103 Y30.173
G1 X83.633 Y30.342
G1 X84.153 Y30.556
G1 X84.661 Y30.814
G1 X85.152 Y31.115
G1 X85.623 Y31.459
G1 X86.069 Y31.843
G1 X86.485 Y32.264
G1 X86.867 Y32.719
G1 X87.213 Y33.204
G1 X87.518 Y33.715
G1 X87.781 Y34.249
G1 X88. Y34.8
G1 X88.173 Y35.366
G1 X88.3 Y35.942
G1 X88.38 Y36.523
G1 X88.413 Y37.108
G1 X88.399 Y37.691
G1 X88.338 Y38.27
G1 X88.232 Y38.842
G1 X88.08 Y39.402
G1 X87.883 Y39.948
G1 X87.644 Y40.476
G1 X87.362 Y40.984
G1 X87.041 Y41.468
G1 X86.68 Y41.926
G1 X86.283 Y42.354
G1 X85.852 Y42.751
G1 X85.389 Y43.112
G1 X84.897 Y43.437
G1 X84.378 Y43.722
G1 X83.836 Y43.965
G1 X83.274 Y44.165
G1 X82.696 Y44.32
G1 X82.104 Y44.428
G1 X81.504 Y44.488
G1 X80.898 Y44.501
G1 X80.291 Y44.464
G1 X79.687 Y44.379
G1 X79.092 Y44.245
G1 X78.51 Y44.065
G1 X77.944 Y43.839
G1 X77.397 Y43.568
G1 X76.874 Y43.256
G1 X76.376 Y42.903
G1 X75.908 Y42.512
G1 X75.472 Y42.086
G1 X75.071 Y41.627
G1 X74.706 Y41.138
G1 X74.381 Y40.623
G1 X74.097 Y40.083
G1 X73.856 Y39.523
G1 X73.66 Y38.946
G1 X73.509 Y38.355
G1 X73.404 Y37.755
G1 X73.345 Y37.148
G1 X73.334 Y36.538
G1 X73.369 Y35.929
G1 X73.452 Y35.325
G1 X73.58 Y34.729
G1 X73.754 Y34.145
G1 X73.972 Y33.575
G1 X74.233 Y33.024
G1 X74.535 Y32.495
G1 X74.877 Y31.99
G1 X75.257 Y31.513
G1 X75.672 Y31.067
G1 X76.12 Y30.653
G1 X76.598 Y30.275
G1 X77.104 Y29.934
G1 X77.635 Y29.634
G1 X78.186 Y29.374
G1 X78.756 Y29.158
G1 X79.341 Y28.986
G1 X79.938 Y28.86
G1 X80.542 Y28.78
G1 X81.151 Y28.747
G1 X81.761 Y28.761
G1 X82.368 Y28.821
G1 X82.968 Y28.927
G1 X83.559 Y29.078
G1 X84.137 Y29.272
G1 X84.698 Y29.51
G1 X85.241 Y29.787
G1 X85.762 Y30.103
G1 X86.26 Y30.456
G1 X86.731 Y30.844
G1 X87.171 Y31.265
G1 X87.58 Y31.717
G1 X87.956 Y32.197
G1 X88.297 Y32.703
G1 X88.601 Y33.231
G1 X88.867 Y33.78
G1 X89.094 Y34.346
G1 X89.281 Y34.926
G1 X89.426 Y35.518
G1 X89.527 Y36.12
G1 X89.584 Y36.727
G1 X89.597 Y37.336
G1 X89.566 Y37.945
G1 X89.491 Y38.55
G1 X89.373 Y39.149
G1 X89.213 Y39.737
G1 X89.011 Y40.312
G1 X88.768 Y40.871
G1 X88.485 Y41.412
G1 X88.163 Y41.929
G1 X87.804 Y42.422
G1 X87.41 Y42.887
G1 X86.984 Y43.323
G1 X86.527 Y43.727
G1 X86.043 Y44.098
G1 X85.534 Y44.433
G1 X85.003 Y44.732
G1 X84.451 Y44.993
G1 X83.883 Y45.213
G1 X83.3 Y45.391
G1 X82.705 Y45.528
G1 X82.103 Y45.622
G1 X81.496 Y45.674
G1 X80.886 Y45.685
G1 X80.277 Y45.654
G1 X79.672 Y45.581
G1 X79.073 Y45.464
G1 X78.484 Y45.306
G1 X77.908 Y45.107
G1 X77.346 Y44.869
G1 X76.802 Y44.594
G1 X76.278 Y44.283
G1 X75.775 Y43.938
G1 X75.298 Y43.559
G1 X74.848 Y43.147
G1 X74.428 Y42.705
G1 X74.039 Y42.236
G1 X73.682 Y41.742
G1 X73.359 Y41.225
G1 X73.07 Y40.687
G1 X72.819 Y40.132
G1 X72.606 Y39.56
G1 X72.434 Y38.976
G1 X72.302 Y38.38
G1 X72.21 Y37.778
G1 X72.157 Y37.17
G1 X72.145 Y36.561
G1 X72.173 Y35.952
G1 X72.242 Y35.346
G1 X72.353 Y34.746
G1 X72.504 Y34.155
G1 X72.694 Y33.576
G1 X72.922 Y33.011
G1 X73.187 Y32.461
G1 X73.487 Y31.93
G1 X73.821 Y31.42
G1 X74.189 Y30.934
G1 X74.589 Y30.475
G1 X75.02 Y30.043
G1 X75.478 Y29.641
G1 X75.962 Y29.269
G1 X76.469 Y28.93
G1 X76.996 Y28.625
G1 X77.543 Y28.356
G1 X78.108 Y28.125
G1 X78.686 Y27.933
G1 X79.277 Y27.78
G1 X79.876 Y27.667
G1 X80.481 Y27.593
G1 X81.09 Y27.56
G1 X81.699 Y27.566
G1 X82.307 Y27.613
G1 X82.911 Y27.701
G1 X83.507 Y27.83
G1 X84.093 Y27.997
G1 X84.667 Y28.202
G1 X85.227 Y28.443
G1 X85.771 Y28.719
G1 X86.297 Y29.028
G1 X86.801 Y29.37
G1 X87.283 Y29.744
G1 X87.739 Y30.149
G1 X88.168 Y30.582
G1 X88.569 Y31.041
G1 X88.941 Y31.524
G1 X89.283 Y32.029
G1 X89.593 Y32.554
G1 X89.87 Y33.097
G1 X90.112 Y33.657
G1 X90.318 Y34.231
G1 X90.488 Y34.816
G1 X90.62 Y35.412
G1 X90.715 Y36.014
G1 X90.772 Y36.621
G1 X90.791 Y37.23
G1 X90.772 Y37.84
G1 X90.713 Y38.447
G1 X90.616 Y39.049
G1 X90.48 Y39.643
G1 X90.308 Y40.228
G1 X90.099 Y40.801
G1 X89.856 Y41.36
G1 X89.578 Y41.902
G1 X89.265 Y42.426
G1 X88.919 Y42.928
G1 X88.541 Y43.406
G1 X88.134 Y43.86
G1 X87.699 Y44.287
G1 X87.238 Y44.686
G1 X86.753 Y45.057
G1 X86.247 Y45.397
G1 X85.721 Y45.705
G1 X85.176 Y45.979
G1 X84.615 Y46.216
G1 X84.04 Y46.418
G1 X83.453 Y46.584
G1 X82.857 Y46.713
G1 X82.254 Y46.806
G1 X81.647 Y46.863
G1 X81.038 Y46.883
G1 X80.429 Y46.866
G1 X79.821 Y46.809
G1 X79.219 Y46.715
G1 X78.624 Y46.584
G1 X78.037 Y46.417
G1 X77.462 Y46.215
G1 X76.899 Y45.98
G1 X76.352 Y45.712
G1 X75.821 Y45.411
G1 X75.372 Y45.117
G1 X75.295 Y45.05
G1 X73.576 Y43.331
G1 X73.167 Y42.879
G1 X72.805 Y42.453
G1 X72.45 Y41.959
G1 X72.135 Y41.437
G1 X71.859 Y40.893
G1 X71.621 Y40.332
G1 X71.419 Y39.756
G1 X71.253 Y39.17
G1 X71.123 Y38.574
G1 X71.028 Y37.972
G1 X70.969 Y37.365
G1 X70.945 Y36.755
G1 X70.959 Y36.146
G1 X71.009 Y35.538
G1 X71.096 Y34.935
G1 X71.219 Y34.338
G1 X71.377 Y33.749
G1 X71.568 Y33.17
G1 X71.793 Y32.603
G1 X72.05 Y32.05
G1 X72.338 Y31.513
G1 X72.659 Y30.995
G1 X73.011 Y30.497
G1 X73.392 Y30.02
G1 X73.8 Y29.567
G1 X74.234 Y29.139
G1 X74.692 Y28.737
G1 X75.172 Y28.361
G1 X75.673 Y28.014
G1 X76.194 Y27.697
G1 X76.734 Y27.412
G1 X77.289 Y27.161
G1 X77.858 Y26.943
G1 X78.44 Y26.759
G1 X79.071 Y26.601
G1 X79.211 Y26.587
G1 X82.283
G1 X82.892 Y26.618
G1 X83.404 Y26.668
G1 X83.994 Y26.775
G1 X84.583 Y26.931
G1 X85.16 Y27.129
G1 X85.723 Y27.363
G1 X86.27 Y27.631
G1 X86.801 Y27.931
G1 X87.313 Y28.262
G1 X87.804 Y28.624
G1 X88.273 Y29.013
G1 X88.72 Y29.429
G1 X89.142 Y29.869
G1 X89.539 Y30.331
G1 X89.91 Y30.815
G1 X90.255 Y31.318
G1 X90.571 Y31.839
G1 X90.859 Y32.377
G1 X91.114 Y32.93
G1 X91.338 Y33.498
G1 X91.396 Y33.687
G1 X91.412 Y33.843
G1 Y39.453
G1 X91.386 Y39.98
G1 X91.332 Y40.393
G1 X91.235 Y40.845
G1 X91.077 Y41.373
G1 X90.856 Y41.942
G1 X90.591 Y42.491
G1 X90.289 Y43.02
G1 X89.953 Y43.53
G1 X89.588 Y44.017
G1 X89.193 Y44.482
G1 X88.771 Y44.923
G1 X88.326 Y45.339
G1 X87.857 Y45.729
G1 X87.368 Y46.093
G1 X86.86 Y46.43
G1 X86.334 Y46.738
G1 X85.791 Y47.016
G1 X85.234 Y47.264
G1 X84.664 Y47.479
G1 X84.082 Y47.661
G1 X83.491 Y47.811
G1 X82.893 Y47.928
G1 X82.289 Y48.013
G1 X81.681 Y48.066
G1 X81.072 Y48.085
G1 X80.462 Y48.071
G1 X79.854 Y48.024
G1 X79.25 Y47.943
G1 X78.651 Y47.828
G1 X78.041 Y47.674
G1 X77.929 Y47.63
G1 X77.826 Y47.568
G1 X77.735 Y47.49
G1 X75.295 Y45.05
G1 X75.207 Y44.961
G1 X73.664 Y43.419
G1 X73.576 Y43.331
G1 X71.083 Y40.838
G1 X70.934 Y40.673
G1 X70.777 Y40.468
G1 X70.606 Y40.204
G1 X70.435 Y39.889
G1 X70.257 Y39.482
G1 X70.092 Y39.008
G1 X69.945 Y38.438
G1 X69.84 Y37.838
G1 X69.778 Y37.231
G1 X69.756 Y36.622
G1 X69.77 Y36.012
G1 X69.819 Y35.405
G1 X69.901 Y34.8
G1 X70.016 Y34.202
G1 X70.162 Y33.61
G1 X70.34 Y33.027
G1 X70.549 Y32.454
G1 X70.788 Y31.893
G1 X71.056 Y31.345
G1 X71.353 Y30.813
G1 X71.678 Y30.297
G1 X72.03 Y29.799
G1 X72.407 Y29.32
G1 X72.809 Y28.861
G1 X73.234 Y28.424
G1 X73.682 Y28.011
G1 X74.151 Y27.621
G1 X74.64 Y27.257
G1 X75.148 Y26.919
G1 X75.535 Y26.691
G1 X75.654 Y26.634
G1 X75.781 Y26.599
G1 X75.912 Y26.587
G1 X79.211
G1 X79.249 Y26.596 Z-2.494
G1 X79.282 Y26.604 Z-2.476
G1 X79.309 Y26.61 Z-2.448
G1 X79.326 Y26.615 Z-2.414
G1 X79.332 Y26.616 Z-2.375
G0 Z5.
G0 X71.04 Y40.479
G0 Z-1.865
G1 Z-2.182 F1000.
G1 X71.044 Y40.487 Z-2.253
G1 X71.054 Y40.508 Z-2.32
G1 X71.071 Y40.541 Z-2.38
G1 X71.094 Y40.586 Z-2.431
G1 X71.121 Y40.64 Z-2.469
G1 X71.151 Y40.7 Z-2.492
G1 X71.183 Y40.763 Z-2.5
G1 X71.189 Y40.792
G1 X71.183 Y40.82
G1 X71.164 Y40.842
G1 X71.137 Y40.854
G1 X71.108 Y40.852
G1 X71.083 Y40.838
G1 X69.651 Y39.401
G1 X69.606 Y39.314
G1 X69.591 Y39.245
G1 X69.588 Y32.943
G1 X69.61 Y32.503
G1 X69.654 Y32.16
G1 X69.736 Y31.78
G1 X69.873 Y31.323
G1 X70.082 Y30.787
G1 X70.348 Y30.238
G1 X70.652 Y29.71
G1 X70.988 Y29.201
G1 X71.352 Y28.712
G1 X71.742 Y28.243
G1 X72.155 Y27.795
G1 X72.59 Y27.368
G1 X73.046 Y26.962
G1 X73.307 Y26.752
G1 X73.448 Y26.662
G1 X73.606 Y26.606
G1 X73.772 Y26.587
G3 X74.028 Y27.076 I-0.011 J0.317
G1 X70.172 Y33.103
G3 X69.588 Y32.943 I-0.267 J-0.171
G1 Y30.45
G1 X69.601 Y30.175
G1 X69.632 Y29.939
G1 X69.688 Y29.68
G1 X69.781 Y29.368
G1 X69.916 Y29.02
G1 X70.119 Y28.603
G1 X70.401 Y28.125
G1 X70.751 Y27.626
G1 X71.138 Y27.154
G1 X71.445 Y26.824
G1 X71.602 Y26.696
G1 X71.787 Y26.615
G1 X71.987 Y26.587
G3 X72.25 Y27.065 I-0.011 J0.317
G1 X70.179 Y30.599
G3 X69.906 Y30.756 I-0.274 J-0.161
G1 X69.905
G3 X69.588 Y30.45 I0. J-0.317
G1 Y28.511
G1 X69.601 Y28.247
G1 X69.625 Y28.065
G1 X69.671 Y27.846
G1 X69.747 Y27.594
G1 X69.855 Y27.318
G1 X69.987 Y27.046
G1 X70.041 Y26.952
G1 X70.159 Y26.801
G1 X70.312 Y26.685
G1 X70.49 Y26.612
G1 X70.68 Y26.587
G3 X70.955 Y27.042 I-0.011 J0.317
G1 X70.191 Y28.637
G3 X69.588 Y28.511 I-0.286 J-0.137
G1 Y26.987
G1 X69.596 Y26.849
G1 X69.642 Y26.745
G1 X69.709 Y26.664
G1 X69.779 Y26.619
G1 X69.883 Y26.589
G1 X75.912 Y26.587
G1 X75.949 Y26.596 Z-2.494
G1 X75.983 Y26.604 Z-2.476
G1 X76.01 Y26.61 Z-2.448
G1 X76.027 Y26.615 Z-2.414
G1 X76.033 Y26.616 Z-2.375
G0 Z5.
G0 X82.567 Y26.811
G0 Z-1.865
G1 Z-2.182 F1000.
G1 X82.559 Y26.808 Z-2.253
G1 X82.537 Y26.801 Z-2.32
G1 X82.501 Y26.789 Z-2.38
G1 X82.454 Y26.773 Z-2.431
G1 X82.396 Y26.754 Z-2.469
G1 X82.333 Y26.733 Z-2.492
G1 X82.266 Y26.711 Z-2.5
G1 X82.241 Y26.696
G1 X82.225 Y26.671
G1 X82.223 Y26.642
G1 X82.234 Y26.615
G1 X82.255 Y26.595
G1 X82.283 Y26.587
G1 X85.609
G1 X85.892 Y26.602
G1 X86.158 Y26.637
G1 X86.462 Y26.702
G1 X86.815 Y26.807
G1 X87.231 Y26.969
G1 X87.678 Y27.186
G1 X88.192 Y27.489
G1 X88.691 Y27.84
G1 X89.165 Y28.224
G1 X89.614 Y28.636
G1 X90.039 Y29.074
G1 X90.44 Y29.533
G1 X90.817 Y30.012
G1 X91.169 Y30.509
G1 X91.297 Y30.711
G1 X91.36 Y30.835
G1 X91.399 Y30.969
G1 X91.412 Y31.108
G3 X90.902 Y31.349 I-0.317 J-0.011
G1 X85.427 Y27.157
G3 X85.609 Y26.587 I0.193 J-0.252
G1 X87.687
G1 X87.945 Y26.6
G1 X88.147 Y26.627
G1 X88.369 Y26.674
G1 X88.64 Y26.755
G1 X88.923 Y26.866
G1 X89.27 Y27.034
G1 X89.648 Y27.257
G1 X90.078 Y27.559
G1 X90.548 Y27.949
G1 X90.985 Y28.373
G1 X91.22 Y28.632
G1 X91.325 Y28.78
G1 X91.39 Y28.949
G1 X91.412 Y29.129
G3 X90.922 Y29.384 I-0.317 J-0.011
G1 X87.525 Y27.171
G3 X87.687 Y26.587 I0.173 J-0.266
G1 X89.488
G1 X89.686 Y26.597
G1 X89.864 Y26.621
G1 X90.07 Y26.665
G1 X90.282 Y26.728
G1 X90.542 Y26.83
G1 X90.815 Y26.962
G1 X91.098 Y27.129
G1 X91.229 Y27.247
G1 X91.329 Y27.393
G1 X91.391 Y27.559
G1 X91.412 Y27.735
G3 X90.95 Y28.006 I-0.317 J-0.011
G1 X89.354 Y27.187
G3 X89.488 Y26.587 I0.145 J-0.282
G1 X90.95
G1 X90.984
G1 X91.012
G1 X91.143 Y26.594
G3 X91.092 Y27.045 I-0.046 J0.223
G1 X91.04 Y27.043
G1 X91.014
G3 X91.012 Y26.587 I0.006 J-0.228
G1 X91.151 Y26.595
G1 X91.255 Y26.639
G1 X91.331 Y26.71
G1 X91.378 Y26.779
G1 X91.41 Y26.883
G1 X91.412 Y33.843
G1 Y33.968
G1 Y39.328
G1 Y39.453
G1 Y42.223
G1 X91.4 Y42.464
G1 X91.369 Y42.701
G1 X91.311 Y42.974
G1 X91.219 Y43.282
G1 X91.08 Y43.637
G1 X90.878 Y44.053
G1 X90.617 Y44.498
G1 X90.266 Y44.997
G1 X89.877 Y45.466
G1 X89.457 Y45.909
G1 X89.012 Y46.325
G1 X88.544 Y46.715
G1 X88.055 Y47.081
G1 X87.549 Y47.421
G1 X87.026 Y47.734
G1 X86.488 Y48.021
G1 X85.936 Y48.279
G1 X85.371 Y48.509
G1 X84.795 Y48.708
G1 X84.21 Y48.879
G1 X83.616 Y49.021
G1 X83.017 Y49.133
G1 X82.413 Y49.216
G1 X81.806 Y49.27
G1 X81.197 Y49.294
G1 X80.587 Y49.288
G1 X79.978 Y49.252
G1 X79.695 Y49.221
G1 X79.533 Y49.184
G1 X79.383 Y49.112
G1 X79.253 Y49.008
G1 X77.735 Y47.49
G3 X77.853 Y46.977 I0.232 J-0.217
G1 X90.981 Y41.938
G3 X91.412 Y42.223 I0.114 J0.296
G1 Y44.162
G1 X91.401 Y44.396
G1 X91.377 Y44.575
G1 X91.331 Y44.79
G1 X91.257 Y45.037
G1 X91.153 Y45.304
G1 X91. Y45.62
G1 X90.794 Y45.969
G1 X90.521 Y46.358
G1 X90.153 Y46.802
G1 X89.727 Y47.238
G1 X89.272 Y47.643
G1 X88.792 Y48.02
G1 X88.293 Y48.37
G1 X87.777 Y48.695
G1 X87.245 Y48.993
G1 X86.699 Y49.264
G1 X86.14 Y49.509
G1 X85.571 Y49.726
G1 X84.992 Y49.917
G1 X84.405 Y50.082
G1 X83.811 Y50.22
G1 X83.211 Y50.331
G1 X82.608 Y50.416
G1 X82.001 Y50.474
G1 X81.392 Y50.505
G1 X81.065 Y50.508
G1 X80.871 Y50.483
G1 X80.691 Y50.409
G1 X80.536 Y50.291
G1 X79.253 Y49.008
G3 X79.368 Y48.497 I0.232 J-0.217
G1 X90.978 Y43.878
G3 X91.412 Y44.162 I0.117 J0.295
G1 Y45.963
G1 X91.406 Y46.098
G1 X91.378 Y46.281
G1 X91.334 Y46.467
G1 X91.262 Y46.689
G1 X91.158 Y46.939
G1 X91.02 Y47.209
G1 X90.828 Y47.521
G1 X90.571 Y47.87
G1 X90.245 Y48.246
G1 X89.811 Y48.672
G1 X89.343 Y49.063
G1 X88.85 Y49.423
G1 X88.338 Y49.753
G1 X87.809 Y50.056
G1 X87.266 Y50.333
G1 X86.71 Y50.584
G1 X86.144 Y50.81
G1 X85.568 Y51.012
G1 X84.985 Y51.188
G1 X84.394 Y51.339
G1 X83.798 Y51.466
G1 X83.196 Y51.568
G1 X82.592 Y51.645
G1 X82.289 Y51.671
G1 X82.075 Y51.658
G1 X81.874 Y51.585
G1 X81.702 Y51.457
G1 X80.536 Y50.291
G3 X80.651 Y49.779 I0.232 J-0.217
G1 X90.978 Y45.679
G3 X91.412 Y45.963 I0.117 J0.295
G1 Y47.486
G1 X91.406 Y47.621
G1 X91.384 Y47.783
G1 X91.348 Y47.95
G1 X91.288 Y48.15
G1 X91.199 Y48.375
G1 X91.085 Y48.61
G1 X90.92 Y48.889
G1 X90.717 Y49.177
G1 X90.44 Y49.509
G1 X90.076 Y49.88
G1 X89.616 Y50.28
G1 X89.125 Y50.642
G1 X88.611 Y50.97
G1 X88.08 Y51.269
G1 X87.534 Y51.541
G1 X86.976 Y51.787
G1 X86.408 Y52.008
G1 X85.831 Y52.206
G1 X85.247 Y52.38
G1 X84.656 Y52.531
G1 X84.06 Y52.659
G1 X83.402 Y52.77
G1 X83.184 Y52.76
G1 X82.977 Y52.687
G1 X82.802 Y52.557
G1 X81.702 Y51.457
G3 X81.814 Y50.946 I0.232 J-0.217
G1 X90.975 Y47.203
G3 X91.412 Y47.486 I0.12 J0.294
G1 Y49.01
G1 X91.406 Y49.145
G1 X91.38 Y49.302
G1 X91.334 Y49.484
G1 X91.272 Y49.668
G1 X91.178 Y49.889
G1 X91.052 Y50.128
G1 X90.889 Y50.384
G1 X90.671 Y50.673
G1 X90.389 Y50.99
G1 X90.04 Y51.325
G1 X89.58 Y51.699
G1 X89.078 Y52.045
G1 X88.554 Y52.357
G1 X88.013 Y52.638
G1 X87.459 Y52.893
G1 X86.894 Y53.122
G1 X86.32 Y53.327
G1 X85.738 Y53.51
G1 X85.15 Y53.67
G1 X84.519 Y53.806
G1 X84.338 Y53.82
G1 X84.158 Y53.789
G1 X83.992 Y53.716
G1 X83.849 Y53.604
G1 X82.802 Y52.557
G3 X82.913 Y52.046 I0.232 J-0.217
G1 X90.974 Y48.727
G3 X91.412 Y49.01 I0.121 J0.294
G1 Y50.395
G1 X91.406 Y50.53
G1 X91.387 Y50.667
G1 X91.351 Y50.83
G1 X91.296 Y51.011
G1 X91.221 Y51.201
G1 X91.109 Y51.428
G1 X90.973 Y51.657
G1 X90.785 Y51.922
G1 X90.553 Y52.199
G1 X90.24 Y52.516
G1 X89.854 Y52.85
G1 X89.362 Y53.21
G1 X88.843 Y53.53
G1 X88.305 Y53.817
G1 X87.752 Y54.073
G1 X87.187 Y54.304
G1 X86.614 Y54.511
G1 X86.032 Y54.694
G1 X85.585 Y54.81
G1 X85.513 Y54.823
G1 X85.336 Y54.832
G1 X85.162 Y54.799
G1 X85.001 Y54.726
G1 X84.862 Y54.617
G1 X83.849 Y53.604
G3 X83.957 Y53.095 I0.232 J-0.217
G1 X90.971 Y50.114
G3 X91.412 Y50.395 I0.124 J0.292
G1 Y51.78
G1 X91.406 Y51.915
G1 X91.385 Y52.063
G1 X91.35 Y52.214
G1 X91.296 Y52.388
G1 X91.216 Y52.588
G1 X91.116 Y52.789
G1 X90.97 Y53.029
G1 X90.795 Y53.273
G1 X90.557 Y53.553
G1 X90.273 Y53.837
G1 X89.895 Y54.16
G1 X89.413 Y54.508
G1 X88.891 Y54.824
G1 X88.35 Y55.105
G1 X87.794 Y55.355
G1 X87.227 Y55.579
G1 X86.757 Y55.737
G1 X86.542 Y55.79
G1 X86.354 Y55.812
G1 X86.165 Y55.785
G1 X85.991 Y55.711
G1 X85.84 Y55.595
G1 X84.862 Y54.617
G3 X84.967 Y54.109 I0.232 J-0.217
G1 X90.969 Y51.5
G3 X91.412 Y51.78 I0.127 J0.291
G1 Y53.165
G1 X91.406 Y53.3
G1 X91.382 Y53.447
G1 X91.345 Y53.597
G1 X91.285 Y53.775
G1 X91.204 Y53.966
G1 X91.096 Y54.172
G1 X90.944 Y54.413
G1 X90.767 Y54.648
G1 X90.521 Y54.926
G1 X90.23 Y55.207
G1 X89.849 Y55.519
G1 X89.36 Y55.858
G1 X88.832 Y56.164
G1 X88.285 Y56.433
G1 X87.838 Y56.618
G1 X87.471 Y56.73
G1 X87.284 Y56.749
G1 X87.099 Y56.721
G1 X86.926 Y56.647
G1 X86.778 Y56.533
G1 X85.84 Y55.595
G3 X85.945 Y55.088 I0.232 J-0.217
G1 X90.968 Y52.885
G3 X91.412 Y53.165 I0.127 J0.291
G1 Y54.412
G1 X91.404 Y54.589
G1 X91.386 Y54.724
G1 X91.354 Y54.874
G1 X91.306 Y55.033
G1 X91.233 Y55.221
G1 X91.141 Y55.411
G1 X91.013 Y55.628
G1 X90.846 Y55.866
G1 X90.641 Y56.113
G1 X90.374 Y56.387
G1 X90.032 Y56.685
G1 X89.637 Y56.977
G1 X89.202 Y57.248
G1 X88.858 Y57.425
G1 X88.562 Y57.549
G1 X88.415 Y57.597
G1 X88.215 Y57.633
G1 X88.013 Y57.613
G1 X87.824 Y57.539
G1 X87.662 Y57.417
G3 X87.686 Y56.96 I0.232 J-0.217
G1 X90.887 Y54.183
G3 X91.412 Y54.412 I0.208 J0.24
G1 Y55.797
G1 X91.406 Y55.932
G1 X91.386 Y56.065
G1 X91.35 Y56.216
G1 X91.294 Y56.389
G1 X91.222 Y56.564
G1 X91.116 Y56.771
G1 X90.989 Y56.977
G1 X90.816 Y57.213
G1 X90.615 Y57.445
G1 X90.371 Y57.685
G1 X90.098 Y57.914
G1 X89.838 Y58.098
G1 X89.588 Y58.246
G1 X89.347 Y58.361
G1 X89.259 Y58.389
G1 X89.168 Y58.407
G1 X89.076 Y58.412
G3 X88.848 Y57.886 I0.011 J-0.317
G1 X89.866 Y56.727
G1 X90.857 Y55.598
G3 X91.412 Y55.797 I0.239 J0.209
G1 Y57.043
G1 X91.405 Y57.201
G1 X91.387 Y57.335
G1 X91.357 Y57.474
G1 X91.309 Y57.632
G1 X91.246 Y57.792
G1 X91.159 Y57.97
G1 X91.111 Y58.05
G1 X90.993 Y58.2
G1 X90.841 Y58.315
G1 X90.664 Y58.388
G1 X90.474 Y58.412
G3 X90.211 Y57.935 I0.011 J-0.317
G1 X90.821 Y56.894
G3 X91.094 Y56.737 I0.274 J0.161
G1 X91.095
G3 X91.412 Y57.043 I0. J0.318
G1 X91.41 Y58.117
G1 X91.378 Y58.221
G1 X91.312 Y58.312
G1 X91.22 Y58.38
G1 X91.116 Y58.411
G1 X88.761
G1 X88.657 Y58.381
G1 X88.596 Y58.344
G1 X86.778 Y56.533
G1 X86.757 Y56.5 Z-2.494
G1 X86.739 Y56.471 Z-2.476
G1 X86.725 Y56.447 Z-2.448
G1 X86.716 Y56.432 Z-2.414
G1 X86.712 Y56.427 Z-2.375
G0 Z5.
G0 Z15.

N40(Bore1)
S5000 M3 M8
G0 X19.619 Y42.182
G0 Z15.
G0 Z2.
G1 Z0.317 F1000.
G1 X19.627 Z0.247
G1 X19.65 Z0.18
G1 X19.688 Z0.12
G1 X19.738 Z0.069
G1 X19.798 Z0.031
G1 X19.866 Z0.008
G1 X19.936 Z0.
G1 X20.095
G3 X20.413 Y42.5 I0. J0.318
G3 X15.587 Z-0.5 I-2.413 J0.
G3 X20.413 Z-1. I2.413 J0.
G3 X15.587 Z-1.5 I-2.413 J0.
G3 X20.413 Z-2. I2.413 J0.
G3 X15.587 Z-2.5 I-2.413 J0.
G3 X20.413 Z-3. I2.413 J0.
G3 X15.587 I-2.413 J0.
G3 X20.413 I2.413 J0.
G3 X20.095 Y42.818 I-0.318 J0.
G1 X19.936
G1 X19.866 Z-2.992
G1 X19.798 Z-2.969
G1 X19.738 Z-2.931
G1 X19.688 Z-2.88
G1 X19.65 Z-2.82
G1 X19.627 Z-2.753
G1 X19.619 Z-2.682
G0 Z15.

N50(2D Contour6)
S5000 M3 M8
G0 X72.577 Y65.024
G0 Z15.
G0 Z5.
G1 Z2. F333.
G1 Z-0.683
G1 X72.582 Y65.018 Z-0.753 F1000.
G1 X72.597 Y65. Z-0.82
G1 X72.622 Y64.971 Z-0.88
G1 X72.654 Y64.933 Z-0.931
G1 X72.693 Y64.887 Z-0.969
G1 X72.737 Y64.836 Z-0.992
G1 X72.783 Y64.782 Z-1.
G1 X72.988 Y64.54
G3 X73.436 Y64.504 I0.242 J0.206
G1 X84.681 Y74.063
G1 X15.319
G1 X28.084 Y63.213
G1 X71.916
G1 X73.436 Y64.504
G3 X73.472 Y64.952 I-0.206 J0.242
G1 X73.267 Y65.193
G1 X73.221 Y65.247 Z-0.992
G1 X73.177 Y65.298 Z-0.969
G1 X73.138 Y65.344 Z-0.931
G1 X73.106 Y65.383 Z-0.88
G1 X73.081 Y65.411 Z-0.82
G1 X73.066 Y65.429 Z-0.753
G1 X73.061 Y65.435 Z-0.683
G1 X72.577 Y65.024
G1 Z-1.683 F333.
G1 X72.582 Y65.018 Z-1.753 F1000.
G1 X72.597 Y65. Z-1.82
G1 X72.622 Y64.971 Z-1.88
G1 X72.654 Y64.933 Z-1.931
G1 X72.693 Y64.887 Z-1.969
G1 X72.737 Y64.836 Z-1.992
G1 X72.783 Y64.782 Z-2.
G1 X72.988 Y64.54
G3 X73.436 Y64.504 I0.242 J0.206
G1 X84.681 Y74.063
G1 X15.319
G1 X28.084 Y63.213
G1 X71.916
G1 X73.436 Y64.504
G3 X73.472 Y64.952 I-0.206 J0.242
G1 X73.267 Y65.193
G1 X73.221 Y65.247 Z-1.992
G1 X73.177 Y65.298 Z-1.969
G1 X73.138 Y65.344 Z-1.931
G1 X73.106 Y65.383 Z-1.88
G1 X73.081 Y65.411 Z-1.82
G1 X73.066 Y65.429 Z-1.753
G1 X73.061 Y65.435 Z-1.683
G1 X72.577 Y65.024
G1 Z-2.683 F333.
G1 X72.582 Y65.018 Z-2.753 F1000.
G1 X72.597 Y65. Z-2.82
G1 X72.622 Y64.971 Z-2.88
G1 X72.654 Y64.933 Z-2.931
G1 X72.693 Y64.887 Z-2.969
G1 X72.737 Y64.836 Z-2.992
G1 X72.783 Y64.782 Z-3.
G1 X72.988 Y64.54
G3 X73.436 Y64.504 I0.242 J0.206
G1 X84.681 Y74.063
G1 X15.319
G1 X28.084 Y63.213
G1 X71.916
G1 X73.436 Y64.504
G3 X73.472 Y64.952 I-0.206 J0.242
G1 X73.267 Y65.193
G1 X73.221 Y65.247 Z-2.992
G1 X73.177 Y65.298 Z-2.969
G1 X73.138 Y65.344 Z-2.931
G1 X73.106 Y65.383 Z-2.88
G1 X73.081 Y65.411 Z-2.82
G1 X73.066 Y65.429 Z-2.753
G1 X73.061 Y65.435 Z-2.683
G0 Z15.

N60(2D Contour7)
S5000 M3 M8
G0 X102.54 Y42.818
G0 Z15.
G0 Z5.
G1 Z2. F333.
G1 Z-2.683
G1 X102.532 Z-2.753 F1000.
G1 X102.509 Z-2.82
G1 X102.471 Z-2.88
G1 X102.42 Z-2.931
G1 X102.36 Z-2.969
G1 X102.293 Z-2.992
G1 X102.223 Z-3.
G1 X101.905
G3 X101.588 Y42.5 I0. J-0.318
G1 Y0.
G2 X100. Y-1.587 I-1.588 J0.
G1 X0.
G2 X-1.587 Y0. I0. J1.587
G1 Y85.
G2 X0. Y86.588 I1.587 J0.
G1 X100.
G2 X101.588 Y85. I0. J-1.588
G1 Y42.5
G3 X101.905 Y42.182 I0.317 J0.
G1 X102.223
G1 X102.293 Z-2.992
G1 X102.36 Z-2.969
G1 X102.42 Z-2.931
G1 X102.471 Z-2.88
G1 X102.509 Z-2.82
G1 X102.532 Z-2.753
G1 X102.54 Z-2.683
G0 Z15.
M5 M9

G30
M30
%
