%
(Arduino holder)
(T1  D=3.175 CR=0. - ZMIN=-5.2 - flat end mill)
(T2  D=3.175 CR=0. TAPER=118deg - ZMIN=-7.154 - drill)
G90 G54 G64 G50 G17 G40 G80 G94 G91.1 G49
G21 (Metric)
G30

N10(Drill2)
T2 G43 H2 M6
S5000 M3 M8
G54
G0 X16.24 Y51.8
G0 Z15.
G0 Z5.
G98 G81 X16.24 Y51.8 Z-7.154 R0.8 F1000.
X67.04 Y36.56
Y8.62
X14.97 Y3.54
G80
G0 Z15.
M5 M9
G30

N20(2D Adaptive1)
M1
T1 G43 H1 M6
S5000 M3 M8
G0 X38.872 Y26.968
G0 Z15.
G0 Z5.
G0 Z2.5
G2 X41.541 Y28.372 Z2.335 I1.335 J0.702 F333.
G2 X38.872 Y26.968 Z2.169 I-1.335 J-0.702
G2 X41.541 Y28.372 Z2.004 I1.335 J0.702
G2 X38.872 Y26.968 Z1.838 I-1.335 J-0.702
G2 X41.541 Y28.372 Z1.673 I1.335 J0.702
G2 X38.872 Y26.968 Z1.507 I-1.335 J-0.702
G2 X41.541 Y28.372 Z1.342 I1.335 J0.702
G2 X38.872 Y26.968 Z1.176 I-1.335 J-0.702
G2 X41.541 Y28.372 Z1.011 I1.335 J0.702
G2 X38.872 Y26.968 Z0.845 I-1.335 J-0.702
G2 X41.541 Y28.372 Z0.68 I1.335 J0.702
G2 X38.872 Y26.968 Z0.515 I-1.335 J-0.702
G2 X41.541 Y28.372 Z0.349 I1.335 J0.702
G2 X38.872 Y26.968 Z0.184 I-1.335 J-0.702
G2 X41.541 Y28.372 Z0.018 I1.335 J0.702
G2 X38.872 Y26.968 Z-0.147 I-1.335 J-0.702
G2 X41.541 Y28.372 Z-0.313 I1.335 J0.702
G2 X38.872 Y26.968 Z-0.478 I-1.335 J-0.702
G2 X41.541 Y28.372 Z-0.644 I1.335 J0.702
G2 X38.872 Y26.968 Z-0.809 I-1.335 J-0.702
G2 X41.541 Y28.372 Z-0.974 I1.335 J0.702
G2 X41.715 Y27.67 Z-1. I-1.335 J-0.702
G2 X38.699 I-1.508 J0.
G2 X41.715 I1.508 J0.
G1 X41.719 Y27.518 F1000.
G1 X41.848 Y26.972
G1 X41.868 Y26.839
G1 X41.867 Y26.704
G1 X41.848 Y26.57
G1 X41.813 Y26.44
G1 X41.764 Y26.314
G1 X41.702 Y26.194
G1 X41.629 Y26.081
G1 X41.546 Y25.974
G1 X41.454 Y25.875
G1 X41.352 Y25.782
G1 X41.24 Y25.695
G1 X41.117 Y25.614
G1 X40.984 Y25.541
G1 X40.843 Y25.478
G1 X40.693 Y25.425
G1 X40.536 Y25.383
G1 X40.372 Y25.354
G1 X40.205 Y25.337
G1 X40.033 Y25.334
G1 X39.86 Y25.345
G1 X39.685 Y25.37
G1 X39.511 Y25.409
G1 X39.34 Y25.463
G1 X39.171 Y25.531
G1 X39.007 Y25.613
G1 X38.85 Y25.708
G1 X38.699 Y25.817
G1 X38.557 Y25.938
G1 X38.424 Y26.07
G1 X38.302 Y26.213
G1 X38.192 Y26.367
G1 X38.093 Y26.529
G1 X38.008 Y26.699
G1 X37.937 Y26.875
G1 X37.88 Y27.058
G1 X37.837 Y27.244
G1 X37.81 Y27.434
G1 X37.798 Y27.626
G1 X37.801 Y27.818
G1 X37.82 Y28.01
G1 X37.854 Y28.199
G1 X37.904 Y28.386
G1 X37.968 Y28.568
G1 X38.047 Y28.744
G1 X38.139 Y28.914
G1 X38.245 Y29.075
G1 X38.364 Y29.228
G1 X38.494 Y29.371
G1 X38.636 Y29.503
G1 X38.788 Y29.623
G1 X38.949 Y29.73
G1 X39.118 Y29.825
G1 X39.294 Y29.905
G1 X39.476 Y29.971
G1 X39.663 Y30.022
G1 X39.854 Y30.059
G1 X40.046 Y30.079
G1 X40.24 Y30.084
G1 X40.434 Y30.074
G1 X40.626 Y30.048
G1 X40.815 Y30.007
G1 X41.001 Y29.95
G1 X41.181 Y29.879
G1 X41.355 Y29.794
G1 X41.522 Y29.695
G1 X41.68 Y29.583
G1 X41.829 Y29.459
G1 X41.968 Y29.323
G1 X42.095 Y29.176
G1 X42.209 Y29.02
G1 X42.352 Y28.788
G1 X42.548 Y28.405
G1 X42.676 Y28.097
G1 X42.761 Y27.833
G1 X42.818 Y27.591
G1 X42.853 Y27.361
G1 X42.869 Y27.139
G1 X42.867 Y26.923
G1 X42.848 Y26.713
G1 X42.812 Y26.507
G1 X42.761 Y26.307
G1 X42.694 Y26.11
G1 X42.61 Y25.919
G1 X42.511 Y25.734
G1 X42.396 Y25.555
G1 X42.266 Y25.385
G1 X42.121 Y25.224
G1 X41.962 Y25.073
G1 X41.788 Y24.934
G1 X41.602 Y24.807
G1 X41.402 Y24.693
G1 X41.192 Y24.595
G1 X40.971 Y24.513
G1 X40.742 Y24.448
G1 X40.505 Y24.401
G1 X40.262 Y24.373
G1 X40.015 Y24.365
G1 X39.766 Y24.376
G1 X39.516 Y24.407
G1 X39.268 Y24.459
G1 X39.022 Y24.532
G1 X38.782 Y24.624
G1 X38.548 Y24.736
G1 X38.323 Y24.868
G1 X38.107 Y25.017
G1 X37.904 Y25.185
G1 X37.713 Y25.369
G1 X37.538 Y25.569
G1 X37.378 Y25.783
G1 X37.235 Y26.01
G1 X37.111 Y26.248
G1 X37.006 Y26.496
G1 X36.921 Y26.753
G1 X36.856 Y27.016
G1 X36.813 Y27.284
G1 X36.792 Y27.555
G1 Y27.827
G1 X36.814 Y28.099
G1 X36.858 Y28.368
G1 X36.924 Y28.633
G1 X37.011 Y28.893
G1 X37.118 Y29.145
G1 X37.245 Y29.387
G1 X37.392 Y29.619
G1 X37.556 Y29.838
G1 X37.738 Y30.044
G1 X37.936 Y30.234
G1 X38.149 Y30.408
G1 X38.374 Y30.564
G1 X38.612 Y30.702
G1 X38.86 Y30.82
G1 X39.117 Y30.918
G1 X39.381 Y30.995
G1 X39.65 Y31.051
G1 X39.923 Y31.085
G1 X40.198 Y31.097
G1 X40.473 Y31.086
G1 X40.746 Y31.054
G1 X41.016 Y31.
G1 X41.281 Y30.924
G1 X41.538 Y30.828
G1 X41.787 Y30.711
G1 X42.026 Y30.574
G1 X42.253 Y30.419
G1 X42.479 Y30.236
G1 X42.72 Y30.007
G1 X42.947 Y29.753
G1 X43.162 Y29.471
G1 X43.354 Y29.171
G1 X43.518 Y28.862
G1 X43.653 Y28.55
G1 X43.76 Y28.237
G1 X43.839 Y27.924
G1 X43.892 Y27.612
G1 X43.919 Y27.301
G1 X43.921 Y26.994
G1 X43.899 Y26.69
G1 X43.853 Y26.392
G1 X43.783 Y26.099
G1 X43.69 Y25.813
G1 X43.575 Y25.536
G1 X43.437 Y25.269
G1 X43.278 Y25.013
G1 X43.098 Y24.769
G1 X42.898 Y24.539
G1 X42.679 Y24.324
G1 X42.441 Y24.126
G1 X42.186 Y23.947
G1 X41.915 Y23.787
G1 X41.63 Y23.648
G1 X41.331 Y23.531
G1 X41.022 Y23.438
G1 X40.704 Y23.37
G1 X40.379 Y23.327
G1 X40.049 Y23.31
G1 X39.717 Y23.32
G1 X39.384 Y23.356
G1 X39.053 Y23.42
G1 X38.727 Y23.51
G1 X38.407 Y23.627
G1 X38.095 Y23.77
G1 X37.794 Y23.939
G1 X37.507 Y24.132
G1 X37.235 Y24.348
G1 X36.98 Y24.587
G1 X36.744 Y24.846
G1 X36.529 Y25.125
G1 X36.336 Y25.42
G1 X36.167 Y25.731
G1 X36.023 Y26.056
G1 X35.906 Y26.392
G1 X35.816 Y26.737
G1 X35.753 Y27.088
G1 X35.719 Y27.444
G1 X35.714 Y27.802
G1 X35.737 Y28.16
G1 X35.789 Y28.515
G1 X35.869 Y28.866
G1 X35.978 Y29.209
G1 X36.114 Y29.542
G1 X36.276 Y29.864
G1 X36.463 Y30.172
G1 X36.675 Y30.464
G1 X36.91 Y30.738
G1 X37.166 Y30.992
G1 X37.441 Y31.226
G1 X37.735 Y31.436
G1 X38.045 Y31.622
G1 X38.368 Y31.783
G1 X38.704 Y31.918
G1 X39.049 Y32.025
G1 X39.402 Y32.104
G1 X39.76 Y32.154
G1 X40.121 Y32.175
G1 X40.483 Y32.168
G1 X40.843 Y32.131
G1 X41.199 Y32.066
G1 X41.548 Y31.972
G1 X41.889 Y31.851
G1 X42.223 Y31.701
G1 X42.554 Y31.519
G1 X42.88 Y31.303
G1 X43.198 Y31.055
G1 X43.502 Y30.775
G1 X43.787 Y30.468
G1 X44.047 Y30.136
G1 X44.28 Y29.785
G1 X44.483 Y29.418
G1 X44.655 Y29.039
G1 X44.794 Y28.651
G1 X44.901 Y28.257
G1 X44.975 Y27.859
G1 X45.017 Y27.46
G1 X45.026 Y27.062
G1 X45.004 Y26.666
G1 X44.95 Y26.276
G1 X44.865 Y25.892
G1 X44.75 Y25.517
G1 X44.605 Y25.153
G1 X44.431 Y24.801
G1 X44.23 Y24.464
G1 X44.001 Y24.144
G1 X43.746 Y23.841
G1 X43.467 Y23.559
G1 X43.164 Y23.298
G1 X42.84 Y23.062
G1 X42.496 Y22.851
G1 X42.133 Y22.667
G1 X41.755 Y22.512
G1 X41.363 Y22.387
G1 X40.961 Y22.293
G1 X40.549 Y22.232
G1 X40.131 Y22.204
G1 X39.711 Y22.209
G1 X39.289 Y22.248
G1 X38.87 Y22.321
G1 X38.457 Y22.429
G1 X38.051 Y22.57
G1 X37.656 Y22.743
G1 X37.275 Y22.949
G1 X36.91 Y23.185
G1 X36.564 Y23.452
G1 X36.239 Y23.746
G1 X35.938 Y24.066
G1 X35.662 Y24.41
G1 X35.415 Y24.776
G1 X35.197 Y25.162
G1 X35.011 Y25.565
G1 X34.857 Y25.983
G1 X34.737 Y26.412
G1 X34.651 Y26.851
G1 X34.601 Y27.295
G1 X34.587 Y27.743
G1 X34.609 Y28.191
G1 X34.667 Y28.636
G1 X34.76 Y29.075
G1 X34.889 Y29.506
G1 X35.052 Y29.926
G1 X35.248 Y30.332
G1 X35.476 Y30.72
G1 X35.735 Y31.09
G1 X36.022 Y31.437
G1 X36.337 Y31.761
G1 X36.677 Y32.058
G1 X37.039 Y32.327
G1 X37.423 Y32.566
G1 X37.824 Y32.774
G1 X38.241 Y32.949
G1 X38.67 Y33.09
G1 X39.11 Y33.196
G1 X39.556 Y33.266
G1 X40.007 Y33.3
G1 X40.46 Y33.298
G1 X40.91 Y33.26
G1 X41.357 Y33.186
G1 X41.799 Y33.075
G1 X42.235 Y32.928
G1 X42.664 Y32.743
G1 X43.082 Y32.522
G1 X43.489 Y32.263
G1 X43.882 Y31.966
G1 X44.254 Y31.635
G1 X44.602 Y31.271
G1 X44.921 Y30.879
G1 X45.208 Y30.462
G1 X45.46 Y30.023
G1 X45.675 Y29.568
G1 X45.852 Y29.098
G1 X45.991 Y28.619
G1 X46.09 Y28.133
G1 X46.149 Y27.643
G1 X46.168 Y27.152
G1 X46.149 Y26.663
G1 X46.09 Y26.179
G1 X45.993 Y25.703
G1 X45.858 Y25.237
G1 X45.686 Y24.783
G1 X45.479 Y24.345
G1 X45.236 Y23.924
G1 X44.96 Y23.523
G1 X44.652 Y23.145
G1 X44.314 Y22.791
G1 X43.947 Y22.464
G1 X43.553 Y22.167
G1 X43.135 Y21.901
G1 X42.694 Y21.669
G1 X42.234 Y21.471
G1 X41.758 Y21.311
G1 X41.268 Y21.188
G1 X40.767 Y21.105
G1 X40.259 Y21.062
G1 X39.747 Y21.06
G1 X39.234 Y21.1
G1 X38.723 Y21.18
G1 X38.219 Y21.302
G1 X37.724 Y21.465
G1 X37.242 Y21.668
G1 X36.776 Y21.909
G1 X36.329 Y22.188
G1 X35.905 Y22.503
G1 X35.507 Y22.852
G1 X35.136 Y23.233
G1 X34.797 Y23.644
G1 X34.491 Y24.081
G1 X34.22 Y24.543
G1 X33.987 Y25.026
G1 X33.793 Y25.527
G1 X33.64 Y26.042
G1 X33.528 Y26.57
G1 X33.459 Y27.105
G1 X33.433 Y27.644
G1 X33.45 Y28.185
G1 X33.511 Y28.723
G1 X33.615 Y29.255
G1 X33.761 Y29.777
G1 X33.949 Y30.286
G1 X34.178 Y30.778
G1 X34.445 Y31.251
G1 X34.749 Y31.702
G1 X35.089 Y32.126
G1 X35.462 Y32.522
G1 X35.866 Y32.887
G1 X36.297 Y33.219
G1 X36.755 Y33.515
G1 X37.234 Y33.773
G1 X37.733 Y33.992
G1 X38.248 Y34.17
G1 X38.775 Y34.307
G1 X39.312 Y34.4
G1 X39.855 Y34.451
G1 X40.4 Y34.457
G1 X40.945 Y34.42
G1 X41.487 Y34.339
G1 X42.025 Y34.213
G1 X42.555 Y34.044
G1 X43.075 Y33.83
G1 X43.583 Y33.572
G1 X44.075 Y33.271
G1 X44.545 Y32.927
G1 X44.991 Y32.543
G1 X45.407 Y32.122
G1 X45.79 Y31.667
G1 X46.135 Y31.182
G1 X46.44 Y30.671
G1 X46.703 Y30.137
G1 X46.922 Y29.586
G1 X47.095 Y29.02
G1 X47.222 Y28.445
G1 X47.302 Y27.863
G1 X47.335 Y27.278
G1 X47.321 Y26.695
G1 X47.261 Y26.116
G1 X47.154 Y25.544
G1 X47.002 Y24.984
G1 X46.806 Y24.439
G1 X46.566 Y23.91
G1 X46.285 Y23.402
G1 X45.963 Y22.918
G1 X45.603 Y22.46
G1 X45.206 Y22.032
G1 X44.775 Y21.635
G1 X44.311 Y21.274
G1 X43.819 Y20.949
G1 X43.3 Y20.664
G1 X42.758 Y20.421
G1 X42.196 Y20.221
G1 X41.618 Y20.067
G1 X41.027 Y19.958
G1 X40.426 Y19.898
G1 X39.82 Y19.885
G1 X39.213 Y19.922
G1 X38.61 Y20.007
G1 X38.015 Y20.141
G1 X37.432 Y20.321
G1 X36.866 Y20.547
G1 X36.319 Y20.818
G1 X35.796 Y21.13
G1 X35.299 Y21.483
G1 X34.831 Y21.874
G1 X34.395 Y22.3
G1 X33.993 Y22.759
G1 X33.629 Y23.248
G1 X33.304 Y23.763
G1 X33.02 Y24.303
G1 X32.779 Y24.863
G1 X32.582 Y25.44
G1 X32.431 Y26.031
G1 X32.326 Y26.632
G1 X32.268 Y27.238
G1 X32.256 Y27.848
G1 X32.292 Y28.457
G1 X32.374 Y29.061
G1 X32.502 Y29.657
G1 X32.676 Y30.241
G1 X32.894 Y30.811
G1 X33.155 Y31.362
G1 X33.458 Y31.891
G1 X33.8 Y32.396
G1 X34.179 Y32.873
G1 X34.594 Y33.32
G1 X35.042 Y33.733
G1 X35.521 Y34.111
G1 X36.027 Y34.452
G1 X36.557 Y34.753
G1 X37.109 Y35.012
G1 X37.679 Y35.228
G1 X38.264 Y35.4
G1 X38.86 Y35.526
G1 X39.465 Y35.606
G1 X40.074 Y35.639
G1 X40.683 Y35.625
G1 X41.29 Y35.565
G1 X41.89 Y35.459
G1 X42.481 Y35.308
G1 X43.059 Y35.114
G1 X43.621 Y34.877
G1 X44.163 Y34.599
G1 X44.685 Y34.283
G1 X45.182 Y33.93
G1 X45.653 Y33.543
G1 X46.094 Y33.121
G1 X46.503 Y32.669
G1 X46.878 Y32.189
G1 X47.219 Y31.683
G1 X47.523 Y31.155
G1 X47.789 Y30.606
G1 X48.017 Y30.04
G1 X48.203 Y29.46
G1 X48.348 Y28.868
G1 X48.449 Y28.267
G1 X48.506 Y27.659
G1 X48.519 Y27.05
G1 X48.488 Y26.441
G1 X48.413 Y25.836
G1 X48.296 Y25.238
G1 X48.135 Y24.649
G1 X47.933 Y24.074
G1 X47.69 Y23.515
G1 X47.408 Y22.975
G1 X47.086 Y22.457
G1 X46.726 Y21.964
G1 X46.332 Y21.499
G1 X45.906 Y21.063
G1 X45.449 Y20.659
G1 X44.965 Y20.288
G1 X44.456 Y19.953
G1 X43.925 Y19.654
G1 X43.374 Y19.393
G1 X42.805 Y19.173
G1 X42.222 Y18.995
G1 X41.628 Y18.858
G1 X41.025 Y18.764
G1 X40.418 Y18.712
G1 X39.808 Y18.701
G1 X39.199 Y18.732
G1 X38.594 Y18.806
G1 X37.996 Y18.922
G1 X37.407 Y19.08
G1 X36.83 Y19.279
G1 X36.269 Y19.517
G1 X35.725 Y19.792
G1 X35.2 Y20.103
G1 X34.698 Y20.448
G1 X34.22 Y20.827
G1 X33.771 Y21.239
G1 X33.351 Y21.681
G1 X32.961 Y22.15
G1 X32.604 Y22.645
G1 X32.281 Y23.161
G1 X31.993 Y23.699
G1 X31.741 Y24.254
G1 X31.529 Y24.826
G1 X31.357 Y25.411
G1 X31.224 Y26.006
G1 X31.132 Y26.608
G1 X31.08 Y27.216
G1 X31.068 Y27.826
G1 X31.096 Y28.435
G1 X31.164 Y29.04
G1 X31.275 Y29.64
G1 X31.426 Y30.231
G1 X31.616 Y30.81
G1 X31.844 Y31.376
G1 X32.109 Y31.925
G1 X32.409 Y32.456
G1 X32.743 Y32.966
G1 X33.111 Y33.452
G1 X33.512 Y33.911
G1 X33.942 Y34.343
G1 X34.4 Y34.745
G1 X34.884 Y35.117
G1 X35.391 Y35.456
G1 X35.919 Y35.761
G1 X36.466 Y36.03
G1 X37.03 Y36.261
G1 X37.609 Y36.453
G1 X38.199 Y36.606
G1 X38.798 Y36.719
G1 X39.403 Y36.793
G1 X40.012 Y36.826
G1 X40.622 Y36.82
G1 X41.23 Y36.773
G1 X41.833 Y36.685
G1 X42.429 Y36.556
G1 X43.015 Y36.389
G1 X43.59 Y36.184
G1 X44.15 Y35.943
G1 X44.693 Y35.667
G1 X45.219 Y35.358
G1 X45.724 Y35.016
G1 X46.205 Y34.642
G1 X46.661 Y34.237
G1 X47.09 Y33.804
G1 X47.491 Y33.345
G1 X47.863 Y32.862
G1 X48.205 Y32.357
G1 X48.515 Y31.832
G1 X48.793 Y31.289
G1 X49.035 Y30.729
G1 X49.241 Y30.155
G1 X49.41 Y29.57
G1 X49.543 Y28.975
G1 X49.637 Y28.372
G1 X49.694 Y27.765
G1 X49.713 Y27.156
G1 X49.694 Y26.546
G1 X49.636 Y25.939
G1 X49.538 Y25.338
G1 X49.402 Y24.743
G1 X49.23 Y24.158
G1 X49.022 Y23.585
G1 X48.778 Y23.026
G1 X48.5 Y22.484
G1 X48.188 Y21.96
G1 X47.842 Y21.458
G1 X47.464 Y20.98
G1 X47.056 Y20.526
G1 X46.621 Y20.099
G1 X46.16 Y19.7
G1 X45.676 Y19.33
G1 X45.17 Y18.99
G1 X44.644 Y18.681
G1 X44.099 Y18.408
G1 X43.537 Y18.17
G1 X42.962 Y17.968
G1 X42.375 Y17.802
G1 X41.779 Y17.673
G1 X41.177 Y17.58
G1 X40.57 Y17.523
G1 X39.96 Y17.503
G1 X39.351 Y17.521
G1 X38.744 Y17.577
G1 X38.141 Y17.671
G1 X37.546 Y17.802
G1 X36.959 Y17.969
G1 X36.384 Y18.171
G1 X35.822 Y18.406
G1 X35.274 Y18.674
G1 X34.743 Y18.975
G1 X34.232 Y19.307
G1 X33.743 Y19.671
G1 X33.277 Y20.064
G1 X32.835 Y20.484
G1 X32.419 Y20.93
G1 X32.03 Y21.399
G1 X31.669 Y21.891
G1 X31.337 Y22.402
G1 X31.037 Y22.933
G1 X30.77 Y23.481
G1 X30.537 Y24.044
G1 X30.338 Y24.621
G1 X30.174 Y25.208
G1 X30.045 Y25.804
G1 X29.951 Y26.406
G1 X29.891 Y27.013
G1 X29.867 Y27.622
G1 X29.88 Y28.232
G1 X29.93 Y28.84
G1 X30.017 Y29.443
G1 X30.139 Y30.041
G1 X30.296 Y30.63
G1 X30.488 Y31.209
G1 X30.712 Y31.776
G1 X30.968 Y32.329
G1 X31.257 Y32.866
G1 X31.577 Y33.385
G1 X31.929 Y33.883
G1 X32.309 Y34.359
G1 X32.717 Y34.813
G1 X33.15 Y35.241
G1 X33.608 Y35.644
G1 X34.088 Y36.02
G1 X34.589 Y36.368
G1 X35.109 Y36.685
G1 X35.649 Y36.97
G1 X36.204 Y37.222
G1 X36.773 Y37.441
G1 X37.354 Y37.625
G1 X37.945 Y37.776
G1 X38.544 Y37.892
G1 X39.148 Y37.973
G1 X39.756 Y38.019
G1 X40.365 Y38.028
G1 X40.975 Y38.
G1 X41.581 Y37.936
G1 X42.182 Y37.837
G1 X42.777 Y37.703
G1 X43.364 Y37.535
G1 X43.939 Y37.335
G1 X44.503 Y37.103
G1 X45.053 Y36.839
G1 X45.586 Y36.543
G1 X46.101 Y36.217
G1 X46.597 Y35.862
G1 X47.072 Y35.48
G1 X47.524 Y35.071
G1 X47.953 Y34.638
G1 X48.358 Y34.182
G1 X48.737 Y33.704
G1 X49.089 Y33.206
G1 X49.413 Y32.69
G1 X49.706 Y32.155
G1 X49.969 Y31.605
G1 X50.201 Y31.041
G1 X50.402 Y30.466
G1 X50.57 Y29.879
G1 X50.706 Y29.285
G1 X50.809 Y28.684
G1 X50.878 Y28.078
G1 X50.912 Y27.47
G1 Y26.86
G1 X50.876 Y26.251
G1 X50.807 Y25.645
G1 X50.703 Y25.045
G1 X50.567 Y24.45
G1 X50.398 Y23.864
G1 X50.197 Y23.289
G1 X49.964 Y22.725
G1 X49.699 Y22.176
G1 X49.403 Y21.643
G1 X49.077 Y21.128
G1 X48.722 Y20.632
G1 X48.339 Y20.158
G1 X47.931 Y19.705
G1 X47.499 Y19.275
G1 X47.043 Y18.869
G1 X46.566 Y18.489
G1 X46.069 Y18.137
G1 X45.552 Y17.814
G1 X45.017 Y17.52
G1 X44.467 Y17.257
G1 X43.904 Y17.025
G1 X43.328 Y16.824
G1 X42.742 Y16.655
G1 X42.148 Y16.518
G1 X41.547 Y16.414
G1 X40.942 Y16.343
G1 X40.333 Y16.306
G1 X39.723 Y16.302
G1 X39.114 Y16.332
G1 X38.508 Y16.396
G1 X37.906 Y16.493
G1 X37.31 Y16.622
G1 X36.722 Y16.782
G1 X36.143 Y16.974
G1 X35.576 Y17.197
G1 X35.021 Y17.45
G1 X34.481 Y17.734
G1 X33.958 Y18.046
G1 X33.452 Y18.387
G1 X32.965 Y18.754
G1 X32.498 Y19.146
G1 X32.053 Y19.563
G1 X31.631 Y20.003
G1 X31.232 Y20.464
G1 X30.859 Y20.947
G1 X30.513 Y21.448
G1 X30.194 Y21.968
G1 X29.904 Y22.504
G1 X29.643 Y23.055
G1 X29.412 Y23.619
G1 X29.21 Y24.195
G1 X29.04 Y24.78
G1 X28.9 Y25.374
G1 X28.792 Y25.974
G1 X28.716 Y26.579
G1 X28.673 Y27.187
G1 X28.663 Y27.797
G1 X28.685 Y28.406
G1 X28.739 Y29.013
G1 X28.825 Y29.617
G1 X28.943 Y30.215
G1 X29.092 Y30.806
G1 X29.271 Y31.389
G1 X29.482 Y31.961
G1 X29.722 Y32.522
G1 X29.992 Y33.068
G1 X30.291 Y33.6
G1 X30.618 Y34.115
G1 X30.971 Y34.612
G1 X31.349 Y35.09
G1 X31.753 Y35.547
G1 X32.179 Y35.983
G1 X32.628 Y36.396
G1 X33.098 Y36.784
G1 X33.588 Y37.147
G1 X34.096 Y37.483
G1 X34.622 Y37.792
G1 X35.163 Y38.073
G1 X35.719 Y38.324
G1 X36.287 Y38.546
G1 X36.865 Y38.738
G1 X37.453 Y38.9
G1 X38.049 Y39.03
G1 X38.651 Y39.128
G1 X39.257 Y39.194
G1 X39.865 Y39.228
G1 X40.475 Y39.23
G1 X41.084 Y39.199
G1 X41.691 Y39.137
G1 X42.293 Y39.043
G1 X42.89 Y38.919
G1 X43.48 Y38.763
G1 X44.06 Y38.577
G1 X44.63 Y38.361
G1 X45.189 Y38.117
G1 X45.734 Y37.843
G1 X46.264 Y37.542
G1 X46.778 Y37.215
G1 X47.275 Y36.862
G1 X47.754 Y36.484
G1 X48.213 Y36.082
G1 X48.651 Y35.658
G1 X49.067 Y35.212
G1 X49.46 Y34.746
G1 X49.828 Y34.261
G1 X50.172 Y33.757
G1 X50.491 Y33.237
G1 X50.783 Y32.702
G1 X51.047 Y32.153
G1 X51.285 Y31.591
G1 X51.494 Y31.018
G1 X51.674 Y30.436
G1 X51.824 Y29.845
G1 X51.944 Y29.247
G1 X52.033 Y28.644
G1 X52.092 Y28.037
G1 X52.12 Y27.428
G1 X52.117 Y26.818
G1 X52.084 Y26.209
G1 X52.02 Y25.603
G1 X51.926 Y25.
G1 X51.802 Y24.404
G1 X51.647 Y23.814
G1 X51.463 Y23.233
G1 X51.249 Y22.661
G1 X51.007 Y22.102
G1 X50.736 Y21.556
G1 X50.438 Y21.024
G1 X50.113 Y20.508
G1 X49.763 Y20.009
G1 X49.388 Y19.528
G1 X48.99 Y19.066
G1 X48.568 Y18.626
G1 X48.125 Y18.207
G1 X47.661 Y17.811
G1 X47.178 Y17.439
G1 X46.677 Y17.092
G1 X46.159 Y16.771
G1 X45.625 Y16.475
G1 X45.078 Y16.207
G1 X44.518 Y15.966
G1 X43.946 Y15.754
G1 X43.365 Y15.571
G1 X42.775 Y15.417
G1 X42.178 Y15.292
G1 X41.575 Y15.198
G1 X40.969 Y15.133
G1 X40.36 Y15.098
G1 X39.751 Y15.093
G1 X39.141 Y15.118
G1 X38.534 Y15.173
G1 X37.93 Y15.258
G1 X37.332 Y15.373
G1 X36.739 Y15.518
G1 X36.155 Y15.691
G1 X35.579 Y15.893
G1 X35.014 Y16.122
G1 X34.461 Y16.379
G1 X33.921 Y16.662
G1 X33.396 Y16.971
G1 X32.886 Y17.305
G1 X32.393 Y17.663
G1 X31.918 Y18.046
G1 X31.462 Y18.451
G1 X31.027 Y18.878
G1 X30.612 Y19.325
G1 X30.22 Y19.792
G1 X29.851 Y20.277
G1 X29.505 Y20.78
G1 X29.185 Y21.298
G1 X28.889 Y21.831
G1 X28.619 Y22.378
G1 X28.377 Y22.938
G1 X28.162 Y23.508
G1 X27.975 Y24.089
G1 X27.816 Y24.677
G1 X27.685 Y25.273
G1 X27.584 Y25.874
G1 X27.511 Y26.479
G1 X27.467 Y27.087
G1 X27.452 Y27.697
G1 X27.466 Y28.306
G1 X27.509 Y28.915
G1 X27.583 Y29.52
G1 X27.685 Y30.121
G1 X27.816 Y30.717
G1 X27.975 Y31.305
G1 X28.162 Y31.885
G1 X28.376 Y32.456
G1 X28.618 Y33.016
G1 X28.886 Y33.564
G1 X29.179 Y34.098
G1 X29.498 Y34.618
G1 X29.841 Y35.122
G1 X30.208 Y35.609
G1 X30.598 Y36.077
G1 X31.011 Y36.527
G1 X31.444 Y36.956
G1 X31.897 Y37.364
G1 X32.368 Y37.75
G1 X32.858 Y38.113
G1 X33.364 Y38.453
G1 X33.886 Y38.768
G1 X34.423 Y39.058
G1 X34.972 Y39.322
G1 X35.534 Y39.558
G1 X36.107 Y39.768
G1 X36.689 Y39.95
G1 X37.279 Y40.103
G1 X37.876 Y40.229
G1 X38.478 Y40.326
G1 X39.083 Y40.394
G1 X39.692 Y40.434
G1 X40.302 Y40.445
G1 X40.911 Y40.426
G1 X41.519 Y40.378
G1 X42.124 Y40.301
G1 X42.724 Y40.195
G1 X43.319 Y40.061
G1 X43.907 Y39.9
G1 X44.487 Y39.711
G1 X45.057 Y39.496
G1 X45.617 Y39.254
G1 X46.165 Y38.987
G1 X46.7 Y38.695
G1 X47.221 Y38.377
G1 X47.726 Y38.036
G1 X48.215 Y37.672
G1 X48.686 Y37.285
G1 X49.139 Y36.877
G1 X49.574 Y36.449
G1 X49.988 Y36.002
G1 X50.381 Y35.536
G1 X50.753 Y35.052
G1 X51.102 Y34.553
G1 X51.429 Y34.038
G1 X51.731 Y33.509
G1 X52.009 Y32.966
G1 X52.261 Y32.411
G1 X52.488 Y31.845
G1 X52.689 Y31.269
G1 X52.863 Y30.685
G1 X53.011 Y30.093
G1 X53.131 Y29.495
G1 X53.224 Y28.893
G1 X53.29 Y28.287
G1 X53.328 Y27.678
G1 X53.337 Y27.069
G1 X53.318 Y26.459
G1 X53.271 Y25.851
G1 X53.196 Y25.246
G1 X53.094 Y24.645
G1 X52.964 Y24.049
G1 X52.807 Y23.46
G1 X52.623 Y22.879
G1 X52.413 Y22.306
G1 X52.177 Y21.744
G1 X51.916 Y21.193
G1 X51.628 Y20.656
G1 X51.316 Y20.132
G1 X50.98 Y19.623
G1 X50.621 Y19.13
G1 X50.24 Y18.654
G1 X49.837 Y18.196
G1 X49.414 Y17.757
G1 X48.972 Y17.338
G1 X48.511 Y16.939
G1 X48.032 Y16.561
G1 X47.537 Y16.206
G1 X47.025 Y15.874
G1 X46.499 Y15.566
G1 X45.959 Y15.282
G1 X45.407 Y15.024
G1 X44.844 Y14.79
G1 X44.271 Y14.583
G1 X43.688 Y14.402
G1 X43.099 Y14.247
G1 X42.503 Y14.118
G1 X41.902 Y14.016
G1 X41.296 Y13.942
G1 X40.689 Y13.895
G1 X40.079 Y13.876
G1 X39.469 Y13.885
G1 X38.861 Y13.921
G1 X38.254 Y13.984
G1 X37.651 Y14.075
G1 X37.053 Y14.192
G1 X36.461 Y14.336
G1 X35.875 Y14.506
G1 X35.297 Y14.701
G1 X34.729 Y14.922
G1 X34.171 Y15.168
G1 X33.625 Y15.439
G1 X33.092 Y15.735
G1 X32.572 Y16.053
G1 X32.067 Y16.395
G1 X31.577 Y16.758
G1 X31.105 Y17.143
G1 X30.649 Y17.549
G1 X30.212 Y17.973
G1 X29.793 Y18.417
G1 X29.395 Y18.878
G1 X29.017 Y19.357
G1 X28.661 Y19.852
G1 X28.328 Y20.363
G1 X28.018 Y20.888
G1 X27.731 Y21.425
G1 X27.468 Y21.975
G1 X27.229 Y22.537
G1 X27.015 Y23.108
G1 X26.827 Y23.687
G1 X26.663 Y24.275
G1 X26.526 Y24.869
G1 X26.414 Y25.468
G1 X26.33 Y26.072
G1 X26.272 Y26.679
G1 X26.241 Y27.288
G1 X26.237 Y27.898
G1 X26.259 Y28.507
G1 X26.308 Y29.115
G1 X26.384 Y29.72
G1 X26.486 Y30.321
G1 X26.614 Y30.917
G1 X26.767 Y31.507
G1 X26.946 Y32.09
G1 X27.15 Y32.665
G1 X27.38 Y33.229
G1 X27.634 Y33.784
G1 X27.912 Y34.326
G1 X28.214 Y34.856
G1 X28.538 Y35.372
G1 X28.885 Y35.874
G1 X29.253 Y36.36
G1 X29.642 Y36.83
G1 X30.051 Y37.282
G1 X30.478 Y37.716
G1 X30.925 Y38.132
G1 X31.389 Y38.527
G1 X31.87 Y38.901
G1 X32.368 Y39.254
G1 X32.88 Y39.585
G1 X33.406 Y39.893
G1 X33.945 Y40.178
G1 X34.496 Y40.44
G1 X35.057 Y40.677
G1 X35.629 Y40.889
G1 X36.209 Y41.076
G1 X36.797 Y41.239
G1 X37.391 Y41.375
G1 X37.991 Y41.485
G1 X38.595 Y41.568
G1 X39.202 Y41.625
G1 X39.811 Y41.655
G1 X40.421 Y41.659
G1 X41.03 Y41.636
G1 X41.638 Y41.587
G1 X42.243 Y41.512
G1 X42.844 Y41.411
G1 X43.44 Y41.285
G1 X44.031 Y41.133
G1 X44.614 Y40.955
G1 X45.189 Y40.752
G1 X45.755 Y40.525
G1 X46.311 Y40.274
G1 X46.855 Y40.
G1 X47.387 Y39.702
G1 X47.907 Y39.383
G1 X48.412 Y39.041
G1 X48.902 Y38.679
G1 X49.377 Y38.296
G1 X49.835 Y37.894
G1 X50.276 Y37.473
G1 X50.699 Y37.034
G1 X51.103 Y36.577
G1 X51.487 Y36.103
G1 X51.851 Y35.614
G1 X52.194 Y35.11
G1 X52.516 Y34.592
G1 X52.816 Y34.062
G1 X53.094 Y33.519
G1 X53.348 Y32.965
G1 X53.58 Y32.401
G1 X53.788 Y31.828
G1 X53.972 Y31.246
G1 X54.131 Y30.658
G1 X54.265 Y30.063
G1 X54.373 Y29.463
G1 X54.457 Y28.859
G1 X54.515 Y28.252
G1 X54.547 Y27.643
G1 X54.554 Y27.033
G1 X54.535 Y26.424
G1 X54.491 Y25.816
G1 X54.421 Y25.21
G1 X54.327 Y24.608
G1 X54.207 Y24.01
G1 X54.061 Y23.418
G1 X53.891 Y22.832
G1 X53.696 Y22.255
G1 X53.477 Y21.686
G1 X53.234 Y21.126
G1 X52.968 Y20.578
G1 X52.679 Y20.041
G1 X52.367 Y19.517
G1 X52.034 Y19.006
G1 X51.68 Y18.51
G1 X51.305 Y18.029
G1 X50.91 Y17.564
G1 X50.496 Y17.117
G1 X50.063 Y16.687
G1 X49.613 Y16.276
G1 X49.146 Y15.884
G1 X48.663 Y15.512
G1 X48.165 Y15.161
G1 X47.652 Y14.83
G1 X47.127 Y14.522
G1 X46.588 Y14.235
G1 X46.039 Y13.971
G1 X45.479 Y13.73
G1 X44.909 Y13.513
G1 X44.331 Y13.32
G1 X43.745 Y13.151
G1 X43.152 Y13.007
G1 X42.554 Y12.888
G1 X41.952 Y12.793
G1 X41.346 Y12.723
G1 X40.738 Y12.678
G1 X40.129 Y12.659
G1 X39.519 Y12.664
G1 X38.91 Y12.694
G1 X38.303 Y12.75
G1 X37.699 Y12.83
G1 X37.098 Y12.936
G1 X36.502 Y13.066
G1 X35.913 Y13.221
G1 X35.33 Y13.399
G1 X34.755 Y13.602
G1 X34.188 Y13.827
G1 X33.631 Y14.076
G1 X33.085 Y14.347
G1 X32.55 Y14.64
G1 X32.028 Y14.954
G1 X31.519 Y15.289
G1 X31.024 Y15.645
G1 X30.544 Y16.021
G1 X30.079 Y16.416
G1 X29.632 Y16.83
G1 X29.201 Y17.262
G1 X28.788 Y17.711
G1 X28.394 Y18.176
G1 X28.019 Y18.657
G1 X27.664 Y19.152
G1 X27.329 Y19.661
G1 X27.015 Y20.184
G1 X26.722 Y20.719
G1 X26.451 Y21.265
G1 X26.202 Y21.822
G1 X25.977 Y22.388
G1 X25.775 Y22.963
G1 X25.596 Y23.546
G1 X25.44 Y24.136
G1 X25.309 Y24.731
G1 X25.201 Y25.332
G1 X25.118 Y25.936
G1 X25.06 Y26.542
G1 X25.025 Y27.151
G1 X25.015 Y27.761
G1 X25.03 Y28.37
G1 X25.069 Y28.979
G1 X25.133 Y29.585
G1 X25.221 Y30.188
G1 X25.334 Y30.788
G1 X25.47 Y31.382
G1 X25.63 Y31.97
G1 X25.814 Y32.552
G1 X26.021 Y33.125
G1 X26.25 Y33.69
G1 X26.502 Y34.245
G1 X26.776 Y34.79
G1 X27.072 Y35.323
G1 X27.389 Y35.844
G1 X27.726 Y36.352
G1 X28.084 Y36.846
G1 X28.462 Y37.324
G1 X28.858 Y37.788
G1 X29.272 Y38.235
G1 X29.704 Y38.665
G1 X30.153 Y39.078
G1 X30.618 Y39.472
G1 X31.099 Y39.847
G1 X31.594 Y40.203
G1 X32.103 Y40.539
G1 X32.625 Y40.855
G1 X33.159 Y41.149
G1 X33.705 Y41.42
G1 X34.261 Y41.67
G1 X34.827 Y41.897
G1 X35.401 Y42.101
G1 X35.984 Y42.282
G1 X36.572 Y42.44
G1 X37.167 Y42.574
G1 X37.767 Y42.684
G1 X38.371 Y42.77
G1 X38.977 Y42.832
G1 X39.586 Y42.869
G1 X40.195 Y42.882
G1 X40.805 Y42.871
G1 X41.414 Y42.835
G1 X42.02 Y42.774
G1 X42.624 Y42.689
G1 X43.224 Y42.581
G1 X43.819 Y42.449
G1 X44.409 Y42.294
G1 X44.992 Y42.115
G1 X45.567 Y41.914
G1 X46.135 Y41.69
G1 X46.693 Y41.444
G1 X47.241 Y41.177
G1 X47.778 Y40.888
G1 X48.303 Y40.579
G1 X48.815 Y40.248
G1 X49.314 Y39.898
G1 X49.8 Y39.529
G1 X50.27 Y39.141
G1 X50.725 Y38.735
G1 X51.164 Y38.312
G1 X51.587 Y37.872
G1 X51.992 Y37.417
G1 X52.379 Y36.946
G1 X52.748 Y36.46
G1 X53.098 Y35.961
G1 X53.428 Y35.448
G1 X53.738 Y34.923
G1 X54.027 Y34.387
G1 X54.296 Y33.839
G1 X54.543 Y33.282
G1 X54.768 Y32.715
G1 X54.972 Y32.141
G1 X55.153 Y31.558
G1 X55.312 Y30.97
G1 X55.447 Y30.375
G1 X55.56 Y29.776
G1 X55.65 Y29.173
G1 X55.716 Y28.567
G1 X55.759 Y27.959
G1 X55.777 Y27.349
G1 X55.772 Y26.739
G1 X55.743 Y26.13
G1 X55.69 Y25.523
G1 X55.614 Y24.918
G1 X55.515 Y24.316
G1 X55.393 Y23.719
G1 X55.248 Y23.127
G1 X55.079 Y22.541
G1 X54.889 Y21.962
G1 X54.676 Y21.39
G1 X54.441 Y20.828
G1 X54.184 Y20.275
G1 X53.905 Y19.732
G1 X53.606 Y19.201
G1 X53.286 Y18.682
G1 X52.946 Y18.176
G1 X52.587 Y17.684
G1 X52.209 Y17.205
G1 X51.813 Y16.742
G1 X51.399 Y16.294
G1 X50.968 Y15.862
G1 X50.521 Y15.448
G1 X50.058 Y15.051
G1 X49.581 Y14.671
G1 X49.089 Y14.311
G1 X48.583 Y13.971
G1 X48.064 Y13.65
G1 X47.534 Y13.35
G1 X46.992 Y13.07
G1 X46.44 Y12.812
G1 X45.878 Y12.574
G1 X45.308 Y12.359
G1 X44.73 Y12.165
G1 X44.145 Y11.994
G1 X43.553 Y11.845
G1 X42.957 Y11.718
G1 X42.356 Y11.615
G1 X41.752 Y11.534
G1 X41.144 Y11.478
G1 X40.536 Y11.444
G1 X39.926 Y11.434
G1 X39.316 Y11.447
G1 X38.708 Y11.483
G1 X38.101 Y11.543
G1 X37.497 Y11.625
G1 X36.896 Y11.73
G1 X36.3 Y11.858
G1 X35.709 Y12.008
G1 X35.124 Y12.18
G1 X34.546 Y12.374
G1 X33.976 Y12.59
G1 X33.415 Y12.828
G1 X32.863 Y13.087
G1 X32.321 Y13.367
G1 X31.79 Y13.666
G1 X31.271 Y13.986
G1 X30.764 Y14.325
G1 X30.27 Y14.682
G1 X29.79 Y15.058
G1 X29.324 Y15.452
G1 X28.874 Y15.863
G1 X28.439 Y16.29
G1 X28.02 Y16.733
G1 X27.618 Y17.192
G1 X27.235 Y17.666
G1 X26.869 Y18.154
G1 X26.522 Y18.655
G1 X26.194 Y19.169
G1 X25.885 Y19.695
G1 X25.596 Y20.232
G1 X25.328 Y20.779
G1 X25.08 Y21.336
G1 X24.853 Y21.902
G1 X24.647 Y22.476
G1 X24.463 Y23.057
G1 X24.301 Y23.645
G1 X24.16 Y24.238
G1 X24.042 Y24.837
G1 X23.947 Y25.439
G1 X23.874 Y26.044
G1 X23.825 Y26.652
G1 X23.797 Y27.261
G1 X23.792 Y27.871
G1 X23.81 Y28.48
G1 X23.851 Y29.088
G1 X23.914 Y29.695
G1 X23.999 Y30.299
G1 X24.107 Y30.899
G1 X24.237 Y31.494
G1 X24.389 Y32.085
G1 X24.563 Y32.669
G1 X24.759 Y33.247
G1 X24.976 Y33.816
G1 X25.215 Y34.377
G1 X25.474 Y34.929
G1 X25.753 Y35.471
G1 X26.052 Y36.003
G1 X26.37 Y36.523
G1 X26.708 Y37.03
G1 X27.064 Y37.525
G1 X27.439 Y38.006
G1 X27.831 Y38.474
G1 X28.239 Y38.926
G1 X28.664 Y39.363
G1 X29.106 Y39.784
G1 X29.563 Y40.187
G1 X30.035 Y40.574
G1 X30.52 Y40.942
G1 X31.019 Y41.293
G1 X31.531 Y41.625
G1 X32.054 Y41.937
G1 X32.589 Y42.23
G1 X33.134 Y42.503
G1 X33.689 Y42.756
G1 X34.253 Y42.988
G1 X34.825 Y43.199
G1 X35.404 Y43.388
G1 X35.991 Y43.556
G1 X36.583 Y43.701
G1 X37.18 Y43.824
G1 X37.781 Y43.925
G1 X38.386 Y44.004
G1 X38.993 Y44.06
G1 X39.602 Y44.094
G1 X40.211 Y44.106
G1 X40.821 Y44.094
G1 X41.43 Y44.06
G1 X42.037 Y44.004
G1 X42.641 Y43.926
G1 X43.243 Y43.826
G1 X43.84 Y43.703
G1 X44.432 Y43.558
G1 X45.019 Y43.392
G1 X45.599 Y43.204
G1 X46.172 Y42.995
G1 X46.737 Y42.765
G1 X47.293 Y42.516
G1 X47.84 Y42.246
G1 X48.376 Y41.956
G1 X48.902 Y41.647
G1 X49.416 Y41.319
G1 X49.918 Y40.973
G1 X50.407 Y40.61
G1 X50.883 Y40.228
G1 X51.345 Y39.83
G1 X51.792 Y39.415
G1 X52.223 Y38.984
G1 X52.639 Y38.538
G1 X53.038 Y38.078
G1 X53.421 Y37.603
G1 X53.786 Y37.115
G1 X54.134 Y36.614
G1 X54.464 Y36.102
G1 X54.775 Y35.577
G1 X55.067 Y35.042
G1 X55.34 Y34.497
G1 X55.594 Y33.942
G1 X55.827 Y33.379
G1 X56.04 Y32.808
G1 X56.232 Y32.229
G1 X56.403 Y31.644
G1 X56.553 Y31.053
G1 X56.681 Y30.457
G1 X56.789 Y29.856
G1 X56.874 Y29.253
G1 X56.938 Y28.646
G1 X56.981 Y28.038
G1 X57.001 Y27.429
G1 X56.999 Y26.819
G1 X56.975 Y26.21
G1 X56.93 Y25.602
G1 X56.863 Y24.996
G1 X56.774 Y24.393
G1 X56.663 Y23.793
G1 X56.531 Y23.198
G1 X56.377 Y22.608
G1 X56.202 Y22.024
G1 X56.006 Y21.446
G1 X55.79 Y20.876
G1 X55.553 Y20.315
G1 X55.296 Y19.762
G1 X55.019 Y19.218
G1 X54.723 Y18.685
G1 X54.408 Y18.163
G1 X54.074 Y17.653
G1 X53.723 Y17.155
G1 X53.353 Y16.67
G1 X52.966 Y16.199
G1 X52.562 Y15.742
G1 X52.142 Y15.3
G1 X51.707 Y14.873
G1 X51.256 Y14.462
G1 X50.792 Y14.068
G1 X50.313 Y13.69
G1 X49.821 Y13.329
G1 X49.317 Y12.987
G1 X48.8 Y12.663
G1 X48.273 Y12.357
G1 X47.735 Y12.071
G1 X47.187 Y11.803
G1 X46.629 Y11.556
G1 X46.063 Y11.329
G1 X45.49 Y11.123
G1 X44.909 Y10.937
G1 X44.322 Y10.772
G1 X43.73 Y10.628
G1 X43.132 Y10.504
G1 X42.531 Y10.402
G1 X41.927 Y10.321
G1 X41.32 Y10.262
G1 X40.712 Y10.225
G1 X40.102 Y10.208
G1 X39.492 Y10.214
G1 X38.883 Y10.241
G1 X38.276 Y10.289
G1 X37.67 Y10.36
G1 X37.067 Y10.452
G1 X36.468 Y10.565
G1 X35.873 Y10.699
G1 X35.283 Y10.853
G1 X34.699 Y11.029
G1 X34.122 Y11.224
G1 X33.552 Y11.44
G1 X32.989 Y11.676
G1 X32.436 Y11.931
G1 X31.891 Y12.206
G1 X31.357 Y12.499
G1 X30.833 Y12.811
G1 X30.32 Y13.141
G1 X29.82 Y13.489
G1 X29.332 Y13.855
G1 X28.857 Y14.237
G1 X28.396 Y14.636
G1 X27.948 Y15.05
G1 X27.516 Y15.48
G1 X27.098 Y15.924
G1 X26.697 Y16.383
G1 X26.312 Y16.856
G1 X25.943 Y17.342
G1 X25.592 Y17.84
G1 X25.258 Y18.35
G1 X24.942 Y18.871
G1 X24.644 Y19.403
G1 X24.366 Y19.946
G1 X24.106 Y20.498
G1 X23.866 Y21.058
G1 X23.646 Y21.627
G1 X23.445 Y22.203
G1 X23.265 Y22.785
G1 X23.104 Y23.373
G1 X22.964 Y23.967
G1 X22.845 Y24.565
G1 X22.747 Y25.166
G1 X22.67 Y25.771
G1 X22.613 Y26.378
G1 X22.578 Y26.987
G1 X22.563 Y27.596
G1 X22.57 Y28.206
G1 X22.599 Y28.815
G1 X22.649 Y29.423
G1 X22.719 Y30.028
G1 X22.811 Y30.631
G1 X22.923 Y31.231
G1 X23.055 Y31.826
G1 X23.208 Y32.416
G1 X23.382 Y33.
G1 X23.575 Y33.579
G1 X23.789 Y34.15
G1 X24.021 Y34.713
G1 X24.274 Y35.268
G1 X24.545 Y35.815
G1 X24.835 Y36.351
G1 X25.144 Y36.877
G1 X25.47 Y37.391
G1 X25.815 Y37.894
G1 X26.176 Y38.385
G1 X26.554 Y38.864
G1 X26.949 Y39.329
G1 X27.359 Y39.78
G1 X27.784 Y40.217
G1 X28.224 Y40.639
G1 X28.679 Y41.045
G1 X29.147 Y41.436
G1 X29.628 Y41.81
G1 X30.122 Y42.167
G1 X30.628 Y42.507
G1 X31.146 Y42.829
G1 X31.675 Y43.133
G1 X32.214 Y43.418
G1 X32.762 Y43.685
G1 X33.319 Y43.932
G1 X33.885 Y44.161
G1 X34.458 Y44.37
G1 X35.037 Y44.558
G1 X35.623 Y44.727
G1 X36.215 Y44.875
G1 X36.811 Y45.003
G1 X37.411 Y45.11
G1 X38.015 Y45.197
G1 X38.621 Y45.263
G1 X39.229 Y45.307
G1 X39.838 Y45.33
G1 X40.448 Y45.332
G1 X41.057 Y45.313
G1 X41.666 Y45.273
G1 X42.272 Y45.213
G1 X42.877 Y45.132
G1 X43.478 Y45.03
G1 X44.075 Y44.908
G1 X44.668 Y44.765
G1 X45.256 Y44.602
G1 X45.837 Y44.42
G1 X46.413 Y44.217
G1 X46.981 Y43.996
G1 X47.541 Y43.755
G1 X48.092 Y43.495
G1 X48.634 Y43.216
G1 X49.167 Y42.919
G1 X49.689 Y42.604
G1 X50.2 Y42.272
G1 X50.7 Y41.923
G1 X51.188 Y41.557
G1 X51.664 Y41.176
G1 X52.126 Y40.778
G1 X52.575 Y40.365
G1 X53.009 Y39.937
G1 X53.429 Y39.495
G1 X53.834 Y39.04
G1 X54.224 Y38.571
G1 X54.597 Y38.089
G1 X54.954 Y37.594
G1 X55.294 Y37.088
G1 X55.617 Y36.571
G1 X55.923 Y36.044
G1 X56.211 Y35.506
G1 X56.481 Y34.959
G1 X56.732 Y34.404
G1 X56.965 Y33.841
G1 X57.179 Y33.27
G1 X57.374 Y32.692
G1 X57.549 Y32.108
G1 X57.705 Y31.518
G1 X57.841 Y30.924
G1 X57.957 Y30.325
G1 X58.053 Y29.723
G1 X58.128 Y29.118
G1 X58.182 Y28.511
G1 X58.217 Y27.902
G1 X58.231 Y27.293
G1 X58.224 Y26.683
G1 X58.198 Y26.074
G1 X58.151 Y25.466
G1 X58.084 Y24.86
G1 X57.996 Y24.256
G1 X57.888 Y23.656
G1 X57.76 Y23.06
G1 X57.613 Y22.469
G1 X57.445 Y21.882
G1 X57.258 Y21.302
G1 X57.052 Y20.728
G1 X56.826 Y20.162
G1 X56.58 Y19.604
G1 X56.317 Y19.054
G1 X56.035 Y18.514
G1 X55.735 Y17.983
G1 X55.417 Y17.462
G1 X55.083 Y16.952
G1 X54.731 Y16.454
G1 X54.363 Y15.968
G1 X53.979 Y15.495
G1 X53.579 Y15.035
G1 X53.164 Y14.588
G1 X52.734 Y14.155
G1 X52.29 Y13.737
G1 X51.833 Y13.335
G1 X51.361 Y12.948
G1 X50.877 Y12.577
G1 X50.381 Y12.222
G1 X49.874 Y11.884
G1 X49.355 Y11.563
G1 X48.827 Y11.26
G1 X48.288 Y10.974
G1 X47.74 Y10.707
G1 X47.184 Y10.458
G1 X46.619 Y10.227
G1 X46.047 Y10.016
G1 X45.469 Y9.823
G1 X44.884 Y9.65
G1 X44.294 Y9.496
G1 X43.699 Y9.362
G1 X43.1 Y9.249
G1 X42.498 Y9.155
G1 X41.892 Y9.081
G1 X41.285 Y9.027
G1 X40.676 Y8.993
G1 X40.067 Y8.98
G1 X39.457 Y8.986
G1 X38.848 Y9.012
G1 X38.24 Y9.059
G1 X37.634 Y9.125
G1 X37.03 Y9.212
G1 X36.43 Y9.318
G1 X35.833 Y9.444
G1 X35.241 Y9.589
G1 X34.654 Y9.755
G1 X34.073 Y9.939
G1 X33.499 Y10.143
G1 X32.931 Y10.365
G1 X32.371 Y10.606
G1 X31.819 Y10.864
G1 X31.275 Y11.141
G1 X30.741 Y11.435
G1 X30.217 Y11.747
G1 X29.703 Y12.075
G1 X29.201 Y12.421
G1 X28.71 Y12.782
G1 X28.231 Y13.159
G1 X27.764 Y13.552
G1 X27.311 Y13.959
G1 X26.871 Y14.382
G1 X26.445 Y14.818
G1 X26.034 Y15.269
G1 X25.638 Y15.732
G1 X25.257 Y16.208
G1 X24.892 Y16.697
G1 X24.543 Y17.196
G1 X24.21 Y17.707
G1 X23.894 Y18.229
G1 X23.595 Y18.76
G1 X23.314 Y19.301
G1 X23.05 Y19.851
G1 X22.804 Y20.409
G1 X22.577 Y20.974
G1 X22.367 Y21.547
G1 X22.177 Y22.126
G1 X22.006 Y22.712
G1 X21.854 Y23.302
G1 X21.722 Y23.897
G1 X21.609 Y24.496
G1 X21.515 Y25.099
G1 X21.44 Y25.704
G1 X21.385 Y26.311
G1 X21.35 Y26.92
G1 X21.335 Y27.529
G1 X21.339 Y28.139
G1 X21.363 Y28.748
G1 X21.407 Y29.356
G1 X21.47 Y29.963
G1 X21.553 Y30.567
G1 X21.656 Y31.168
G1 X21.778 Y31.765
G1 X21.919 Y32.358
G1 X22.08 Y32.947
G1 X22.26 Y33.529
G1 X22.458 Y34.106
G1 X22.674 Y34.676
G1 X22.909 Y35.238
G1 X23.162 Y35.793
G1 X23.433 Y36.34
G1 X23.721 Y36.877
G1 X24.026 Y37.405
G1 X24.348 Y37.922
G1 X24.687 Y38.429
G1 X25.042 Y38.925
G1 X25.413 Y39.409
G1 X25.799 Y39.881
G1 X26.201 Y40.34
G1 X26.617 Y40.785
G1 X27.047 Y41.217
G1 X27.491 Y41.635
G1 X27.948 Y42.039
G1 X28.418 Y42.427
G1 X28.9 Y42.8
G1 X29.394 Y43.158
G1 X29.899 Y43.499
G1 X30.415 Y43.824
G1 X30.941 Y44.132
G1 X31.477 Y44.423
G1 X32.022 Y44.696
G1 X32.576 Y44.952
G1 X33.137 Y45.19
G1 X33.706 Y45.409
G1 X34.282 Y45.609
G1 X34.864 Y45.791
G1 X35.452 Y45.954
G1 X36.044 Y46.098
G1 X36.641 Y46.223
G1 X37.241 Y46.328
G1 X37.845 Y46.415
G1 X38.451 Y46.481
G1 X39.059 Y46.528
G1 X39.668 Y46.556
G1 X40.278 Y46.564
G1 X40.887 Y46.552
G1 X41.496 Y46.521
G1 X42.104 Y46.47
G1 X42.709 Y46.399
G1 X43.313 Y46.309
G1 X43.912 Y46.199
G1 X44.508 Y46.071
G1 X45.1 Y45.923
G1 X45.687 Y45.757
G1 X46.268 Y45.573
G1 X46.843 Y45.37
G1 X47.411 Y45.149
G1 X47.972 Y44.909
G1 X48.525 Y44.653
G1 X49.069 Y44.378
G1 X49.605 Y44.087
G1 X50.131 Y43.779
G1 X50.647 Y43.454
G1 X51.153 Y43.113
G1 X51.647 Y42.756
G1 X52.13 Y42.384
G1 X52.601 Y41.997
G1 X53.059 Y41.595
G1 X53.505 Y41.178
G1 X53.937 Y40.749
G1 X54.356 Y40.305
G1 X54.761 Y39.849
G1 X55.151 Y39.381
G1 X55.526 Y38.9
G1 X55.886 Y38.408
G1 X56.231 Y37.905
G1 X56.559 Y37.392
G1 X56.872 Y36.868
G1 X57.168 Y36.335
G1 X57.446 Y35.793
G1 X57.708 Y35.242
G1 X57.952 Y34.683
G1 X58.179 Y34.117
G1 X58.387 Y33.544
G1 X58.578 Y32.965
G1 X58.751 Y32.381
G1 X58.905 Y31.791
G1 X59.041 Y31.196
G1 X59.158 Y30.598
G1 X59.256 Y29.996
G1 X59.336 Y29.392
G1 X59.396 Y28.785
G1 X59.437 Y28.177
G1 X59.459 Y27.567
G1 X59.462 Y26.958
G1 X59.446 Y26.348
G1 X59.41 Y25.739
G1 X59.355 Y25.132
G1 X59.281 Y24.527
G1 X59.188 Y23.924
G1 X59.077 Y23.325
G1 X58.947 Y22.729
G1 X58.798 Y22.138
G1 X58.631 Y21.552
G1 X58.445 Y20.971
G1 X58.241 Y20.396
G1 X58.019 Y19.828
G1 X57.78 Y19.268
G1 X57.523 Y18.715
G1 X57.248 Y18.17
G1 X56.957 Y17.635
G1 X56.648 Y17.109
G1 X56.323 Y16.593
G1 X55.982 Y16.087
G1 X55.626 Y15.593
G1 X55.254 Y15.11
G1 X54.867 Y14.639
G1 X54.465 Y14.18
G1 X54.05 Y13.733
G1 X53.62 Y13.301
G1 X53.178 Y12.881
G1 X52.722 Y12.476
G1 X52.254 Y12.085
G1 X51.774 Y11.71
G1 X51.282 Y11.349
G1 X50.78 Y11.004
G1 X50.266 Y10.675
G1 X49.743 Y10.362
G1 X49.21 Y10.066
G1 X48.668 Y9.787
G1 X48.117 Y9.525
G1 X47.559 Y9.28
G1 X46.993 Y9.052
G1 X46.421 Y8.842
G1 X45.842 Y8.65
G1 X45.258 Y8.476
G1 X44.668 Y8.321
G1 X44.074 Y8.183
G1 X43.476 Y8.065
G1 X42.875 Y7.965
G1 X42.27 Y7.883
G1 X41.664 Y7.821
G1 X41.056 Y7.777
G1 X40.447 Y7.753
G1 X39.837 Y7.747
G1 X39.227 Y7.761
G1 X38.618 Y7.793
G1 X38.011 Y7.844
G1 X37.405 Y7.914
G1 X36.802 Y8.002
G1 X36.201 Y8.108
G1 X35.605 Y8.234
G1 X35.012 Y8.377
G1 X34.424 Y8.539
G1 X33.842 Y8.719
G1 X33.265 Y8.916
G1 X32.694 Y9.131
G1 X32.131 Y9.364
G1 X31.575 Y9.614
G1 X31.027 Y9.881
G1 X30.487 Y10.165
G1 X29.957 Y10.466
G1 X29.435 Y10.782
G1 X28.924 Y11.115
G1 X28.423 Y11.462
G1 X27.934 Y11.825
G1 X27.455 Y12.203
G1 X26.988 Y12.595
G1 X26.533 Y13.001
G1 X26.091 Y13.421
G1 X25.662 Y13.855
G1 X25.247 Y14.301
G1 X24.845 Y14.759
G1 X24.458 Y15.23
G1 X24.085 Y15.713
G1 X23.727 Y16.207
G1 X23.385 Y16.711
G1 X23.058 Y17.226
G1 X22.747 Y17.75
G1 X22.452 Y18.284
G1 X22.174 Y18.826
G1 X21.912 Y19.377
G1 X21.667 Y19.935
G1 X21.439 Y20.501
G1 X21.229 Y21.073
G1 X21.036 Y21.651
G1 X20.86 Y22.235
G1 X20.703 Y22.824
G1 X20.563 Y23.418
G1 X20.442 Y24.016
G1 X20.339 Y24.617
G1 X20.255 Y25.22
G1 X20.189 Y25.827
G1 X20.141 Y26.434
G1 X20.112 Y27.043
G1 X20.102 Y27.653
G1 X20.11 Y28.263
G1 X20.136 Y28.872
G1 X20.181 Y29.48
G1 X20.245 Y30.086
G1 X20.326 Y30.691
G1 X20.426 Y31.292
G1 X20.544 Y31.89
G1 X20.681 Y32.485
G1 X20.835 Y33.074
G1 X21.007 Y33.659
G1 X21.196 Y34.239
G1 X21.404 Y34.812
G1 X21.629 Y35.379
G1 X21.871 Y35.939
G1 X22.13 Y36.491
G1 X22.405 Y37.035
G1 X22.697 Y37.57
G1 X23.005 Y38.096
G1 X23.328 Y38.613
G1 X23.667 Y39.12
G1 X24.021 Y39.616
G1 X24.39 Y40.102
G1 X24.774 Y40.576
G1 X25.171 Y41.038
G1 X25.583 Y41.488
G1 X26.008 Y41.925
G1 X26.446 Y42.349
G1 X26.897 Y42.759
G1 X27.36 Y43.156
G1 X27.835 Y43.538
G1 X28.321 Y43.906
G1 X28.819 Y44.259
G1 X29.326 Y44.596
G1 X29.844 Y44.918
G1 X30.371 Y45.225
G1 X30.907 Y45.515
G1 X31.452 Y45.789
G1 X32.005 Y46.046
G1 X32.565 Y46.287
G1 X33.133 Y46.51
G1 X33.706 Y46.716
G1 X34.286 Y46.905
G1 X34.872 Y47.075
G1 X35.462 Y47.228
G1 X36.056 Y47.363
G1 X36.655 Y47.48
G1 X37.257 Y47.578
G1 X37.861 Y47.658
G1 X38.468 Y47.72
G1 X39.076 Y47.763
G1 X39.685 Y47.789
G1 X40.295 Y47.795
G1 X40.904 Y47.784
G1 X41.513 Y47.754
G1 X42.121 Y47.706
G1 X42.727 Y47.639
G1 X43.331 Y47.554
G1 X43.932 Y47.452
G1 X44.529 Y47.331
G1 X45.123 Y47.192
G1 X45.712 Y47.035
G1 X46.297 Y46.86
G1 X46.875 Y46.668
G1 X47.448 Y46.459
G1 X48.014 Y46.233
G1 X48.574 Y45.99
G1 X49.125 Y45.731
G1 X49.669 Y45.455
G1 X50.205 Y45.164
G1 X50.731 Y44.856
G1 X51.248 Y44.533
G1 X51.756 Y44.195
G1 X52.253 Y43.842
G1 X52.739 Y43.474
G1 X53.214 Y43.092
G1 X53.678 Y42.696
G1 X54.13 Y42.287
G1 X54.569 Y41.864
G1 X54.996 Y41.428
G1 X55.409 Y40.98
G1 X55.809 Y40.52
G1 X56.196 Y40.049
G1 X56.568 Y39.566
G1 X56.926 Y39.073
G1 X57.27 Y38.569
G1 X57.599 Y38.055
G1 X57.912 Y37.532
G1 X58.21 Y37.
G1 X58.492 Y36.46
G1 X58.758 Y35.911
G1 X59.007 Y35.355
G1 X59.241 Y34.791
G1 X59.457 Y34.221
G1 X59.657 Y33.645
G1 X59.839 Y33.063
G1 X60.004 Y32.476
G1 X60.151 Y31.885
G1 X60.282 Y31.289
G1 X60.394 Y30.69
G1 X60.489 Y30.088
G1 X60.566 Y29.483
G1 X60.625 Y28.876
G1 X60.667 Y28.268
G1 X60.69 Y27.658
G1 X60.696 Y27.049
G1 X60.683 Y26.439
G1 X60.653 Y25.83
G1 X60.604 Y25.222
G1 X60.538 Y24.616
G1 X60.454 Y24.012
G1 X60.351 Y23.411
G1 X60.231 Y22.814
G1 X60.093 Y22.22
G1 X59.938 Y21.63
G1 X59.765 Y21.045
G1 X59.576 Y20.466
G1 X59.369 Y19.892
G1 X59.145 Y19.325
G1 X58.905 Y18.765
G1 X58.648 Y18.212
G1 X58.375 Y17.666
G1 X58.086 Y17.129
G1 X57.782 Y16.601
G1 X57.462 Y16.082
G1 X57.126 Y15.573
G1 X56.776 Y15.074
G1 X56.411 Y14.586
G1 X56.032 Y14.108
G1 X55.638 Y13.643
G1 X55.231 Y13.189
G1 X54.811 Y12.747
G1 X54.378 Y12.317
G1 X53.933 Y11.901
G1 X53.475 Y11.498
G1 X53.006 Y11.108
G1 X52.526 Y10.733
G1 X52.035 Y10.371
G1 X51.533 Y10.025
G1 X51.022 Y9.693
G1 X50.501 Y9.376
G1 X49.971 Y9.075
G1 X49.432 Y8.79
G1 X48.885 Y8.52
G1 X48.33 Y8.267
G1 X47.768 Y8.031
G1 X47.199 Y7.811
G1 X46.625 Y7.608
G1 X46.044 Y7.421
G1 X45.458 Y7.252
G1 X44.868 Y7.1
G1 X44.273 Y6.965
G1 X43.675 Y6.848
G1 X43.073 Y6.748
G1 X42.469 Y6.665
G1 X41.863 Y6.601
G1 X41.255 Y6.554
G1 X40.646 Y6.524
G1 X40.037 Y6.513
G1 X39.427 Y6.519
G1 X38.818 Y6.543
G1 X38.209 Y6.586
G1 X37.603 Y6.645
G1 X36.998 Y6.723
G1 X36.396 Y6.818
G1 X35.796 Y6.931
G1 X35.201 Y7.06
G1 X34.609 Y7.207
G1 X34.022 Y7.371
G1 X33.439 Y7.552
G1 X32.863 Y7.75
G1 X32.292 Y7.964
G1 X31.727 Y8.195
G1 X31.17 Y8.442
G1 X30.62 Y8.705
G1 X30.078 Y8.984
G1 X29.544 Y9.278
G1 X29.018 Y9.588
G1 X28.502 Y9.913
G1 X27.996 Y10.253
G1 X27.5 Y10.607
G1 X27.014 Y10.975
G1 X26.539 Y11.358
G1 X26.075 Y11.753
G1 X25.623 Y12.162
G1 X25.183 Y12.584
G1 X24.755 Y13.018
G1 X24.34 Y13.465
G1 X23.937 Y13.923
G1 X23.548 Y14.392
G1 X23.173 Y14.873
G1 X22.812 Y15.364
G1 X22.465 Y15.865
G1 X22.132 Y16.376
G1 X21.814 Y16.897
G1 X21.512 Y17.426
G1 X21.225 Y17.964
G1 X20.954 Y18.51
G1 X20.699 Y19.064
G1 X20.459 Y19.625
G1 X20.236 Y20.192
G1 X20.029 Y20.766
G1 X19.838 Y21.345
G1 X19.665 Y21.929
G1 X19.508 Y22.518
G1 X19.367 Y23.112
G1 X19.244 Y23.709
G1 X19.138 Y24.309
G1 X19.05 Y24.913
G1 X18.979 Y25.518
G1 X18.925 Y26.126
G1 X18.888 Y26.734
G1 X18.869 Y27.344
G1 X18.868 Y27.953
G1 X18.884 Y28.563
G1 X18.918 Y29.172
G1 X18.969 Y29.779
G1 X19.038 Y30.385
G1 X19.123 Y30.989
G1 X19.226 Y31.59
G1 X19.346 Y32.188
G1 X19.483 Y32.782
G1 X19.637 Y33.372
G1 X19.807 Y33.957
G1 X19.994 Y34.537
G1 X20.198 Y35.112
G1 X20.418 Y35.681
G1 X20.655 Y36.243
G1 X20.907 Y36.798
G1 X21.175 Y37.345
G1 X21.459 Y37.885
G1 X21.758 Y38.416
G1 X22.072 Y38.939
G1 X22.401 Y39.452
G1 X22.745 Y39.956
G1 X23.102 Y40.45
G1 X23.474 Y40.933
G1 X23.859 Y41.406
G1 X24.258 Y41.867
G1 X24.669 Y42.317
G1 X25.093 Y42.755
G1 X25.53 Y43.181
G1 X25.978 Y43.594
G1 X26.438 Y43.994
G1 X26.909 Y44.381
G1 X27.392 Y44.754
G1 X27.884 Y45.113
G1 X28.387 Y45.458
G1 X28.9 Y45.789
G1 X29.421 Y46.104
G1 X29.952 Y46.404
G1 X30.491 Y46.69
G1 X31.038 Y46.959
G1 X31.592 Y47.213
G1 X32.153 Y47.451
G1 X32.721 Y47.674
G1 X33.295 Y47.879
G1 X33.875 Y48.069
G1 X34.459 Y48.242
G1 X35.049 Y48.397
G1 X35.642 Y48.537
G1 X36.24 Y48.659
G1 X36.84 Y48.764
G1 X37.444 Y48.851
G1 X38.049 Y48.922
G1 X38.657 Y48.975
G1 X39.265 Y49.01
G1 X39.875 Y49.028
G1 X40.485 Y49.029
G1 X41.094 Y49.012
G1 X41.703 Y48.979
G1 X42.31 Y48.928
G1 X42.916 Y48.859
G1 X43.52 Y48.774
G1 X44.121 Y48.672
G1 X44.719 Y48.552
G1 X45.313 Y48.416
G1 X45.904 Y48.263
G1 X46.489 Y48.094
G1 X47.07 Y47.908
G1 X47.645 Y47.705
G1 X48.214 Y47.487
G1 X48.777 Y47.252
G1 X49.333 Y47.002
G1 X49.881 Y46.735
G1 X50.422 Y46.454
G1 X50.955 Y46.158
G1 X51.48 Y45.846
G1 X51.995 Y45.521
G1 X52.501 Y45.181
G1 X52.997 Y44.827
G1 X53.484 Y44.459
G1 X53.96 Y44.078
G1 X54.425 Y43.684
G1 X54.879 Y43.277
G1 X55.321 Y42.857
G1 X55.752 Y42.425
G1 X56.17 Y41.982
G1 X56.576 Y41.527
G1 X56.969 Y41.06
G1 X57.348 Y40.583
G1 X57.714 Y40.096
G1 X58.067 Y39.598
G1 X58.405 Y39.091
G1 X58.73 Y38.575
G1 X59.039 Y38.049
G1 X59.335 Y37.516
G1 X59.615 Y36.975
G1 X59.88 Y36.426
G1 X60.13 Y35.869
G1 X60.365 Y35.307
G1 X60.583 Y34.737
G1 X60.786 Y34.162
G1 X60.973 Y33.582
G1 X61.143 Y32.997
G1 X61.297 Y32.407
G1 X61.435 Y31.813
G1 X61.556 Y31.215
G1 X61.66 Y30.614
G1 X61.747 Y30.011
G1 X61.817 Y29.405
G1 X61.871 Y28.798
G1 X61.908 Y28.189
G1 X61.927 Y27.58
G1 X61.93 Y26.97
G1 X61.916 Y26.361
G1 X61.885 Y25.752
G1 X61.837 Y25.144
G1 X61.772 Y24.537
G1 X61.69 Y23.933
G1 X61.592 Y23.332
G1 X61.477 Y22.733
G1 X61.345 Y22.138
G1 X61.196 Y21.546
G1 X61.031 Y20.959
G1 X60.85 Y20.377
G1 X60.652 Y19.8
G1 X60.438 Y19.229
G1 X60.209 Y18.665
G1 X59.963 Y18.106
G1 X59.703 Y17.555
G1 X59.427 Y17.012
G1 X59.136 Y16.476
G1 X58.83 Y15.948
G1 X58.51 Y15.429
G1 X58.175 Y14.92
G1 X57.826 Y14.42
G1 X57.464 Y13.929
G1 X57.088 Y13.449
G1 X56.698 Y12.98
G1 X56.296 Y12.522
G1 X55.881 Y12.075
G1 X55.454 Y11.64
G1 X55.015 Y11.217
G1 X54.564 Y10.807
G1 X54.102 Y10.409
G1 X53.629 Y10.024
G1 X53.146 Y9.653
G1 X52.652 Y9.295
G1 X52.149 Y8.95
G1 X51.636 Y8.62
G1 X51.114 Y8.305
G1 X50.584 Y8.003
G1 X50.046 Y7.717
G1 X49.5 Y7.446
G1 X48.947 Y7.189
G1 X48.387 Y6.949
G1 X47.82 Y6.724
G1 X47.247 Y6.514
G1 X46.669 Y6.321
G1 X46.086 Y6.144
G1 X45.498 Y5.983
G1 X44.905 Y5.838
G1 X44.309 Y5.71
G1 X43.71 Y5.599
G1 X43.107 Y5.504
G1 X42.503 Y5.425
G1 X41.896 Y5.363
G1 X41.288 Y5.318
G1 X40.679 Y5.29
G1 X40.07 Y5.278
G1 X39.46 Y5.283
G1 X38.851 Y5.305
G1 X38.242 Y5.344
G1 X37.635 Y5.399
G1 X37.029 Y5.471
G1 X36.426 Y5.559
G1 X35.826 Y5.664
G1 X35.228 Y5.786
G1 X34.634 Y5.924
G1 X34.044 Y6.079
G1 X33.459 Y6.249
G1 X32.879 Y6.436
G1 X32.303 Y6.638
G1 X31.734 Y6.856
G1 X31.171 Y7.089
G1 X30.614 Y7.338
G1 X30.064 Y7.602
G1 X29.522 Y7.88
G1 X28.987 Y8.173
G1 X28.461 Y8.481
G1 X27.943 Y8.803
G1 X27.434 Y9.139
G1 X26.935 Y9.489
G1 X26.445 Y9.852
G1 X25.965 Y10.229
G1 X25.496 Y10.618
G1 X25.038 Y11.02
G1 X24.591 Y11.435
G1 X24.156 Y11.862
G1 X23.732 Y12.3
G1 X23.32 Y12.75
G1 X22.921 Y13.21
G1 X22.534 Y13.682
G1 X22.16 Y14.163
G1 X21.799 Y14.655
G1 X21.452 Y15.156
G1 X21.119 Y15.667
G1 X20.799 Y16.186
G1 X20.494 Y16.714
G1 X20.204 Y17.25
G1 X19.928 Y17.794
G1 X19.666 Y18.344
G1 X19.42 Y18.902
G1 X19.189 Y19.467
G1 X18.974 Y20.037
G1 X18.775 Y20.613
G1 X18.591 Y21.195
G1 X18.423 Y21.781
G1 X18.27 Y22.371
G1 X18.134 Y22.965
G1 X18.014 Y23.563
G1 X17.91 Y24.164
G1 X17.823 Y24.767
G1 X17.751 Y25.373
G1 X17.696 Y25.98
G1 X17.658 Y26.589
G1 X17.636 Y27.198
G1 X17.631 Y27.808
G1 X17.642 Y28.417
G1 X17.669 Y29.026
G1 X17.713 Y29.634
G1 X17.774 Y30.241
G1 X17.851 Y30.846
G1 X17.944 Y31.448
G1 X18.054 Y32.048
G1 X18.18 Y32.645
G1 X18.322 Y33.238
G1 X18.48 Y33.827
G1 X18.654 Y34.411
G1 X18.843 Y34.991
G1 X19.048 Y35.565
G1 X19.268 Y36.133
G1 X19.504 Y36.696
G1 X19.755 Y37.252
G1 X20.02 Y37.801
G1 X20.301 Y38.342
G1 X20.595 Y38.876
G1 X20.905 Y39.401
G1 X21.228 Y39.918
G1 X21.565 Y40.426
G1 X21.916 Y40.925
G1 X22.28 Y41.414
G1 X22.657 Y41.893
G1 X23.048 Y42.361
G1 X23.45 Y42.819
G1 X23.865 Y43.266
G1 X24.292 Y43.702
G1 X24.73 Y44.126
G1 X25.179 Y44.538
G1 X25.64 Y44.937
G1 X26.111 Y45.325
G1 X26.592 Y45.699
G1 X27.083 Y46.06
G1 X27.584 Y46.408
G1 X28.094 Y46.742
G1 X28.613 Y47.062
G1 X29.14 Y47.369
G1 X29.675 Y47.66
G1 X30.218 Y47.938
G1 X30.769 Y48.2
G1 X31.326 Y48.447
G1 X31.89 Y48.679
G1 X32.46 Y48.896
G1 X33.035 Y49.097
G1 X33.616 Y49.283
G1 X34.202 Y49.453
G1 X34.792 Y49.607
G1 X35.385 Y49.745
G1 X35.983 Y49.868
G1 X36.583 Y49.974
G1 X37.186 Y50.064
G1 X37.791 Y50.137
G1 X38.398 Y50.195
G1 X39.007 Y50.236
G1 X39.616 Y50.26
G1 X40.226 Y50.268
G1 X40.835 Y50.26
G1 X41.445 Y50.235
G1 X42.053 Y50.193
G1 X42.66 Y50.135
G1 X43.265 Y50.061
G1 X43.868 Y49.971
G1 X44.468 Y49.865
G1 X45.066 Y49.742
G1 X45.66 Y49.604
G1 X46.25 Y49.45
G1 X46.835 Y49.281
G1 X47.416 Y49.095
G1 X47.992 Y48.895
G1 X48.562 Y48.679
G1 X49.126 Y48.448
G1 X49.684 Y48.202
G1 X50.235 Y47.941
G1 X50.779 Y47.666
G1 X51.316 Y47.376
G1 X51.844 Y47.072
G1 X52.365 Y46.754
G1 X52.876 Y46.422
G1 X53.379 Y46.077
G1 X53.872 Y45.719
G1 X54.356 Y45.347
G1 X54.829 Y44.964
G1 X55.293 Y44.567
G1 X55.746 Y44.159
G1 X56.188 Y43.739
G1 X56.618 Y43.308
G1 X57.038 Y42.865
G1 X57.445 Y42.411
G1 X57.84 Y41.947
G1 X58.223 Y41.473
G1 X58.594 Y40.988
G1 X58.951 Y40.494
G1 X59.295 Y39.991
G1 X59.626 Y39.479
G1 X59.944 Y38.958
G1 X60.247 Y38.429
G1 X60.536 Y37.893
G1 X60.811 Y37.348
G1 X61.072 Y36.797
G1 X61.318 Y36.239
G1 X61.549 Y35.675
G1 X61.766 Y35.105
G1 X61.967 Y34.53
G1 X62.154 Y33.949
G1 X62.325 Y33.364
G1 X62.48 Y32.775
G1 X62.62 Y32.181
G1 X62.745 Y31.584
G1 X62.853 Y30.984
G1 X62.946 Y30.382
G1 X63.022 Y29.777
G1 X63.083 Y29.17
G1 X63.128 Y28.562
G1 X63.156 Y27.953
G1 X63.168 Y27.343
G1 X63.165 Y26.734
G1 X63.145 Y26.124
G1 X63.109 Y25.516
G1 X63.057 Y24.908
G1 X62.989 Y24.302
G1 X62.906 Y23.698
G1 X62.806 Y23.097
G1 X62.691 Y22.498
G1 X62.56 Y21.902
G1 X62.413 Y21.311
G1 X62.251 Y20.723
G1 X62.073 Y20.14
G1 X61.88 Y19.561
G1 X61.672 Y18.988
G1 X61.448 Y18.421
G1 X61.21 Y17.86
G1 X60.957 Y17.305
G1 X60.689 Y16.758
G1 X60.406 Y16.217
G1 X60.11 Y15.684
G1 X59.799 Y15.16
G1 X59.475 Y14.643
G1 X59.138 Y14.135
G1 X58.787 Y13.637
G1 X58.423 Y13.148
G1 X58.046 Y12.668
G1 X57.657 Y12.199
G1 X57.256 Y11.739
G1 X56.843 Y11.291
G1 X56.418 Y10.854
G1 X55.981 Y10.428
G1 X55.534 Y10.014
G1 X55.076 Y9.611
G1 X54.607 Y9.221
G1 X54.129 Y8.844
G1 X53.64 Y8.479
G1 X53.142 Y8.127
G1 X52.635 Y7.789
G1 X52.119 Y7.464
G1 X51.595 Y7.152
G1 X51.063 Y6.855
G1 X50.523 Y6.571
G1 X49.976 Y6.302
G1 X49.422 Y6.047
G1 X48.862 Y5.807
G1 X48.295 Y5.581
G1 X47.723 Y5.37
G1 X47.146 Y5.175
G1 X46.563 Y4.994
G1 X45.976 Y4.829
G1 X45.385 Y4.68
G1 X44.79 Y4.545
G1 X44.192 Y4.427
G1 X43.591 Y4.324
G1 X42.988 Y4.237
G1 X42.382 Y4.166
G1 X41.775 Y4.111
G1 X41.167 Y4.071
G1 X40.557 Y4.048
G1 X39.948 Y4.04
G1 X39.338 Y4.048
G1 X38.729 Y4.072
G1 X38.12 Y4.112
G1 X37.513 Y4.168
G1 X36.908 Y4.239
G1 X36.304 Y4.326
G1 X35.703 Y4.429
G1 X35.105 Y4.547
G1 X34.51 Y4.681
G1 X33.919 Y4.83
G1 X33.332 Y4.995
G1 X32.749 Y5.174
G1 X32.171 Y5.369
G1 X31.599 Y5.579
G1 X31.032 Y5.804
G1 X30.471 Y6.043
G1 X29.917 Y6.297
G1 X29.369 Y6.565
G1 X28.829 Y6.847
G1 X28.296 Y7.143
G1 X27.77 Y7.452
G1 X27.253 Y7.776
G1 X26.745 Y8.112
G1 X26.245 Y8.461
G1 X25.754 Y8.823
G1 X25.273 Y9.198
G1 X24.802 Y9.584
G1 X24.341 Y9.983
G1 X23.89 Y10.394
G1 X23.45 Y10.816
G1 X23.021 Y11.25
G1 X22.604 Y11.694
G1 X22.198 Y12.149
G1 X21.805 Y12.615
G1 X21.423 Y13.09
G1 X21.054 Y13.575
G1 X20.697 Y14.07
G1 X20.353 Y14.573
G1 X20.022 Y15.085
G1 X19.705 Y15.606
G1 X19.401 Y16.134
G1 X19.11 Y16.671
G1 X18.834 Y17.214
G1 X18.571 Y17.764
G1 X18.323 Y18.321
G1 X18.089 Y18.884
G1 X17.87 Y19.453
G1 X17.665 Y20.028
G1 X17.475 Y20.607
G1 X17.301 Y21.191
G1 X17.141 Y21.78
G1 X16.997 Y22.372
G1 X16.868 Y22.968
G1 X16.754 Y23.567
G1 X16.656 Y24.169
G1 X16.574 Y24.773
G1 X16.506 Y25.379
G1 X16.455 Y25.986
G1 X16.418 Y26.595
G1 X16.398 Y27.204
G1 X16.393 Y27.814
G1 X16.404 Y28.424
G1 X16.43 Y29.033
G1 X16.472 Y29.641
G1 X16.529 Y30.248
G1 X16.602 Y30.853
G1 X16.691 Y31.457
G1 X16.795 Y32.058
G1 X16.914 Y32.655
G1 X17.049 Y33.25
G1 X17.199 Y33.841
G1 X17.364 Y34.428
G1 X17.544 Y35.01
G1 X17.739 Y35.588
G1 X17.949 Y36.161
G1 X18.173 Y36.728
G1 X18.412 Y37.289
G1 X18.665 Y37.843
G1 X18.932 Y38.392
G1 X19.213 Y38.933
G1 X19.508 Y39.466
G1 X19.816 Y39.993
G1 X20.137 Y40.511
G1 X20.472 Y41.02
G1 X20.82 Y41.521
G1 X21.18 Y42.013
G1 X21.553 Y42.495
G1 X21.938 Y42.968
G1 X22.335 Y43.431
G1 X22.744 Y43.883
G1 X23.165 Y44.325
G1 X23.596 Y44.755
G1 X24.039 Y45.175
G1 X24.492 Y45.583
G1 X24.955 Y45.979
G1 X25.428 Y46.364
G1 X25.911 Y46.736
G1 X26.403 Y47.096
G1 X26.905 Y47.443
G1 X27.415 Y47.777
G1 X27.933 Y48.098
G1 X28.459 Y48.406
G1 X28.993 Y48.7
G1 X29.535 Y48.98
G1 X30.083 Y49.246
G1 X30.639 Y49.499
G1 X31.2 Y49.737
G1 X31.767 Y49.96
G1 X32.34 Y50.169
G1 X32.918 Y50.363
G1 X33.501 Y50.542
G1 X34.088 Y50.705
G1 X34.68 Y50.854
G1 X35.274 Y50.988
G1 X35.872 Y51.107
G1 X36.473 Y51.21
G1 X37.077 Y51.298
G1 X37.682 Y51.371
G1 X38.289 Y51.428
G1 X38.897 Y51.469
G1 X39.507 Y51.495
G1 X40.116 Y51.506
G1 X40.726 Y51.501
G1 X41.335 Y51.48
G1 X41.944 Y51.444
G1 X42.551 Y51.392
G1 X43.157 Y51.325
G1 X43.762 Y51.242
G1 X44.363 Y51.144
G1 X44.962 Y51.03
G1 X45.558 Y50.902
G1 X46.151 Y50.758
G1 X46.74 Y50.599
G1 X47.324 Y50.426
G1 X47.904 Y50.238
G1 X48.479 Y50.035
G1 X49.049 Y49.818
G1 X49.613 Y49.586
G1 X50.171 Y49.341
G1 X50.723 Y49.081
G1 X51.268 Y48.807
G1 X51.805 Y48.52
G1 X52.336 Y48.22
G1 X52.859 Y47.906
G1 X53.373 Y47.579
G1 X53.879 Y47.239
G1 X54.377 Y46.887
G1 X54.865 Y46.522
G1 X55.344 Y46.144
G1 X55.814 Y45.755
G1 X56.273 Y45.354
G1 X56.723 Y44.942
G1 X57.162 Y44.519
G1 X57.59 Y44.085
G1 X58.007 Y43.641
G1 X58.413 Y43.186
G1 X58.808 Y42.721
G1 X59.19 Y42.246
G1 X59.561 Y41.762
G1 X59.92 Y41.269
G1 X60.266 Y40.767
G1 X60.6 Y40.257
G1 X60.921 Y39.738
G1 X61.228 Y39.212
G1 X61.523 Y38.678
G1 X61.804 Y38.137
G1 X62.071 Y37.589
G1 X62.324 Y37.035
G1 X62.564 Y36.474
G1 X62.789 Y35.907
G1 X63. Y35.335
G1 X63.197 Y34.758
G1 X63.379 Y34.176
G1 X63.547 Y33.59
G1 X63.7 Y33.
G1 X63.839 Y32.406
G1 X63.962 Y31.809
G1 X64.071 Y31.209
G1 X64.165 Y30.607
G1 X64.243 Y30.002
G1 X64.306 Y29.396
G1 X64.355 Y28.788
G1 X64.387 Y28.179
G1 X64.405 Y27.569
G1 X64.407 Y26.96
G1 X64.395 Y26.35
G1 X64.366 Y25.741
G1 X64.323 Y25.133
G1 X64.264 Y24.526
G1 X64.19 Y23.921
G1 X64.101 Y23.318
G1 X63.996 Y22.717
G1 X63.877 Y22.119
G1 X63.743 Y21.524
G1 X63.594 Y20.933
G1 X63.431 Y20.346
G1 X63.252 Y19.762
G1 X63.06 Y19.184
G1 X62.853 Y18.611
G1 X62.631 Y18.043
G1 X62.395 Y17.48
G1 X62.146 Y16.924
G1 X61.882 Y16.374
G1 X61.605 Y15.831
G1 X61.314 Y15.295
G1 X61.01 Y14.767
G1 X60.692 Y14.246
G1 X60.362 Y13.734
G1 X60.018 Y13.23
G1 X59.663 Y12.735
G1 X59.295 Y12.249
G1 X58.915 Y11.772
G1 X58.523 Y11.305
G1 X58.119 Y10.848
G1 X57.705 Y10.401
G1 X57.279 Y9.964
G1 X56.843 Y9.538
G1 X56.396 Y9.123
G1 X55.939 Y8.72
G1 X55.472 Y8.328
G1 X54.995 Y7.948
G1 X54.509 Y7.58
G1 X54.014 Y7.224
G1 X53.51 Y6.881
G1 X52.998 Y6.55
G1 X52.477 Y6.232
G1 X51.949 Y5.928
G1 X51.413 Y5.636
G1 X50.871 Y5.359
G1 X50.321 Y5.095
G1 X49.765 Y4.844
G1 X49.203 Y4.608
G1 X48.636 Y4.385
G1 X48.063 Y4.177
G1 X47.485 Y3.983
G1 X46.902 Y3.803
G1 X46.315 Y3.638
G1 X45.724 Y3.487
G1 X45.13 Y3.351
G1 X44.532 Y3.23
G1 X43.932 Y3.124
G1 X43.329 Y3.033
G1 X42.724 Y2.956
G1 X42.117 Y2.895
G1 X41.509 Y2.849
G1 X40.901 Y2.818
G1 X40.291 Y2.802
G1 X39.681
G1 X39.072 Y2.816
G1 X38.463 Y2.846
G1 X37.855 Y2.89
G1 X37.248 Y2.95
G1 X36.643 Y3.024
G1 X36.04 Y3.114
G1 X35.439 Y3.218
G1 X34.841 Y3.337
G1 X34.246 Y3.47
G1 X33.654 Y3.619
G1 X33.067 Y3.781
G1 X32.483 Y3.958
G1 X31.905 Y4.15
G1 X31.331 Y4.356
G1 X30.762 Y4.576
G1 X30.199 Y4.809
G1 X29.642 Y5.057
G1 X29.091 Y5.318
G1 X28.546 Y5.593
G1 X28.009 Y5.881
G1 X27.479 Y6.183
G1 X26.957 Y6.497
G1 X26.442 Y6.824
G1 X25.936 Y7.164
G1 X25.438 Y7.515
G1 X24.948 Y7.879
G1 X24.468 Y8.255
G1 X23.997 Y8.642
G1 X23.536 Y9.041
G1 X23.085 Y9.451
G1 X22.644 Y9.872
G1 X22.213 Y10.303
G1 X21.793 Y10.745
G1 X21.384 Y11.198
G1 X20.986 Y11.66
G1 X20.6 Y12.132
G1 X20.225 Y12.613
G1 X19.863 Y13.103
G1 X19.512 Y13.602
G1 X19.174 Y14.109
G1 X18.849 Y14.625
G1 X18.536 Y15.148
G1 X18.236 Y15.679
G1 X17.949 Y16.217
G1 X17.675 Y16.762
G1 X17.415 Y17.313
G1 X17.168 Y17.87
G1 X16.935 Y18.434
G1 X16.715 Y19.003
G1 X16.51 Y19.577
G1 X16.318 Y20.156
G1 X16.141 Y20.739
G1 X15.978 Y21.327
G1 X15.83 Y21.918
G1 X15.696 Y22.513
G1 X15.577 Y23.111
G1 X15.472 Y23.711
G1 X15.382 Y24.314
G1 X15.307 Y24.919
G1 X15.247 Y25.526
G1 X15.202 Y26.134
G1 X15.171 Y26.743
G1 X15.155 Y27.353
G1 X15.154 Y27.962
G1 X15.168 Y28.572
G1 X15.197 Y29.181
G1 X15.241 Y29.789
G1 X15.299 Y30.396
G1 X15.372 Y31.001
G1 X15.46 Y31.605
G1 X15.562 Y32.206
G1 X15.679 Y32.804
G1 X15.811 Y33.4
G1 X15.957 Y33.992
G1 X16.117 Y34.58
G1 X16.292 Y35.164
G1 X16.481 Y35.744
G1 X16.684 Y36.319
G1 X16.901 Y36.888
G1 X17.132 Y37.453
G1 X17.376 Y38.011
G1 X17.635 Y38.564
G1 X17.906 Y39.11
G1 X18.191 Y39.649
G1 X18.488 Y40.181
G1 X18.799 Y40.706
G1 X19.122 Y41.223
G1 X19.457 Y41.732
G1 X19.805 Y42.233
G1 X20.165 Y42.725
G1 X20.537 Y43.208
G1 X20.92 Y43.682
G1 X21.315 Y44.147
G1 X21.721 Y44.602
G1 X22.138 Y45.047
G1 X22.565 Y45.481
G1 X23.003 Y45.905
G1 X23.452 Y46.319
G1 X23.91 Y46.721
G1 X24.378 Y47.112
G1 X24.856 Y47.491
G1 X25.342 Y47.858
G1 X25.837 Y48.214
G1 X26.341 Y48.557
G1 X26.853 Y48.889
G1 X27.373 Y49.207
G1 X27.9 Y49.513
G1 X28.435 Y49.806
G1 X28.976 Y50.086
G1 X29.525 Y50.353
G1 X30.079 Y50.606
G1 X30.64 Y50.846
G1 X31.206 Y51.072
G1 X31.778 Y51.285
G1 X32.354 Y51.483
G1 X32.936 Y51.667
G1 X33.521 Y51.837
G1 X34.111 Y51.993
G1 X34.704 Y52.134
G1 X35.3 Y52.26
G1 X35.9 Y52.372
G1 X36.502 Y52.469
G1 X37.106 Y52.552
G1 X37.712 Y52.62
G1 X38.319 Y52.673
G1 X38.927 Y52.712
G1 X39.537 Y52.736
G1 X40.146 Y52.745
G1 X40.756 Y52.739
G1 X41.365 Y52.719
G1 X41.974 Y52.684
G1 X42.582 Y52.634
G1 X43.188 Y52.57
G1 X43.793 Y52.49
G1 X44.395 Y52.397
G1 X44.995 Y52.288
G1 X45.592 Y52.165
G1 X46.186 Y52.028
G1 X46.777 Y51.877
G1 X47.364 Y51.711
G1 X47.946 Y51.531
G1 X48.524 Y51.336
G1 X49.097 Y51.129
G1 X49.665 Y50.907
G1 X50.228 Y50.672
G1 X50.785 Y50.423
G1 X51.335 Y50.161
G1 X51.88 Y49.887
G1 X52.417 Y49.599
G1 X52.947 Y49.298
G1 X53.471 Y48.985
G1 X53.986 Y48.659
G1 X54.494 Y48.321
G1 X54.993 Y47.971
G1 X55.484 Y47.61
G1 X55.966 Y47.236
G1 X56.439 Y46.851
G1 X56.902 Y46.455
G1 X57.356 Y46.048
G1 X57.8 Y45.63
G1 X58.234 Y45.202
G1 X58.658 Y44.763
G1 X59.071 Y44.315
G1 X59.473 Y43.857
G1 X59.864 Y43.389
G1 X60.244 Y42.912
G1 X60.613 Y42.427
G1 X60.97 Y41.932
G1 X61.315 Y41.43
G1 X61.648 Y40.919
G1 X61.969 Y40.401
G1 X62.278 Y39.875
G1 X62.574 Y39.342
G1 X62.857 Y38.802
G1 X63.127 Y38.255
G1 X63.385 Y37.703
G1 X63.628 Y37.144
G1 X63.875 Y36.538
G1 X63.913 Y36.398
G1 X63.921 Y36.326
G1 X63.97 Y35.772
G1 X64.029 Y35.554
G1 X64.127 Y35.326
G1 X64.232 Y35.125
G1 X64.469 Y34.563
G1 X64.671 Y33.988
G1 X64.846 Y33.404
G1 X65. Y32.814
G1 X65.134 Y32.219
G1 X65.252 Y31.621
G1 X65.354 Y31.02
G1 X65.44 Y30.416
G1 X65.512 Y29.811
G1 X65.568 Y29.204
G1 X65.609 Y28.595
G1 X65.636 Y27.986
G1 X65.648 Y27.377
G1 X65.646 Y26.767
G1 X65.628 Y26.157
G1 X65.597 Y25.549
G1 X65.551 Y24.941
G1 X65.49 Y24.334
G1 X65.415 Y23.729
G1 X65.325 Y23.126
G1 X65.222 Y22.525
G1 X65.104 Y21.927
G1 X64.972 Y21.331
G1 X64.826 Y20.739
G1 X64.666 Y20.151
G1 X64.491 Y19.567
G1 X64.304 Y18.987
G1 X64.102 Y18.411
G1 X63.887 Y17.841
G1 X63.658 Y17.276
G1 X63.415 Y16.716
G1 X63.159 Y16.163
G1 X62.89 Y15.616
G1 X62.608 Y15.075
G1 X62.313 Y14.542
G1 X62.005 Y14.015
G1 X61.685 Y13.496
G1 X61.353 Y12.985
G1 X61.008 Y12.482
G1 X60.652 Y11.988
G1 X60.284 Y11.501
G1 X59.905 Y11.024
G1 X59.514 Y10.556
G1 X59.112 Y10.097
G1 X58.7 Y9.648
G1 X58.277 Y9.209
G1 X57.844 Y8.78
G1 X57.401 Y8.361
G1 X56.948 Y7.953
G1 X56.485 Y7.556
G1 X56.013 Y7.17
G1 X55.532 Y6.795
G1 X55.042 Y6.432
G1 X54.544 Y6.081
G1 X54.037 Y5.742
G1 X53.522 Y5.415
G1 X53. Y5.101
G1 X52.47 Y4.798
G1 X51.934 Y4.509
G1 X51.39 Y4.232
G1 X50.841 Y3.969
G1 X50.285 Y3.718
G1 X49.723 Y3.48
G1 X49.156 Y3.256
G1 X48.584 Y3.046
G1 X48.007 Y2.848
G1 X47.261 Y2.617
G1 X47.124 Y2.591
G1 X47.054 Y2.588
G1 X34.113
G1 X33.504 Y2.618
G1 X33.201 Y2.651
G1 X32.598 Y2.744
G1 X32.004 Y2.881
G1 X31.418 Y3.049
G1 X30.839 Y3.242
G1 X30.268 Y3.454
G1 X29.703 Y3.682
G1 X29.144 Y3.927
G1 X28.592 Y4.185
G1 X28.046 Y4.458
G1 X27.507 Y4.743
G1 X26.976 Y5.041
G1 X26.451 Y5.352
G1 X25.934 Y5.675
G1 X25.424 Y6.01
G1 X24.923 Y6.357
G1 X24.43 Y6.715
G1 X23.945 Y7.085
G1 X23.469 Y7.466
G1 X23.003 Y7.859
G1 X22.545 Y8.262
G1 X22.097 Y8.676
G1 X21.659 Y9.1
G1 X21.231 Y9.534
G1 X20.813 Y9.978
G1 X20.406 Y10.431
G1 X20.009 Y10.894
G1 X19.623 Y11.367
G1 X19.249 Y11.848
G1 X18.885 Y12.337
G1 X18.534 Y12.835
G1 X18.194 Y13.341
G1 X17.865 Y13.855
G1 X17.549 Y14.377
G1 X17.245 Y14.905
G1 X16.954 Y15.441
G1 X16.675 Y15.983
G1 X16.408 Y16.531
G1 X16.155 Y17.086
G1 X15.915 Y17.646
G1 X15.687 Y18.212
G1 X15.473 Y18.783
G1 X15.273 Y19.359
G1 X15.086 Y19.939
G1 X14.912 Y20.523
G1 X14.752 Y21.112
G1 X14.606 Y21.704
G1 X14.473 Y22.299
G1 X14.355 Y22.897
G1 X14.25 Y23.498
G1 X14.159 Y24.101
G1 X14.083 Y24.705
G1 X14.02 Y25.312
G1 X13.972 Y25.92
G1 X13.938 Y26.529
G1 X13.918 Y27.138
G1 X13.912 Y27.748
G1 X13.92 Y28.357
G1 X13.942 Y28.967
G1 X13.978 Y29.575
G1 X14.029 Y30.183
G1 X14.094 Y30.789
G1 X14.173 Y31.394
G1 X14.265 Y31.996
G1 X14.372 Y32.597
G1 X14.493 Y33.194
G1 X14.628 Y33.789
G1 X14.776 Y34.38
G1 X14.938 Y34.968
G1 X15.113 Y35.552
G1 X15.302 Y36.132
G1 X15.505 Y36.707
G1 X15.721 Y37.277
G1 X15.95 Y37.842
G1 X16.192 Y38.402
G1 X16.446 Y38.956
G1 X16.714 Y39.504
G1 X16.994 Y40.045
G1 X17.287 Y40.58
G1 X17.592 Y41.108
G1 X17.909 Y41.629
G1 X18.238 Y42.142
G1 X18.579 Y42.647
G1 X18.932 Y43.145
G1 X19.296 Y43.634
G1 X19.671 Y44.114
G1 X20.058 Y44.586
G1 X20.455 Y45.049
G1 X20.863 Y45.502
G1 X21.281 Y45.945
G1 X21.709 Y46.379
G1 X22.147 Y46.803
G1 X22.595 Y47.217
G1 X23.053 Y47.62
G1 X23.52 Y48.012
G1 X23.995 Y48.394
G1 X24.48 Y48.764
G1 X24.973 Y49.123
G1 X25.474 Y49.47
G1 X25.982 Y49.806
G1 X26.499 Y50.13
G1 X27.023 Y50.442
G1 X27.554 Y50.742
G1 X28.092 Y51.029
G1 X28.636 Y51.304
G1 X29.187 Y51.565
G1 X29.743 Y51.814
G1 X30.305 Y52.051
G1 X30.873 Y52.274
G1 X31.445 Y52.483
G1 X32.145 Y52.718
G1 X32.292 Y52.749
G1 X32.368 Y52.752
G1 X46.855
G1 X47.464 Y52.722
G1 X48.007 Y52.651
G1 X48.603 Y52.524
G1 X49.19 Y52.358
G1 X49.769 Y52.165
G1 X50.339 Y51.951
G1 X50.903 Y51.718
G1 X51.46 Y51.47
G1 X52.01 Y51.208
G1 X52.554 Y50.932
G1 X53.091 Y50.643
G1 X53.621 Y50.341
G1 X54.144 Y50.027
G1 X54.659 Y49.702
G1 X55.167 Y49.364
G1 X55.667 Y49.015
G1 X56.159 Y48.655
G1 X56.642 Y48.283
G1 X57.117 Y47.901
G1 X57.583 Y47.508
G1 X58.04 Y47.105
G1 X58.488 Y46.691
G1 X58.926 Y46.267
G1 X59.355 Y45.833
G1 X59.773 Y45.389
G1 X60.181 Y44.936
G1 X60.579 Y44.474
G1 X60.966 Y44.003
G1 X61.342 Y43.523
G1 X61.707 Y43.035
G1 X62.061 Y42.538
G1 X62.404 Y42.034
G1 X62.736 Y41.522
G1 X63.055 Y41.003
G1 X63.363 Y40.477
G1 X63.659 Y39.944
G1 X63.943 Y39.404
G1 X64.292 Y38.693
G1 X64.355 Y38.485
G1 X64.354 Y38.267
G1 X64.29 Y38.059
G1 X64.029 Y37.499
G1 X64.001 Y37.434
G1 X63.955 Y37.295
G1 X63.923 Y37.157
G1 X63.901 Y37.018
G1 X63.891 Y36.88
G1 X63.921 Y36.326
G1 X63.918 Y36.267
G1 X63.903 Y36.211
G1 X63.879 Y36.158
G1 X63.426 Y35.372
G3 X63.976 Y35.054 I0.275 J-0.159
G3 X64.011 Y35.279 I-0.275 J0.159
G1 X64.012 Y35.308
G1 X64.026 Y35.334
G1 X64.049 Y35.351
G1 X64.078 Y35.356
G1 X64.106 Y35.347
G1 X64.127 Y35.326
G1 X64.629 Y34.525
G1 X64.736 Y34.387
G1 X64.966 Y34.157
G1 X64.998 Y34.134
G1 X65.11 Y34.059
G1 X65.225 Y33.963
G1 X65.35 Y33.842
G1 X65.489 Y33.682
G1 X65.638 Y33.482
G1 X65.802 Y33.219
G1 X65.977 Y32.881
G1 X66.168 Y32.425
G1 X66.358 Y31.846
G1 X66.504 Y31.254
G1 X66.619 Y30.655
G1 X66.708 Y30.052
G1 X66.778 Y29.447
G1 X66.829 Y28.839
G1 X66.864 Y28.23
G1 X66.884 Y27.621
G1 X66.888 Y27.011
G1 X66.879 Y26.402
G1 X66.855 Y25.792
G1 X66.816 Y25.184
G1 X66.764 Y24.576
G1 X66.698 Y23.97
G1 X66.618 Y23.366
G1 X66.524 Y22.763
G1 X66.417 Y22.163
G1 X66.296 Y21.565
G1 X66.162 Y20.971
G1 X66.015 Y20.379
G1 X65.854 Y19.791
G1 X65.679 Y19.207
G1 X65.492 Y18.626
G1 X65.291 Y18.051
G1 X65.078 Y17.48
G1 X64.851 Y16.913
G1 X64.612 Y16.353
G1 X64.36 Y15.798
G1 X64.095 Y15.248
G1 X63.818 Y14.705
G1 X63.528 Y14.169
G1 X63.227 Y13.639
G1 X62.913 Y13.116
G1 X62.587 Y12.601
G1 X62.249 Y12.093
G1 X61.901 Y11.593
G1 X61.54 Y11.101
G1 X61.169 Y10.617
G1 X60.787 Y10.142
G1 X60.395 Y9.676
G1 X59.992 Y9.218
G1 X59.578 Y8.77
G1 X59.155 Y8.331
G1 X58.722 Y7.902
G1 X58.279 Y7.482
G1 X57.827 Y7.073
G1 X57.366 Y6.674
G1 X56.896 Y6.286
G1 X56.417 Y5.909
G1 X55.93 Y5.542
G1 X55.434 Y5.187
G1 X54.931 Y4.843
G1 X54.419 Y4.511
G1 X53.901 Y4.19
G1 X53.375 Y3.882
G1 X52.842 Y3.585
G1 X52.303 Y3.301
G1 X51.757 Y3.029
G1 X50.939 Y2.651
G1 X50.843 Y2.616
G1 X50.742 Y2.595
G1 X50.639 Y2.588
G1 X47.054
G1 X46.993 Y2.596
G1 X46.934 Y2.616
G1 X46.87 Y2.645 Z-0.992
G1 X46.808 Y2.673 Z-0.969
G1 X46.754 Y2.698 Z-0.931
G1 X46.708 Y2.719 Z-0.88
G1 X46.674 Y2.735 Z-0.82
G1 X46.652 Y2.744 Z-0.753
G1 X46.645 Y2.748 Z-0.683
G0 Z5.
G0 X65.125 Y33.796
G0 Z-0.365
G1 Z-0.683 F1000.
G1 X65.12 Y33.802 Z-0.753
G1 X65.105 Y33.82 Z-0.82
G1 X65.08 Y33.849 Z-0.88
G1 X65.048 Y33.887 Z-0.931
G1 X65.009 Y33.933 Z-0.969
G1 X64.965 Y33.984 Z-0.992
G1 X64.919 Y34.038 Z-1.
G1 X64.906 Y34.064
G1 Y34.093
G1 X64.918 Y34.119
G1 X64.942 Y34.137
G1 X64.97 Y34.142
G1 X64.998 Y34.134
G1 X65.552 Y33.809
G1 X65.968 Y33.589
G1 X66.074 Y33.542
G1 X66.199 Y33.491
G1 X66.313 Y33.418
G1 X66.442 Y33.319
G1 X66.588 Y33.187
G1 X66.728 Y33.039
G1 X66.885 Y32.843
G1 X67.048 Y32.602
G1 X67.222 Y32.296
G1 X67.399 Y31.915
G1 X67.585 Y31.412
G1 X67.75 Y30.826
G1 X67.874 Y30.229
G1 X67.967 Y29.626
G1 X67.993 Y29.358
G2 X67.384 Y29.241 I-0.317 J0.011
G1 X66.562 Y31.117
G1 X65.689 Y33.112
G2 X66.074 Y33.542 I0.291 J0.127
G1 X66.245 Y33.487
G1 X66.672 Y33.417
G1 X66.742 Y33.411
G1 X66.876 Y33.393
G1 X67.007 Y33.361
G1 X67.133 Y33.315
G1 X67.255 Y33.257
G1 X67.393 Y33.177
G1 X67.528 Y33.084
G1 X67.678 Y32.961
G1 X67.765 Y32.877
G1 X67.888 Y32.722
G1 X67.966 Y32.539
G1 X67.993 Y32.343
G2 X67.48 Y32.104 I-0.317 J0.011
G1 X66.531 Y32.844
G2 X66.742 Y33.411 I0.195 J0.25
G1 X67.076 Y33.384
G1 X67.214 Y33.395
G1 X67.429 Y33.434
G1 X67.463 Y33.441
G1 X67.491 Y33.447
G1 X67.624 Y33.47
G1 X67.768 Y33.426
G1 X67.887 Y33.333
G1 X67.965 Y33.205
G1 X67.993 Y33.057
G2 X67.906 Y32.818 I-0.413 J0.014
G2 X67.278 Y33.306 I-0.314 J0.244
G2 X67.491 Y33.447 I0.314 J-0.244
G1 X67.63 Y33.478
G1 X67.734 Y33.47
G1 X67.806 Y33.441
G1 X67.876 Y33.391
G1 X67.939 Y33.32
G1 X67.976 Y33.244
G1 X67.993 Y33.14
G1 Y25.662
G1 X67.962 Y25.053
G1 X67.945 Y24.443
G1 X67.9 Y23.835
G1 X67.834 Y23.229
G1 X67.749 Y22.625
G1 X67.648 Y22.024
G1 X67.533 Y21.425
G1 X67.403 Y20.83
G1 X67.26 Y20.237
G1 X67.104 Y19.648
G1 X66.935 Y19.062
G1 X66.753 Y18.48
G1 X66.558 Y17.902
G1 X66.351 Y17.329
G1 X66.131 Y16.76
G1 X65.899 Y16.196
G1 X65.654 Y15.638
G1 X65.398 Y15.085
G1 X65.129 Y14.537
G1 X64.849 Y13.996
G1 X64.556 Y13.461
G1 X64.252 Y12.932
G1 X63.937 Y12.41
G1 X63.61 Y11.896
G1 X63.272 Y11.388
G1 X62.924 Y10.888
G1 X62.564 Y10.395
G1 X62.194 Y9.911
G1 X61.814 Y9.434
G1 X61.423 Y8.966
G1 X61.023 Y8.506
G1 X60.612 Y8.055
G1 X60.192 Y7.613
G1 X59.763 Y7.18
G1 X59.324 Y6.757
G1 X58.877 Y6.343
G1 X58.42 Y5.939
G1 X57.955 Y5.545
G1 X57.481 Y5.162
G1 X56.998 Y4.789
G1 X56.508 Y4.426
G1 X56.01 Y4.074
G1 X55.505 Y3.733
G1 X54.992 Y3.403
G1 X54.472 Y3.084
G1 X53.772 Y2.681
G1 X53.658 Y2.629
G1 X53.537 Y2.598
G1 X53.412 Y2.588
G1 X50.639
G1 X50.577 Y2.596
G1 X50.518 Y2.616
G1 X50.454 Y2.645 Z-0.992
G1 X50.393 Y2.673 Z-0.969
G1 X50.338 Y2.698 Z-0.931
G1 X50.293 Y2.719 Z-0.88
G1 X50.258 Y2.735 Z-0.82
G1 X50.237 Y2.744 Z-0.753
G1 X50.23 Y2.748 Z-0.683
G0 Z5.
G0 X67.769 Y25.378
G0 Z-0.365
G1 Z-0.683 F1000.
G1 X67.772 Y25.386 Z-0.753
G1 X67.779 Y25.408 Z-0.82
G1 X67.791 Y25.444 Z-0.88
G1 X67.807 Y25.492 Z-0.931
G1 X67.826 Y25.549 Z-0.969
G1 X67.847 Y25.613 Z-0.992
G1 X67.869 Y25.68 Z-1.
G1 X67.884 Y25.704
G1 X67.909 Y25.72
G1 X67.938 Y25.722
G1 X67.965 Y25.712
G1 X67.985 Y25.69
G1 X67.993 Y25.662
G1 Y19.568
G1 X67.965 Y19.023
G1 X67.893 Y18.47
G1 X67.765 Y17.873
G1 X67.601 Y17.286
G1 X67.41 Y16.707
G1 X67.199 Y16.135
G1 X66.97 Y15.57
G1 X66.728 Y15.011
G1 X66.471 Y14.457
G1 X66.202 Y13.91
G1 X65.922 Y13.369
G1 X65.629 Y12.834
G1 X65.325 Y12.305
G1 X65.011 Y11.783
G1 X64.685 Y11.268
G1 X64.349 Y10.759
G1 X64.002 Y10.258
G1 X63.644 Y9.763
G1 X63.277 Y9.277
G1 X62.9 Y8.798
G1 X62.513 Y8.327
G1 X62.116 Y7.864
G1 X61.71 Y7.409
G1 X61.294 Y6.963
G1 X60.869 Y6.525
G1 X60.436 Y6.097
G1 X59.993 Y5.678
G1 X59.542 Y5.268
G1 X59.082 Y4.867
G1 X58.614 Y4.477
G1 X58.138 Y4.096
G1 X57.654 Y3.725
G1 X57.162 Y3.364
G1 X56.663 Y3.014
G1 X56.217 Y2.713
G1 X56.088 Y2.644
G1 X55.949 Y2.602
G1 X55.803 Y2.588
G1 X53.412
G1 X53.351 Y2.596
G1 X53.292 Y2.616
G1 X53.227 Y2.645 Z-0.992
G1 X53.166 Y2.673 Z-0.969
G1 X53.111 Y2.698 Z-0.931
G1 X53.066 Y2.719 Z-0.88
G1 X53.031 Y2.735 Z-0.82
G1 X53.01 Y2.744 Z-0.753
G1 X53.003 Y2.748 Z-0.683
G0 Z5.
G0 X67.769 Y19.285
G0 Z-0.365
G1 Z-0.683 F1000.
G1 X67.772 Y19.292 Z-0.753
G1 X67.779 Y19.314 Z-0.82
G1 X67.791 Y19.35 Z-0.88
G1 X67.807 Y19.398 Z-0.931
G1 X67.826 Y19.455 Z-0.969
G1 X67.847 Y19.519 Z-0.992
G1 X67.869 Y19.586 Z-1.
G1 X67.884 Y19.611
G1 X67.909 Y19.626
G1 X67.938 Y19.629
G1 X67.965 Y19.618
G1 X67.985 Y19.596
G1 X67.993 Y19.568
G1 Y16.106
G1 X67.975 Y15.753
G1 X67.925 Y15.375
G1 X67.824 Y14.903
G1 X67.649 Y14.319
G1 X67.432 Y13.749
G1 X67.184 Y13.192
G1 X66.915 Y12.645
G1 X66.569 Y12.
G1 X66.449 Y11.841
G1 X66.291 Y11.719
G1 X66.106 Y11.643
G2 X65.74 Y12.069 I-0.071 J0.31
G1 X67.38 Y16.212
G2 X67.993 Y16.106 I0.295 J-0.117
G1 Y13.336
G1 X67.979 Y13.058
G1 X67.94 Y12.762
G1 X67.884 Y12.5
G1 X67.809 Y12.251
G1 X67.703 Y12.064
G1 X67.549 Y11.916
G1 X67.358 Y11.818
G1 X67.148 Y11.779
G2 X66.855 Y12.222 I-0.002 J0.317
G1 X67.384 Y13.451
G2 X67.993 Y13.336 I0.292 J-0.126
G1 X67.988 Y12.02
G1 X67.969 Y11.951
G1 X67.927 Y11.879
G1 X67.838 Y11.795
G1 X67.734 Y11.748
G1 X67.63 Y11.74
G1 X67.396 Y11.774
G1 X67.143 Y11.779
G1 X66.66 Y11.724
G1 X66.203 Y11.662
G1 X65.968 Y11.606
G1 X65.783 Y11.536
G1 X65.552 Y11.394
G1 X65.275 Y11.204
G1 X64.79 Y10.843
G1 X64.583 Y10.634
G1 X64.441 Y10.428
G1 X64.167 Y9.86
G1 X63.993 Y9.458
G1 X63.946 Y9.32
G1 X63.909 Y9.139
G1 X63.882 Y8.984
G1 X63.823 Y8.751
G1 X63.726 Y8.47
G1 X63.578 Y8.13
G1 X63.349 Y7.702
G1 X63.019 Y7.189
G1 X62.651 Y6.703
G1 X62.26 Y6.235
G1 X61.85 Y5.784
G1 X61.426 Y5.346
G1 X60.991 Y4.919
G1 X60.545 Y4.503
G1 X60.09 Y4.096
G1 X59.627 Y3.7
G1 X59.155 Y3.314
G1 X58.409 Y2.736
G1 X58.272 Y2.655
G1 X58.121 Y2.605
G1 X57.963 Y2.588
G1 X55.803
G1 X55.742 Y2.596
G1 X55.683 Y2.616
G1 X55.619 Y2.645 Z-0.992
G1 X55.558 Y2.673 Z-0.969
G1 X55.503 Y2.698 Z-0.931
G1 X55.457 Y2.719 Z-0.88
G1 X55.423 Y2.735 Z-0.82
G1 X55.401 Y2.744 Z-0.753
G1 X55.394 Y2.748 Z-0.683
G0 Z5.
G0 X63.654 Y8.885
G0 Z-0.365
G1 Z-0.683 F1000.
G1 X63.657 Y8.892 Z-0.753
G1 X63.667 Y8.913 Z-0.82
G1 X63.683 Y8.947 Z-0.88
G1 X63.704 Y8.993 Z-0.931
G1 X63.73 Y9.047 Z-0.969
G1 X63.759 Y9.108 Z-0.992
G1 X63.789 Y9.172 Z-1.
G1 X63.807 Y9.195
G1 X63.833 Y9.207
G1 X63.863 Y9.206
G1 X63.888 Y9.192
G1 X63.905 Y9.168
G1 X63.909 Y9.139
G1 X63.898 Y9.043
G1 X63.914 Y8.489
G1 X63.962 Y7.893
G1 X63.979 Y7.759
G1 X63.975 Y7.604
G1 X63.956 Y7.416
G1 X63.915 Y7.202
G1 X63.849 Y6.958
G1 X63.744 Y6.666
G1 X63.59 Y6.327
G1 X63.363 Y5.918
G1 X63.025 Y5.41
G1 X62.648 Y4.931
G1 X62.244 Y4.474
G1 X61.822 Y4.035
G1 X61.384 Y3.61
G1 X60.935 Y3.198
G1 X60.43 Y2.759
G1 X60.286 Y2.665
G1 X60.126 Y2.607
G1 X59.956 Y2.588
G1 X57.963
G1 X57.928 Y2.596
G1 X57.9 Y2.617
G1 X57.881 Y2.647
G1 X57.876 Y2.683
G1 X57.885 Y2.717
G1 X57.907 Y2.746
G1 X63.813 Y7.942
G1 X63.846 Y7.96
G1 X63.883 Y7.964
G1 X63.919 Y7.952
G1 X63.946 Y7.927
G1 X63.962 Y7.893
G1 X64.015 Y7.658
G1 X64.064 Y7.519
G1 X64.127 Y7.381
G1 X64.192 Y7.274
G1 X64.258 Y7.156
G1 X64.305 Y7.03
G1 X64.339 Y6.899
G1 X64.361 Y6.761
G1 X64.374 Y6.6
G1 X64.373 Y6.431
G1 X64.356 Y6.224
G1 X64.318 Y5.988
G1 X64.255 Y5.737
G1 X64.153 Y5.431
G1 X64.012 Y5.1
G1 X63.802 Y4.702
G1 X63.5 Y4.225
G1 X63.134 Y3.737
G1 X62.736 Y3.275
G1 X62.28 Y2.797
G1 X62.128 Y2.683
G1 X61.951 Y2.612
G1 X61.763 Y2.588
G2 X61.492 Y3.05 I0.011 J0.317
G1 X63.647 Y7.24
G2 X64.192 Y7.274 I0.282 J-0.145
G1 X64.583 Y6.659
G1 X64.693 Y6.501
G1 X64.765 Y6.386
G1 X64.823 Y6.265
G1 X64.869 Y6.138
G1 X64.905 Y6.001
G1 X64.933 Y5.847
G1 X64.95 Y5.677
G1 X64.953 Y5.471
G1 X64.94 Y5.26
G1 X64.902 Y5.002
G1 X64.839 Y4.726
G1 X64.739 Y4.407
G1 X64.597 Y4.055
G1 X64.388 Y3.64
G1 X64.1 Y3.164
G1 X63.905 Y2.894
G1 X63.741 Y2.73
G1 X63.534 Y2.624
G1 X63.304 Y2.588
G2 X63.014 Y3.004 I0.011 J0.317
G1 X64.138 Y6.409
G2 X64.693 Y6.501 I0.301 J-0.1
G1 X64.765 Y6.412
G1 X64.902 Y6.273
G1 X65.088 Y6.135
G1 X65.195 Y6.053
G1 X65.292 Y5.958
G1 X65.374 Y5.852
G1 X65.445 Y5.737
G1 X65.504 Y5.615
G1 X65.554 Y5.487
G1 X65.6 Y5.33
G1 X65.636 Y5.166
G1 X65.662 Y4.966
G1 X65.672 Y4.758
G1 X65.664 Y4.507
G1 X65.64 Y4.322
G1 X65.598 Y4.188
G2 X65.002 Y4.243 I-0.288 J0.133
G1 X64.809 Y5.003
G1 X64.611 Y5.788
G2 X65.088 Y6.135 I0.308 J0.078
G1 X65.414 Y5.945
G1 X65.732 Y5.771
G1 X65.847 Y5.7
G1 X66. Y5.526
G1 X66.09 Y5.312
G1 X66.106 Y5.08
G1 X66.048 Y4.856
G1 X65.921 Y4.661
G2 X65.382 Y4.83 I-0.226 J0.223
G1 X65.277 Y5.433
G2 X65.732 Y5.771 I0.313 J0.054
G1 X65.968 Y5.646
G1 X66.124 Y5.581
G1 X66.185 Y5.558
G1 X66.286 Y5.49
G1 X66.348 Y5.407
G1 X66.381 Y5.304
G1 X66.379 Y5.203
G1 X66.338 Y5.096
G1 X66.245 Y4.99
G1 X66.005 Y4.75
G1 X65.975 Y4.725 Z-0.994
G1 X65.948 Y4.703 Z-0.976
G1 X65.927 Y4.685 Z-0.949
G1 X65.913 Y4.674 Z-0.914
G1 X65.909 Y4.67 Z-0.875
G0 Z5.
G0 X65.619 Y4.311
G0 Z-0.683
G1 Z-1. F1000.
G1 X65.614 Y4.248
G1 X65.598 Y4.188
G1 X65.543 Y4.057
G1 X65.5 Y3.919
G1 X65.486 Y3.843
G1 X65.44 Y3.647
G1 X65.344 Y3.349
G1 X65.237 Y3.09
G1 X65.187 Y2.992
G1 X65.071 Y2.825
G1 X64.914 Y2.697
G1 X64.728 Y2.615
G1 X64.527 Y2.588
G2 X64.271 Y3.077 I0.011 J0.317
G1 X64.905 Y4.06
G2 X65.486 Y3.843 I0.267 J-0.172
G1 X65.459 Y3.642
G1 X65.45 Y2.88
G1 X65.414 Y2.77
G1 X65.339 Y2.672
G1 X65.241 Y2.61
G1 X65.137 Y2.588
G1 X63.304
G1 X63.267 Y2.596 Z-0.994
G1 X63.233 Y2.604 Z-0.976
G1 X63.207 Y2.61 Z-0.948
G1 X63.189 Y2.615 Z-0.914
G1 X63.184 Y2.616 Z-0.875
G0 Z5.
G0 X63.425
G0 Z-0.683
G1 Z-1. F1000.
G1 X63.366 Y2.596
G1 X63.304 Y2.588
G1 X59.956
G1 X59.918 Y2.596 Z-0.994
G1 X59.885 Y2.604 Z-0.976
G1 X59.858 Y2.61 Z-0.948
G1 X59.841 Y2.615 Z-0.914
G1 X59.835 Y2.616 Z-0.875
G0 Z5.
G0 X33.829 Y2.811
G0 Z-0.365
G1 Z-0.683 F1000.
G1 X33.837 Y2.808 Z-0.753
G1 X33.859 Y2.801 Z-0.82
G1 X33.895 Y2.789 Z-0.88
G1 X33.943 Y2.773 Z-0.931
G1 X34. Y2.754 Z-0.969
G1 X34.063 Y2.733 Z-0.992
G1 X34.13 Y2.711 Z-1.
G1 X34.155 Y2.696
G1 X34.171 Y2.671
G1 X34.173 Y2.642
G1 X34.163 Y2.615
G1 X34.141 Y2.595
G1 X34.113 Y2.588
G1 X30.512
G1 X30.033 Y2.611
G1 X29.661 Y2.66
G1 X29.185 Y2.762
G1 X28.601 Y2.937
G1 X28.031 Y3.155
G1 X27.474 Y3.403
G1 X26.928 Y3.674
G1 X26.391 Y3.963
G1 X25.863 Y4.268
G1 X25.343 Y4.586
G1 X24.831 Y4.917
G1 X24.327 Y5.26
G1 X23.831 Y5.615
G1 X23.343 Y5.981
G1 X22.864 Y6.358
G1 X22.393 Y6.745
G1 X21.932 Y7.144
G1 X21.479 Y7.552
G1 X21.036 Y7.971
G1 X20.602 Y8.399
G1 X20.178 Y8.837
G1 X19.764 Y9.285
G1 X19.359 Y9.741
G1 X18.966 Y10.207
G1 X18.582 Y10.681
G1 X18.209 Y11.163
G1 X17.847 Y11.654
G1 X17.496 Y12.152
G1 X17.157 Y12.659
G1 X16.828 Y13.172
G1 X16.511 Y13.693
G1 X16.205 Y14.221
G1 X15.912 Y14.755
G1 X15.63 Y15.296
G1 X15.36 Y15.842
G1 X15.103 Y16.395
G1 X14.858 Y16.954
G1 X14.625 Y17.517
G1 X14.405 Y18.086
G1 X14.198 Y18.659
G1 X14.004 Y19.237
G1 X13.823 Y19.819
G1 X13.655 Y20.405
G1 X13.499 Y20.995
G1 X13.357 Y21.588
G1 X13.228 Y22.184
G1 X13.113 Y22.783
G1 X13.01 Y23.384
G1 X12.922 Y23.987
G1 X12.846 Y24.592
G1 X12.784 Y25.198
G1 X12.735 Y25.806
G1 X12.7 Y26.415
G1 X12.678 Y27.024
G1 X12.67 Y27.634
G1 X12.675 Y28.244
G1 X12.693 Y28.853
G1 X12.725 Y29.462
G1 X12.771 Y30.07
G1 X12.83 Y30.677
G1 X12.903 Y31.282
G1 X12.989 Y31.886
G1 X13.088 Y32.487
G1 X13.201 Y33.086
G1 X13.328 Y33.683
G1 X13.467 Y34.276
G1 X13.62 Y34.867
G1 X13.785 Y35.454
G1 X13.964 Y36.037
G1 X14.155 Y36.616
G1 X14.359 Y37.19
G1 X14.576 Y37.76
G1 X14.805 Y38.325
G1 X15.047 Y38.885
G1 X15.301 Y39.439
G1 X15.567 Y39.987
G1 X15.845 Y40.53
G1 X16.135 Y41.066
G1 X16.437 Y41.596
G1 X16.751 Y42.119
G1 X17.076 Y42.635
G1 X17.412 Y43.143
G1 X17.76 Y43.644
G1 X18.119 Y44.137
G1 X18.488 Y44.622
G1 X18.869 Y45.099
G1 X19.259 Y45.567
G1 X19.66 Y46.026
G1 X20.072 Y46.476
G1 X20.493 Y46.917
G1 X20.923 Y47.349
G1 X21.363 Y47.771
G1 X21.813 Y48.183
G1 X22.271 Y48.585
G1 X22.738 Y48.977
G1 X23.214 Y49.359
G1 X23.697 Y49.73
G1 X24.189 Y50.09
G1 X24.689 Y50.439
G1 X25.196 Y50.777
G1 X25.711 Y51.104
G1 X26.233 Y51.42
G1 X26.762 Y51.723
G1 X27.297 Y52.015
G1 X27.838 Y52.295
G1 X28.648 Y52.684
G1 X28.748 Y52.722
G1 X28.852 Y52.745
G1 X28.959 Y52.752
G1 X32.368
G1 X32.405 Y52.744 Z-0.994
G1 X32.438 Y52.736 Z-0.976
G1 X32.465 Y52.73 Z-0.948
G1 X32.482 Y52.725 Z-0.914
G1 X32.488 Y52.724 Z-0.875
G0 Z5.
G0 X30.228 Y2.811
G0 Z-0.365
G1 Z-0.683 F1000.
G1 X30.236 Y2.808 Z-0.753
G1 X30.258 Y2.801 Z-0.82
G1 X30.294 Y2.789 Z-0.88
G1 X30.342 Y2.773 Z-0.931
G1 X30.399 Y2.754 Z-0.969
G1 X30.462 Y2.733 Z-0.992
G1 X30.529 Y2.711 Z-1.
G1 X30.554 Y2.696
G1 X30.57 Y2.671
G1 X30.572 Y2.642
G1 X30.562 Y2.615
G1 X30.54 Y2.595
G1 X30.512 Y2.588
G1 X27.742
G1 X27.354 Y2.607
G1 X27.06 Y2.645
G1 X26.699 Y2.723
G1 X26.254 Y2.856
G1 X25.686 Y3.077
G1 X25.137 Y3.343
G1 X24.604 Y3.638
G1 X24.083 Y3.956
G1 X23.574 Y4.291
G1 X23.075 Y4.641
G1 X22.585 Y5.004
G1 X22.104 Y5.379
G1 X21.632 Y5.765
G1 X21.169 Y6.162
G1 X20.714 Y6.568
G1 X20.269 Y6.984
G1 X19.833 Y7.41
G1 X19.406 Y7.846
G1 X18.988 Y8.29
G1 X18.58 Y8.743
G1 X18.182 Y9.205
G1 X17.793 Y9.675
G1 X17.415 Y10.153
G1 X17.047 Y10.639
G1 X16.69 Y11.133
G1 X16.344 Y11.635
G1 X16.008 Y12.144
G1 X15.683 Y12.66
G1 X15.368 Y13.182
G1 X15.065 Y13.711
G1 X14.774 Y14.247
G1 X14.494 Y14.788
G1 X14.225 Y15.336
G1 X13.968 Y15.888
G1 X13.723 Y16.447
G1 X13.489 Y17.01
G1 X13.268 Y17.578
G1 X13.059 Y18.151
G1 X12.863 Y18.728
G1 X12.678 Y19.309
G1 X12.506 Y19.894
G1 X12.347 Y20.483
G1 X12.2 Y21.074
G1 X12.065 Y21.669
G1 X11.943 Y22.267
G1 X11.835 Y22.867
G1 X11.738 Y23.469
G1 X11.655 Y24.073
G1 X11.585 Y24.678
G1 X11.528 Y25.285
G1 X11.483 Y25.893
G1 X11.451 Y26.502
G1 X11.432 Y27.112
G1 X11.426 Y27.721
G1 X11.433 Y28.331
G1 X11.453 Y28.94
G1 X11.485 Y29.549
G1 X11.531 Y30.157
G1 X11.589 Y30.764
G1 X11.661 Y31.37
G1 X11.745 Y31.974
G1 X11.842 Y32.576
G1 X11.952 Y33.175
G1 X12.074 Y33.773
G1 X12.209 Y34.367
G1 X12.357 Y34.959
G1 X12.517 Y35.547
G1 X12.69 Y36.132
G1 X12.875 Y36.713
G1 X13.072 Y37.29
G1 X13.282 Y37.862
G1 X13.504 Y38.43
G1 X13.737 Y38.993
G1 X13.983 Y39.551
G1 X14.24 Y40.104
G1 X14.509 Y40.651
G1 X14.789 Y41.193
G1 X15.081 Y41.728
G1 X15.384 Y42.257
G1 X15.698 Y42.78
G1 X16.023 Y43.296
G1 X16.359 Y43.805
G1 X16.705 Y44.306
G1 X17.063 Y44.8
G1 X17.43 Y45.287
G1 X17.808 Y45.765
G1 X18.196 Y46.236
G1 X18.594 Y46.698
G1 X19.001 Y47.151
G1 X19.418 Y47.596
G1 X19.845 Y48.032
G1 X20.28 Y48.459
G1 X20.725 Y48.876
G1 X21.178 Y49.284
G1 X21.64 Y49.682
G1 X22.11 Y50.07
G1 X22.588 Y50.448
G1 X23.074 Y50.816
G1 X23.568 Y51.174
G1 X24.069 Y51.521
G1 X24.578 Y51.858
G1 X25.093 Y52.184
G1 X25.886 Y52.654
G1 X26.002 Y52.708
G1 X26.127 Y52.741
G1 X26.255 Y52.752
G1 X28.959
G1 X28.996 Y52.744 Z-0.994
G1 X29.03 Y52.736 Z-0.976
G1 X29.056 Y52.73 Z-0.948
G1 X29.073 Y52.725 Z-0.914
G1 X29.079 Y52.724 Z-0.875
G0 Z5.
G0 X27.458 Y2.811
G0 Z-0.365
G1 Z-0.683 F1000.
G1 X27.466 Y2.808 Z-0.753
G1 X27.488 Y2.801 Z-0.82
G1 X27.524 Y2.789 Z-0.88
G1 X27.572 Y2.773 Z-0.931
G1 X27.629 Y2.754 Z-0.969
G1 X27.692 Y2.733 Z-0.992
G1 X27.759 Y2.711 Z-1.
G1 X27.784 Y2.696
G1 X27.8 Y2.671
G1 X27.802 Y2.642
G1 X27.792 Y2.615
G1 X27.77 Y2.595
G1 X27.742 Y2.588
G1 X25.249
G1 X25.028 Y2.599
G1 X24.772 Y2.632
G1 X24.476 Y2.695
G1 X24.11 Y2.805
G1 X23.654 Y2.983
G1 X23.106 Y3.249
G1 X22.579 Y3.556
G1 X22.07 Y3.891
G1 X21.574 Y4.247
G1 X21.092 Y4.619
G1 X20.619 Y5.005
G1 X20.157 Y5.403
G1 X19.705 Y5.811
G1 X19.262 Y6.23
G1 X18.828 Y6.658
G1 X18.403 Y7.095
G1 X17.987 Y7.541
G1 X17.58 Y7.996
G1 X17.183 Y8.459
G1 X16.796 Y8.93
G1 X16.419 Y9.408
G1 X16.051 Y9.895
G1 X15.693 Y10.389
G1 X15.346 Y10.89
G1 X15.008 Y11.398
G1 X14.682 Y11.912
G1 X14.365 Y12.433
G1 X14.06 Y12.961
G1 X13.765 Y13.495
G1 X13.48 Y14.034
G1 X13.207 Y14.579
G1 X12.946 Y15.13
G1 X12.695 Y15.686
G1 X12.456 Y16.247
G1 X12.228 Y16.812
G1 X12.012 Y17.383
G1 X11.808 Y17.957
G1 X11.616 Y18.536
G1 X11.436 Y19.118
G1 X11.267 Y19.704
G1 X11.11 Y20.293
G1 X10.966 Y20.886
G1 X10.833 Y21.481
G1 X10.713 Y22.078
G1 X10.605 Y22.678
G1 X10.509 Y23.281
G1 X10.425 Y23.885
G1 X10.354 Y24.49
G1 X10.295 Y25.097
G1 X10.248 Y25.705
G1 X10.214 Y26.314
G1 X10.192 Y26.923
G1 X10.182 Y27.533
G1 X10.184 Y28.142
G1 X10.199 Y28.752
G1 X10.226 Y29.361
G1 X10.266 Y29.969
G1 X10.318 Y30.577
G1 X10.383 Y31.183
G1 X10.46 Y31.788
G1 X10.549 Y32.391
G1 X10.651 Y32.992
G1 X10.765 Y33.591
G1 X10.891 Y34.188
G1 X11.029 Y34.782
G1 X11.179 Y35.373
G1 X11.341 Y35.96
G1 X11.515 Y36.545
G1 X11.701 Y37.126
G1 X11.898 Y37.702
G1 X12.108 Y38.275
G1 X12.329 Y38.843
G1 X12.561 Y39.407
G1 X12.805 Y39.966
G1 X13.06 Y40.52
G1 X13.326 Y41.068
G1 X13.603 Y41.611
G1 X13.891 Y42.149
G1 X14.19 Y42.68
G1 X14.499 Y43.206
G1 X14.819 Y43.725
G1 X15.15 Y44.237
G1 X15.491 Y44.742
G1 X15.842 Y45.241
G1 X16.204 Y45.732
G1 X16.575 Y46.215
G1 X16.956 Y46.691
G1 X17.347 Y47.159
G1 X17.747 Y47.619
G1 X18.156 Y48.071
G1 X18.575 Y48.515
G1 X19.002 Y48.949
G1 X19.438 Y49.375
G1 X19.883 Y49.793
G1 X20.336 Y50.201
G1 X20.798 Y50.599
G1 X21.267 Y50.989
G1 X21.744 Y51.368
G1 X22.228 Y51.738
G1 X22.72 Y52.099
G1 X23.484 Y52.627
G1 X23.613 Y52.696
G1 X23.752 Y52.738
G1 X23.897 Y52.752
G1 X26.255
G1 X26.292 Y52.744 Z-0.994
G1 X26.326 Y52.736 Z-0.976
G1 X26.352 Y52.73 Z-0.948
G1 X26.369 Y52.725 Z-0.914
G1 X26.375 Y52.724 Z-0.875
G0 Z5.
G0 X24.965 Y2.811
G0 Z-0.365
G1 Z-0.683 F1000.
G1 X24.973 Y2.808 Z-0.753
G1 X24.995 Y2.801 Z-0.82
G1 X25.031 Y2.789 Z-0.88
G1 X25.079 Y2.773 Z-0.931
G1 X25.136 Y2.754 Z-0.969
G1 X25.199 Y2.733 Z-0.992
G1 X25.266 Y2.711 Z-1.
G1 X25.291 Y2.696
G1 X25.307 Y2.671
G1 X25.309 Y2.642
G1 X25.299 Y2.615
G1 X25.277 Y2.595
G1 X25.249 Y2.588
G1 X23.171
G1 X22.896 Y2.601
G1 X22.669 Y2.631
G1 X22.408 Y2.687
G1 X22.091 Y2.782
G1 X21.71 Y2.93
G1 X21.243 Y3.157
G1 X20.717 Y3.466
G1 X20.215 Y3.811
G1 X19.73 Y4.181
G1 X19.26 Y4.57
G1 X18.803 Y4.973
G1 X18.356 Y5.388
G1 X17.92 Y5.814
G1 X17.494 Y6.25
G1 X17.077 Y6.695
G1 X16.67 Y7.149
G1 X16.271 Y7.61
G1 X15.883 Y8.08
G1 X15.503 Y8.557
G1 X15.133 Y9.042
G1 X14.773 Y9.534
G1 X14.423 Y10.033
G1 X14.082 Y10.539
G1 X13.751 Y11.051
G1 X13.43 Y11.569
G1 X13.12 Y12.094
G1 X12.819 Y12.625
G1 X12.53 Y13.161
G1 X12.251 Y13.703
G1 X11.982 Y14.251
G1 X11.725 Y14.803
G1 X11.478 Y15.361
G1 X11.242 Y15.923
G1 X11.018 Y16.49
G1 X10.804 Y17.061
G1 X10.602 Y17.636
G1 X10.411 Y18.215
G1 X10.232 Y18.798
G1 X10.063 Y19.384
G1 X9.907 Y19.973
G1 X9.762 Y20.566
G1 X9.628 Y21.161
G1 X9.506 Y21.758
G1 X9.396 Y22.358
G1 X9.298 Y22.959
G1 X9.211 Y23.563
G1 X9.136 Y24.168
G1 X9.073 Y24.774
G1 X9.022 Y25.382
G1 X8.982 Y25.99
G1 X8.954 Y26.6
G1 X8.939 Y27.209
G1 X8.935 Y27.819
G1 X8.943 Y28.428
G1 X8.963 Y29.038
G1 X8.995 Y29.647
G1 X9.039 Y30.255
G1 X9.095 Y30.862
G1 X9.163 Y31.468
G1 X9.242 Y32.072
G1 X9.334 Y32.675
G1 X9.437 Y33.276
G1 X9.552 Y33.875
G1 X9.678 Y34.471
G1 X9.816 Y35.065
G1 X9.966 Y35.656
G1 X10.127 Y36.244
G1 X10.3 Y36.829
G1 X10.484 Y37.411
G1 X10.679 Y37.988
G1 X10.885 Y38.562
G1 X11.103 Y39.131
G1 X11.331 Y39.697
G1 X11.571 Y40.257
G1 X11.821 Y40.813
G1 X12.082 Y41.364
G1 X12.354 Y41.91
G1 X12.636 Y42.451
G1 X12.929 Y42.985
G1 X13.233 Y43.514
G1 X13.546 Y44.037
G1 X13.87 Y44.554
G1 X14.204 Y45.064
G1 X14.548 Y45.568
G1 X14.901 Y46.064
G1 X15.264 Y46.554
G1 X15.637 Y47.037
G1 X16.019 Y47.512
G1 X16.41 Y47.98
G1 X16.992 Y48.64
G1 X17.094 Y48.734
G1 X17.213 Y48.807
G1 X17.343 Y48.857
G1 X17.581 Y48.928
G1 X17.855 Y49.067
G1 X18.047 Y49.208
G1 X18.636 Y49.759
G1 X18.77 Y49.898
G1 X18.927 Y50.106
G1 X18.967 Y50.175
G1 X19.034 Y50.292
G1 X19.313 Y50.679
G1 X19.709 Y51.142
G1 X20.139 Y51.575
G1 X20.59 Y51.985
G1 X21.057 Y52.377
G1 X21.331 Y52.593
G1 X21.471 Y52.68
G1 X21.626 Y52.734
G1 X21.79 Y52.752
G2 X21.997 Y52.205 I-0.011 J-0.317
G1 X19.475 Y49.814
G2 X18.967 Y50.175 I-0.218 J0.23
G1 X19.035 Y50.313
G1 X19.18 Y50.729
G1 X19.315 Y51.144
G1 X19.393 Y51.463
G1 X19.416 Y51.596
G1 X19.463 Y51.757
G1 X19.535 Y51.948
G1 X19.64 Y52.17
G1 X19.792 Y52.432
G1 X19.91 Y52.566
G1 X20.057 Y52.667
G1 X20.224 Y52.731
G1 X20.402 Y52.752
G2 X20.653 Y52.256 I-0.011 J-0.317
G1 X19.972 Y51.257
G2 X19.393 Y51.463 I-0.262 J0.179
G1 X19.411 Y51.698
G1 X19.405 Y51.837
G1 X19.338 Y52.252
G1 X19.33 Y52.294
G1 X19.325 Y52.323
G1 X19.315 Y52.423
G1 X19.328 Y52.529
G1 X19.348 Y52.558
G1 X19.377 Y52.578
G1 X19.411 Y52.585
G1 X19.446 Y52.578
G1 X19.475 Y52.559
G1 X19.495 Y52.53
G1 X19.502 Y52.495
G1 X19.504 Y52.344
G1 Y52.343
G1 X19.496 Y52.306
G1 X19.474 Y52.275
G1 X19.441 Y52.257
G1 X19.404 Y52.253
G1 X19.368 Y52.264
G1 X19.34 Y52.289
G1 X19.325 Y52.323
G1 X19.311 Y52.425
G1 X19.328 Y52.529
G1 X19.359 Y52.598
G1 X19.432 Y52.682
G1 X19.501 Y52.724
G1 X19.605 Y52.751
G1 X23.897 Y52.752
G1 X23.935 Y52.744 Z-0.994
G1 X23.968 Y52.736 Z-0.976
G1 X23.995 Y52.73 Z-0.948
G1 X24.012 Y52.725 Z-0.914
G1 X24.018 Y52.724 Z-0.875
G0 Z5.
G0 X47.138 Y52.529
G0 Z-0.365
G1 Z-0.683 F1000.
G1 X47.131 Y52.532 Z-0.753
G1 X47.109 Y52.539 Z-0.82
G1 X47.073 Y52.551 Z-0.88
G1 X47.025 Y52.567 Z-0.931
G1 X46.968 Y52.586 Z-0.969
G1 X46.904 Y52.607 Z-0.992
G1 X46.837 Y52.629 Z-1.
G1 X46.812 Y52.644
G1 X46.797 Y52.669
G1 X46.794 Y52.698
G1 X46.805 Y52.725
G1 X46.827 Y52.745
G1 X46.855 Y52.752
G1 X50.317
G1 X50.678 Y52.734
G1 X51.04 Y52.687
G1 X51.493 Y52.59
G1 X52.077 Y52.415
G1 X52.646 Y52.195
G1 X53.201 Y51.943
G1 X53.745 Y51.668
G1 X54.28 Y51.375
G1 X54.806 Y51.066
G1 X55.323 Y50.744
G1 X55.833 Y50.409
G1 X56.334 Y50.062
G1 X56.828 Y49.704
G1 X57.313 Y49.335
G1 X57.79 Y48.956
G1 X58.259 Y48.566
G1 X58.719 Y48.165
G1 X59.17 Y47.755
G1 X59.612 Y47.335
G1 X60.045 Y46.906
G1 X60.468 Y46.467
G1 X60.882 Y46.019
G1 X61.285 Y45.562
G1 X61.679 Y45.096
G1 X62.062 Y44.622
G1 X62.435 Y44.139
G1 X62.797 Y43.649
G1 X63.149 Y43.151
G1 X63.49 Y42.646
G1 X63.82 Y42.133
G1 X64.139 Y41.613
G1 X64.446 Y41.087
G1 X64.742 Y40.554
G1 X65.02 Y40.026
G1 X65.159 Y39.694
G1 X65.197 Y39.471
G1 X65.166 Y39.246
G1 X65.069 Y39.041
G1 X64.914 Y38.875
G1 X64.86 Y38.833
G1 X64.842 Y38.819
G1 X64.788 Y38.786
G1 X64.73 Y38.765
G1 X64.662 Y38.747 Z-0.992
G1 X64.597 Y38.731 Z-0.969
G1 X64.538 Y38.716 Z-0.931
G1 X64.49 Y38.703 Z-0.88
G1 X64.453 Y38.694 Z-0.82
G1 X64.43 Y38.688 Z-0.753
G1 X64.422 Y38.686 Z-0.683
G0 Z5.
G0 X50.601 Y52.529
G0 Z-0.365
G1 Z-0.683 F1000.
G1 X50.593 Y52.532 Z-0.753
G1 X50.571 Y52.539 Z-0.82
G1 X50.535 Y52.551 Z-0.88
G1 X50.487 Y52.567 Z-0.931
G1 X50.43 Y52.586 Z-0.969
G1 X50.367 Y52.607 Z-0.992
G1 X50.3 Y52.629 Z-1.
G1 X50.275 Y52.644
G1 X50.259 Y52.669
G1 X50.257 Y52.698
G1 X50.267 Y52.725
G1 X50.289 Y52.745
G1 X50.317 Y52.752
G1 X52.949
G1 X53.314 Y52.734
G1 X53.602 Y52.696
G1 X53.954 Y52.621
G1 X54.387 Y52.491
G1 X54.947 Y52.273
G1 X55.496 Y52.007
G1 X56.028 Y51.71
G1 X56.547 Y51.39
G1 X57.055 Y51.053
G1 X57.552 Y50.7
G1 X58.041 Y50.335
G1 X58.52 Y49.959
G1 X58.991 Y49.572
G1 X59.454 Y49.174
G1 X59.907 Y48.767
G1 X60.352 Y48.349
G1 X60.788 Y47.923
G1 X61.214 Y47.488
G1 X61.632 Y47.043
G1 X62.04 Y46.59
G1 X62.438 Y46.128
G1 X62.827 Y45.659
G1 X63.205 Y45.181
G1 X63.574 Y44.695
G1 X63.932 Y44.202
G1 X64.281 Y43.701
G1 X64.618 Y43.194
G1 X64.946 Y42.679
G1 X65.354 Y42.
G1 X65.408 Y41.885
G1 X65.441 Y41.762
G1 X65.453 Y41.636
G1 X65.457 Y41.311
G1 X65.471 Y41.173
G1 X65.496 Y41.034
G1 X65.532 Y40.896
G1 X65.588 Y40.757
G1 X65.691 Y40.561
G1 X65.741 Y40.48
G1 X65.812 Y40.366
G1 X65.847 Y40.288
G1 X65.906 Y40.091
G1 X65.908 Y39.885
G1 X65.854 Y39.687
G1 X65.747 Y39.512
G1 X65.597 Y39.372
G2 X65.109 Y39.674 I-0.172 J0.267
G1 X65.181 Y40.313
G2 X65.741 Y40.48 I0.316 J-0.035
G1 X65.851 Y40.342
G1 X66.081 Y40.104
G1 X66.145 Y40.03
G1 X66.19 Y39.927
G1 X66.196 Y39.823
G1 X66.167 Y39.719
G1 X66.106 Y39.632
G1 X66.037 Y39.579
G1 X65.806 Y39.485
G1 X65.572 Y39.355
G1 X64.914 Y38.875
G1 X64.879 Y38.859 Z-0.994
G1 X64.848 Y38.845 Z-0.976
G1 X64.823 Y38.833 Z-0.948
G1 X64.807 Y38.826 Z-0.914
G1 X64.801 Y38.823 Z-0.875
G0 Z5.
G0 X38.872 Y26.968
G0 Z1.5
G2 X41.541 Y28.372 Z1.335 I1.335 J0.702 F333.
G2 X38.872 Y26.968 Z1.169 I-1.335 J-0.702
G2 X41.541 Y28.372 Z1.004 I1.335 J0.702
G2 X38.872 Y26.968 Z0.838 I-1.335 J-0.702
G2 X41.541 Y28.372 Z0.673 I1.335 J0.702
G2 X38.872 Y26.968 Z0.507 I-1.335 J-0.702
G2 X41.541 Y28.372 Z0.342 I1.335 J0.702
G2 X38.872 Y26.968 Z0.176 I-1.335 J-0.702
G2 X41.541 Y28.372 Z0.011 I1.335 J0.702
G2 X38.872 Y26.968 Z-0.155 I-1.335 J-0.702
G2 X41.541 Y28.372 Z-0.32 I1.335 J0.702
G2 X38.872 Y26.968 Z-0.485 I-1.335 J-0.702
G2 X41.541 Y28.372 Z-0.651 I1.335 J0.702
G2 X38.872 Y26.968 Z-0.816 I-1.335 J-0.702
G2 X41.541 Y28.372 Z-0.982 I1.335 J0.702
G2 X38.872 Y26.968 Z-1.147 I-1.335 J-0.702
G2 X41.541 Y28.372 Z-1.313 I1.335 J0.702
G2 X38.872 Y26.968 Z-1.478 I-1.335 J-0.702
G2 X41.541 Y28.372 Z-1.644 I1.335 J0.702
G2 X38.872 Y26.968 Z-1.809 I-1.335 J-0.702
G2 X41.541 Y28.372 Z-1.974 I1.335 J0.702
G2 X41.715 Y27.67 Z-2. I-1.335 J-0.702
G2 X38.699 I-1.508 J0.
G2 X41.715 I1.508 J0.
G1 X41.719 Y27.518 F1000.
G1 X41.848 Y26.972
G1 X41.868 Y26.839
G1 X41.867 Y26.704
G1 X41.848 Y26.57
G1 X41.813 Y26.44
G1 X41.764 Y26.314
G1 X41.702 Y26.194
G1 X41.629 Y26.081
G1 X41.546 Y25.974
G1 X41.454 Y25.875
G1 X41.352 Y25.782
G1 X41.24 Y25.695
G1 X41.117 Y25.614
G1 X40.984 Y25.541
G1 X40.843 Y25.478
G1 X40.693 Y25.425
G1 X40.536 Y25.383
G1 X40.372 Y25.354
G1 X40.205 Y25.337
G1 X40.033 Y25.334
G1 X39.86 Y25.345
G1 X39.685 Y25.37
G1 X39.511 Y25.409
G1 X39.34 Y25.463
G1 X39.171 Y25.531
G1 X39.007 Y25.613
G1 X38.85 Y25.708
G1 X38.699 Y25.817
G1 X38.557 Y25.938
G1 X38.424 Y26.07
G1 X38.302 Y26.213
G1 X38.192 Y26.367
G1 X38.093 Y26.529
G1 X38.008 Y26.699
G1 X37.937 Y26.875
G1 X37.88 Y27.058
G1 X37.837 Y27.244
G1 X37.81 Y27.434
G1 X37.798 Y27.626
G1 X37.801 Y27.818
G1 X37.82 Y28.01
G1 X37.854 Y28.199
G1 X37.904 Y28.386
G1 X37.968 Y28.568
G1 X38.047 Y28.744
G1 X38.139 Y28.914
G1 X38.245 Y29.075
G1 X38.364 Y29.228
G1 X38.494 Y29.371
G1 X38.636 Y29.503
G1 X38.788 Y29.623
G1 X38.949 Y29.73
G1 X39.118 Y29.825
G1 X39.294 Y29.905
G1 X39.476 Y29.971
G1 X39.663 Y30.022
G1 X39.854 Y30.059
G1 X40.046 Y30.079
G1 X40.24 Y30.084
G1 X40.434 Y30.074
G1 X40.626 Y30.048
G1 X40.815 Y30.007
G1 X41.001 Y29.95
G1 X41.181 Y29.879
G1 X41.355 Y29.794
G1 X41.522 Y29.695
G1 X41.68 Y29.583
G1 X41.829 Y29.459
G1 X41.968 Y29.323
G1 X42.095 Y29.176
G1 X42.209 Y29.02
G1 X42.352 Y28.788
G1 X42.548 Y28.405
G1 X42.676 Y28.097
G1 X42.761 Y27.833
G1 X42.818 Y27.591
G1 X42.853 Y27.361
G1 X42.869 Y27.139
G1 X42.867 Y26.923
G1 X42.848 Y26.713
G1 X42.812 Y26.507
G1 X42.761 Y26.307
G1 X42.694 Y26.11
G1 X42.61 Y25.919
G1 X42.511 Y25.734
G1 X42.396 Y25.555
G1 X42.266 Y25.385
G1 X42.121 Y25.224
G1 X41.962 Y25.073
G1 X41.788 Y24.934
G1 X41.602 Y24.807
G1 X41.402 Y24.693
G1 X41.192 Y24.595
G1 X40.971 Y24.513
G1 X40.742 Y24.448
G1 X40.505 Y24.401
G1 X40.262 Y24.373
G1 X40.015 Y24.365
G1 X39.766 Y24.376
G1 X39.516 Y24.407
G1 X39.268 Y24.459
G1 X39.022 Y24.532
G1 X38.782 Y24.624
G1 X38.548 Y24.736
G1 X38.323 Y24.868
G1 X38.107 Y25.017
G1 X37.904 Y25.185
G1 X37.713 Y25.369
G1 X37.538 Y25.569
G1 X37.378 Y25.783
G1 X37.235 Y26.01
G1 X37.111 Y26.248
G1 X37.006 Y26.496
G1 X36.921 Y26.753
G1 X36.856 Y27.016
G1 X36.813 Y27.284
G1 X36.792 Y27.555
G1 Y27.827
G1 X36.814 Y28.099
G1 X36.858 Y28.368
G1 X36.924 Y28.633
G1 X37.011 Y28.893
G1 X37.118 Y29.145
G1 X37.245 Y29.387
G1 X37.392 Y29.619
G1 X37.556 Y29.838
G1 X37.738 Y30.044
G1 X37.936 Y30.234
G1 X38.149 Y30.408
G1 X38.374 Y30.564
G1 X38.612 Y30.702
G1 X38.86 Y30.82
G1 X39.117 Y30.918
G1 X39.381 Y30.995
G1 X39.65 Y31.051
G1 X39.923 Y31.085
G1 X40.198 Y31.097
G1 X40.473 Y31.086
G1 X40.746 Y31.054
G1 X41.016 Y31.
G1 X41.281 Y30.924
G1 X41.538 Y30.828
G1 X41.787 Y30.711
G1 X42.026 Y30.574
G1 X42.253 Y30.419
G1 X42.479 Y30.236
G1 X42.72 Y30.007
G1 X42.947 Y29.753
G1 X43.162 Y29.471
G1 X43.354 Y29.171
G1 X43.518 Y28.862
G1 X43.653 Y28.55
G1 X43.76 Y28.237
G1 X43.839 Y27.924
G1 X43.892 Y27.612
G1 X43.919 Y27.301
G1 X43.921 Y26.994
G1 X43.899 Y26.69
G1 X43.853 Y26.392
G1 X43.783 Y26.099
G1 X43.69 Y25.813
G1 X43.575 Y25.536
G1 X43.437 Y25.269
G1 X43.278 Y25.013
G1 X43.098 Y24.769
G1 X42.898 Y24.539
G1 X42.679 Y24.324
G1 X42.441 Y24.126
G1 X42.186 Y23.947
G1 X41.915 Y23.787
G1 X41.63 Y23.648
G1 X41.331 Y23.531
G1 X41.022 Y23.438
G1 X40.704 Y23.37
G1 X40.379 Y23.327
G1 X40.049 Y23.31
G1 X39.717 Y23.32
G1 X39.384 Y23.356
G1 X39.053 Y23.42
G1 X38.727 Y23.51
G1 X38.407 Y23.627
G1 X38.095 Y23.77
G1 X37.794 Y23.939
G1 X37.507 Y24.132
G1 X37.235 Y24.348
G1 X36.98 Y24.587
G1 X36.744 Y24.846
G1 X36.529 Y25.125
G1 X36.336 Y25.42
G1 X36.167 Y25.731
G1 X36.023 Y26.056
G1 X35.906 Y26.392
G1 X35.816 Y26.737
G1 X35.753 Y27.088
G1 X35.719 Y27.444
G1 X35.714 Y27.802
G1 X35.737 Y28.16
G1 X35.789 Y28.515
G1 X35.869 Y28.866
G1 X35.978 Y29.209
G1 X36.114 Y29.542
G1 X36.276 Y29.864
G1 X36.463 Y30.172
G1 X36.675 Y30.464
G1 X36.91 Y30.738
G1 X37.166 Y30.992
G1 X37.441 Y31.226
G1 X37.735 Y31.436
G1 X38.045 Y31.622
G1 X38.368 Y31.783
G1 X38.704 Y31.918
G1 X39.049 Y32.025
G1 X39.402 Y32.104
G1 X39.76 Y32.154
G1 X40.121 Y32.175
G1 X40.483 Y32.168
G1 X40.843 Y32.131
G1 X41.199 Y32.066
G1 X41.548 Y31.972
G1 X41.889 Y31.851
G1 X42.223 Y31.701
G1 X42.554 Y31.519
G1 X42.88 Y31.303
G1 X43.198 Y31.055
G1 X43.502 Y30.775
G1 X43.787 Y30.468
G1 X44.047 Y30.136
G1 X44.28 Y29.785
G1 X44.483 Y29.418
G1 X44.655 Y29.039
G1 X44.794 Y28.651
G1 X44.901 Y28.257
G1 X44.975 Y27.859
G1 X45.017 Y27.46
G1 X45.026 Y27.062
G1 X45.004 Y26.666
G1 X44.95 Y26.276
G1 X44.865 Y25.892
G1 X44.75 Y25.517
G1 X44.605 Y25.153
G1 X44.431 Y24.801
G1 X44.23 Y24.464
G1 X44.001 Y24.144
G1 X43.746 Y23.841
G1 X43.467 Y23.559
G1 X43.164 Y23.298
G1 X42.84 Y23.062
G1 X42.496 Y22.851
G1 X42.133 Y22.667
G1 X41.755 Y22.512
G1 X41.363 Y22.387
G1 X40.961 Y22.293
G1 X40.549 Y22.232
G1 X40.131 Y22.204
G1 X39.711 Y22.209
G1 X39.289 Y22.248
G1 X38.87 Y22.321
G1 X38.457 Y22.429
G1 X38.051 Y22.57
G1 X37.656 Y22.743
G1 X37.275 Y22.949
G1 X36.91 Y23.185
G1 X36.564 Y23.452
G1 X36.239 Y23.746
G1 X35.938 Y24.066
G1 X35.662 Y24.41
G1 X35.415 Y24.776
G1 X35.197 Y25.162
G1 X35.011 Y25.565
G1 X34.857 Y25.983
G1 X34.737 Y26.412
G1 X34.651 Y26.851
G1 X34.601 Y27.295
G1 X34.587 Y27.743
G1 X34.609 Y28.191
G1 X34.667 Y28.636
G1 X34.76 Y29.075
G1 X34.889 Y29.506
G1 X35.052 Y29.926
G1 X35.248 Y30.332
G1 X35.476 Y30.72
G1 X35.735 Y31.09
G1 X36.022 Y31.437
G1 X36.337 Y31.761
G1 X36.677 Y32.058
G1 X37.039 Y32.327
G1 X37.423 Y32.566
G1 X37.824 Y32.774
G1 X38.241 Y32.949
G1 X38.67 Y33.09
G1 X39.11 Y33.196
G1 X39.556 Y33.266
G1 X40.007 Y33.3
G1 X40.46 Y33.298
G1 X40.91 Y33.26
G1 X41.357 Y33.186
G1 X41.799 Y33.075
G1 X42.235 Y32.928
G1 X42.664 Y32.743
G1 X43.082 Y32.522
G1 X43.489 Y32.263
G1 X43.882 Y31.966
G1 X44.254 Y31.635
G1 X44.602 Y31.271
G1 X44.921 Y30.879
G1 X45.208 Y30.462
G1 X45.46 Y30.023
G1 X45.675 Y29.568
G1 X45.852 Y29.098
G1 X45.991 Y28.619
G1 X46.09 Y28.133
G1 X46.149 Y27.643
G1 X46.168 Y27.152
G1 X46.149 Y26.663
G1 X46.09 Y26.179
G1 X45.993 Y25.703
G1 X45.858 Y25.237
G1 X45.686 Y24.783
G1 X45.479 Y24.345
G1 X45.236 Y23.924
G1 X44.96 Y23.523
G1 X44.652 Y23.145
G1 X44.314 Y22.791
G1 X43.947 Y22.464
G1 X43.553 Y22.167
G1 X43.135 Y21.901
G1 X42.694 Y21.669
G1 X42.234 Y21.471
G1 X41.758 Y21.311
G1 X41.268 Y21.188
G1 X40.767 Y21.105
G1 X40.259 Y21.062
G1 X39.747 Y21.06
G1 X39.234 Y21.1
G1 X38.723 Y21.18
G1 X38.219 Y21.302
G1 X37.724 Y21.465
G1 X37.242 Y21.668
G1 X36.776 Y21.909
G1 X36.329 Y22.188
G1 X35.905 Y22.503
G1 X35.507 Y22.852
G1 X35.136 Y23.233
G1 X34.797 Y23.644
G1 X34.491 Y24.081
G1 X34.22 Y24.543
G1 X33.987 Y25.026
G1 X33.793 Y25.527
G1 X33.64 Y26.042
G1 X33.528 Y26.57
G1 X33.459 Y27.105
G1 X33.433 Y27.644
G1 X33.45 Y28.185
G1 X33.511 Y28.723
G1 X33.615 Y29.255
G1 X33.761 Y29.777
G1 X33.949 Y30.286
G1 X34.178 Y30.778
G1 X34.445 Y31.251
G1 X34.749 Y31.702
G1 X35.089 Y32.126
G1 X35.462 Y32.522
G1 X35.866 Y32.887
G1 X36.297 Y33.219
G1 X36.755 Y33.515
G1 X37.234 Y33.773
G1 X37.733 Y33.992
G1 X38.248 Y34.17
G1 X38.775 Y34.307
G1 X39.312 Y34.4
G1 X39.855 Y34.451
G1 X40.4 Y34.457
G1 X40.945 Y34.42
G1 X41.487 Y34.339
G1 X42.025 Y34.213
G1 X42.555 Y34.044
G1 X43.075 Y33.83
G1 X43.583 Y33.572
G1 X44.075 Y33.271
G1 X44.545 Y32.927
G1 X44.991 Y32.543
G1 X45.407 Y32.122
G1 X45.79 Y31.667
G1 X46.135 Y31.182
G1 X46.44 Y30.671
G1 X46.703 Y30.137
G1 X46.922 Y29.586
G1 X47.095 Y29.02
G1 X47.222 Y28.445
G1 X47.302 Y27.863
G1 X47.335 Y27.278
G1 X47.321 Y26.695
G1 X47.261 Y26.116
G1 X47.154 Y25.544
G1 X47.002 Y24.984
G1 X46.806 Y24.439
G1 X46.566 Y23.91
G1 X46.285 Y23.402
G1 X45.963 Y22.918
G1 X45.603 Y22.46
G1 X45.206 Y22.032
G1 X44.775 Y21.635
G1 X44.311 Y21.274
G1 X43.819 Y20.949
G1 X43.3 Y20.664
G1 X42.758 Y20.421
G1 X42.196 Y20.221
G1 X41.618 Y20.067
G1 X41.027 Y19.958
G1 X40.426 Y19.898
G1 X39.82 Y19.885
G1 X39.213 Y19.922
G1 X38.61 Y20.007
G1 X38.015 Y20.141
G1 X37.432 Y20.321
G1 X36.866 Y20.547
G1 X36.319 Y20.818
G1 X35.796 Y21.13
G1 X35.299 Y21.483
G1 X34.831 Y21.874
G1 X34.395 Y22.3
G1 X33.993 Y22.759
G1 X33.629 Y23.248
G1 X33.304 Y23.763
G1 X33.02 Y24.303
G1 X32.779 Y24.863
G1 X32.582 Y25.44
G1 X32.431 Y26.031
G1 X32.326 Y26.632
G1 X32.268 Y27.238
G1 X32.256 Y27.848
G1 X32.292 Y28.457
G1 X32.374 Y29.061
G1 X32.502 Y29.657
G1 X32.676 Y30.241
G1 X32.894 Y30.811
G1 X33.155 Y31.362
G1 X33.458 Y31.891
G1 X33.8 Y32.396
G1 X34.179 Y32.873
G1 X34.594 Y33.32
G1 X35.042 Y33.733
G1 X35.521 Y34.111
G1 X36.027 Y34.452
G1 X36.557 Y34.753
G1 X37.109 Y35.012
G1 X37.679 Y35.228
G1 X38.264 Y35.4
G1 X38.86 Y35.526
G1 X39.465 Y35.606
G1 X40.074 Y35.639
G1 X40.683 Y35.625
G1 X41.29 Y35.565
G1 X41.89 Y35.459
G1 X42.481 Y35.308
G1 X43.059 Y35.114
G1 X43.621 Y34.877
G1 X44.163 Y34.599
G1 X44.685 Y34.283
G1 X45.182 Y33.93
G1 X45.653 Y33.543
G1 X46.094 Y33.121
G1 X46.503 Y32.669
G1 X46.878 Y32.189
G1 X47.219 Y31.683
G1 X47.523 Y31.155
G1 X47.789 Y30.606
G1 X48.017 Y30.04
G1 X48.203 Y29.46
G1 X48.348 Y28.868
G1 X48.449 Y28.267
G1 X48.506 Y27.659
G1 X48.519 Y27.05
G1 X48.488 Y26.441
G1 X48.413 Y25.836
G1 X48.296 Y25.238
G1 X48.135 Y24.649
G1 X47.933 Y24.074
G1 X47.69 Y23.515
G1 X47.408 Y22.975
G1 X47.086 Y22.457
G1 X46.726 Y21.964
G1 X46.332 Y21.499
G1 X45.906 Y21.063
G1 X45.449 Y20.659
G1 X44.965 Y20.288
G1 X44.456 Y19.953
G1 X43.925 Y19.654
G1 X43.374 Y19.393
G1 X42.805 Y19.173
G1 X42.222 Y18.995
G1 X41.628 Y18.858
G1 X41.025 Y18.764
G1 X40.418 Y18.712
G1 X39.808 Y18.701
G1 X39.199 Y18.732
G1 X38.594 Y18.806
G1 X37.996 Y18.922
G1 X37.407 Y19.08
G1 X36.83 Y19.279
G1 X36.269 Y19.517
G1 X35.725 Y19.792
G1 X35.2 Y20.103
G1 X34.698 Y20.448
G1 X34.22 Y20.827
G1 X33.771 Y21.239
G1 X33.351 Y21.681
G1 X32.961 Y22.15
G1 X32.604 Y22.645
G1 X32.281 Y23.161
G1 X31.993 Y23.699
G1 X31.741 Y24.254
G1 X31.529 Y24.826
G1 X31.357 Y25.411
G1 X31.224 Y26.006
G1 X31.132 Y26.608
G1 X31.08 Y27.216
G1 X31.068 Y27.826
G1 X31.096 Y28.435
G1 X31.164 Y29.04
G1 X31.275 Y29.64
G1 X31.426 Y30.231
G1 X31.616 Y30.81
G1 X31.844 Y31.376
G1 X32.109 Y31.925
G1 X32.409 Y32.456
G1 X32.743 Y32.966
G1 X33.111 Y33.452
G1 X33.512 Y33.911
G1 X33.942 Y34.343
G1 X34.4 Y34.745
G1 X34.884 Y35.117
G1 X35.391 Y35.456
G1 X35.919 Y35.761
G1 X36.466 Y36.03
G1 X37.03 Y36.261
G1 X37.609 Y36.453
G1 X38.199 Y36.606
G1 X38.798 Y36.719
G1 X39.403 Y36.793
G1 X40.012 Y36.826
G1 X40.622 Y36.82
G1 X41.23 Y36.773
G1 X41.833 Y36.685
G1 X42.429 Y36.556
G1 X43.015 Y36.389
G1 X43.59 Y36.184
G1 X44.15 Y35.943
G1 X44.693 Y35.667
G1 X45.219 Y35.358
G1 X45.724 Y35.016
G1 X46.205 Y34.642
G1 X46.661 Y34.237
G1 X47.09 Y33.804
G1 X47.491 Y33.345
G1 X47.863 Y32.862
G1 X48.205 Y32.357
G1 X48.515 Y31.832
G1 X48.793 Y31.289
G1 X49.035 Y30.729
G1 X49.241 Y30.155
G1 X49.41 Y29.57
G1 X49.543 Y28.975
G1 X49.637 Y28.372
G1 X49.694 Y27.765
G1 X49.713 Y27.156
G1 X49.694 Y26.546
G1 X49.636 Y25.939
G1 X49.538 Y25.338
G1 X49.402 Y24.743
G1 X49.23 Y24.158
G1 X49.022 Y23.585
G1 X48.778 Y23.026
G1 X48.5 Y22.484
G1 X48.188 Y21.96
G1 X47.842 Y21.458
G1 X47.464 Y20.98
G1 X47.056 Y20.526
G1 X46.621 Y20.099
G1 X46.16 Y19.7
G1 X45.676 Y19.33
G1 X45.17 Y18.99
G1 X44.644 Y18.681
G1 X44.099 Y18.408
G1 X43.537 Y18.17
G1 X42.962 Y17.968
G1 X42.375 Y17.802
G1 X41.779 Y17.673
G1 X41.177 Y17.58
G1 X40.57 Y17.523
G1 X39.96 Y17.503
G1 X39.351 Y17.521
G1 X38.744 Y17.577
G1 X38.141 Y17.671
G1 X37.546 Y17.802
G1 X36.959 Y17.969
G1 X36.384 Y18.171
G1 X35.822 Y18.406
G1 X35.274 Y18.674
G1 X34.743 Y18.975
G1 X34.232 Y19.307
G1 X33.743 Y19.671
G1 X33.277 Y20.064
G1 X32.835 Y20.484
G1 X32.419 Y20.93
G1 X32.03 Y21.399
G1 X31.669 Y21.891
G1 X31.337 Y22.402
G1 X31.037 Y22.933
G1 X30.77 Y23.481
G1 X30.537 Y24.044
G1 X30.338 Y24.621
G1 X30.174 Y25.208
G1 X30.045 Y25.804
G1 X29.951 Y26.406
G1 X29.891 Y27.013
G1 X29.867 Y27.622
G1 X29.88 Y28.232
G1 X29.93 Y28.84
G1 X30.017 Y29.443
G1 X30.139 Y30.041
G1 X30.296 Y30.63
G1 X30.488 Y31.209
G1 X30.712 Y31.776
G1 X30.968 Y32.329
G1 X31.257 Y32.866
G1 X31.577 Y33.385
G1 X31.929 Y33.883
G1 X32.309 Y34.359
G1 X32.717 Y34.813
G1 X33.15 Y35.241
G1 X33.608 Y35.644
G1 X34.088 Y36.02
G1 X34.589 Y36.368
G1 X35.109 Y36.685
G1 X35.649 Y36.97
G1 X36.204 Y37.222
G1 X36.773 Y37.441
G1 X37.354 Y37.625
G1 X37.945 Y37.776
G1 X38.544 Y37.892
G1 X39.148 Y37.973
G1 X39.756 Y38.019
G1 X40.365 Y38.028
G1 X40.975 Y38.
G1 X41.581 Y37.936
G1 X42.182 Y37.837
G1 X42.777 Y37.703
G1 X43.364 Y37.535
G1 X43.939 Y37.335
G1 X44.503 Y37.103
G1 X45.053 Y36.839
G1 X45.586 Y36.543
G1 X46.101 Y36.217
G1 X46.597 Y35.862
G1 X47.072 Y35.48
G1 X47.524 Y35.071
G1 X47.953 Y34.638
G1 X48.358 Y34.182
G1 X48.737 Y33.704
G1 X49.089 Y33.206
G1 X49.413 Y32.69
G1 X49.706 Y32.155
G1 X49.969 Y31.605
G1 X50.201 Y31.041
G1 X50.402 Y30.466
G1 X50.57 Y29.879
G1 X50.706 Y29.285
G1 X50.809 Y28.684
G1 X50.878 Y28.078
G1 X50.912 Y27.47
G1 Y26.86
G1 X50.876 Y26.251
G1 X50.807 Y25.645
G1 X50.703 Y25.045
G1 X50.567 Y24.45
G1 X50.398 Y23.864
G1 X50.197 Y23.289
G1 X49.964 Y22.725
G1 X49.699 Y22.176
G1 X49.403 Y21.643
G1 X49.077 Y21.128
G1 X48.722 Y20.632
G1 X48.339 Y20.158
G1 X47.931 Y19.705
G1 X47.499 Y19.275
G1 X47.043 Y18.869
G1 X46.566 Y18.489
G1 X46.069 Y18.137
G1 X45.552 Y17.814
G1 X45.017 Y17.52
G1 X44.467 Y17.257
G1 X43.904 Y17.025
G1 X43.328 Y16.824
G1 X42.742 Y16.655
G1 X42.148 Y16.518
G1 X41.547 Y16.414
G1 X40.942 Y16.343
G1 X40.333 Y16.306
G1 X39.723 Y16.302
G1 X39.114 Y16.332
G1 X38.508 Y16.396
G1 X37.906 Y16.493
G1 X37.31 Y16.622
G1 X36.722 Y16.782
G1 X36.143 Y16.974
G1 X35.576 Y17.197
G1 X35.021 Y17.45
G1 X34.481 Y17.734
G1 X33.958 Y18.046
G1 X33.452 Y18.387
G1 X32.965 Y18.754
G1 X32.498 Y19.146
G1 X32.053 Y19.563
G1 X31.631 Y20.003
G1 X31.232 Y20.464
G1 X30.859 Y20.947
G1 X30.513 Y21.448
G1 X30.194 Y21.968
G1 X29.904 Y22.504
G1 X29.643 Y23.055
G1 X29.412 Y23.619
G1 X29.21 Y24.195
G1 X29.04 Y24.78
G1 X28.9 Y25.374
G1 X28.792 Y25.974
G1 X28.716 Y26.579
G1 X28.673 Y27.187
G1 X28.663 Y27.797
G1 X28.685 Y28.406
G1 X28.739 Y29.013
G1 X28.825 Y29.617
