;FLAVOR:Marlin
;TIME:3150
;Filament used: 0.554049m
;Layer height: 0.1
;MINX:74.318
;MINY:85.682
;MINZ:0.3
;MAXX:125.364
;MAXY:115.865
;MAXZ:33
;Generated with Cura_SteamEngine 4.8.0
M140 S60
M105
M190 S60
M104 S210
M105
M109 S210
M82 ;absolute extrusion mode
G21 ;metric values
 G90 ;absolute positioning
 M82 ;set extruder to absolute mode
 M107 ;start with the fan off
 G28 X0 Y0 ;move X/Y to min endstops
 G28 Z0 ;move Z to min endstops
 G1 Z15.0 F120 ;move the platform down 15mm
 G92 E0 ;zero the extruded length
 G1 F200 E6 ;extrude 6 mm of feed stock
 G92 E0 ;zero the extruded length again
 G1 F120 
 ;Put printing message on LCD screen
 M117 Printing...
G92 E0
G92 E0
G1 F1500 E-6.5
;LAYER_COUNT:328
;LAYER:0
M107
G0 F3600 X78.354 Y87.188 Z0.3
;TYPE:SKIRT
G1 F1500 E0
G1 F1800 X78.832 Y86.78 E0.03135
G1 X79.258 Y86.493 E0.05698
G1 X79.727 Y86.234 E0.08371
G1 X80.253 Y86.03 E0.11186
G1 X80.644 Y85.898 E0.13244
G1 X81.228 Y85.758 E0.16241
G1 X81.72 Y85.698 E0.18713
G1 X82.243 Y85.682 E0.21324
G1 X82.807 Y85.713 E0.24142
G1 X83.441 Y85.79 E0.27328
G1 X119.933 Y90.959 E2.11205
G1 X120.55 Y91.055 E2.1432
G1 X120.969 Y91.146 E2.16459
G1 X121.497 Y91.294 E2.19195
G1 X122.08 Y91.508 E2.22293
G1 X122.759 Y91.867 E2.26125
G1 X123.361 Y92.31 E2.29854
G1 X123.869 Y92.795 E2.33358
G1 X124.243 Y93.228 E2.36213
G1 X124.573 Y93.719 E2.39164
G1 X124.911 Y94.391 E2.42917
G1 X125.146 Y95.064 E2.46473
G1 X125.304 Y95.758 E2.50024
G1 X125.34 Y96.046 E2.51472
G1 X125.364 Y96.655 E2.54513
G1 X125.33 Y97.287 E2.57671
G1 X125.255 Y97.896 E2.60732
G1 X123.924 Y107.31 E3.08166
G1 X123.578 Y110.024 E3.21816
G1 X123.531 Y110.499 E3.24197
G1 X123.289 Y112.543 E3.34466
G1 X123.182 Y113.087 E3.37232
G1 X123.136 Y113.252 E3.38086
G1 X122.954 Y113.756 E3.4076
G1 X122.699 Y114.228 E3.43436
G1 X122.376 Y114.657 E3.46115
G1 X121.994 Y115.033 E3.48789
G1 X121.56 Y115.348 E3.51465
G1 X121.084 Y115.595 E3.5414
G1 X120.577 Y115.768 E3.56813
G1 X120.049 Y115.865 E3.59491
G1 X119.272 Y115.863 E3.63368
G1 X118.946 Y115.826 E3.65005
G1 X117.337 Y115.602 E3.73109
G1 X117.24 Y115.581 E3.73604
G1 X116.067 Y115.422 E3.7951
G1 X114.685 Y115.224 E3.86475
G1 X113.947 Y115.107 E3.90203
G1 X113.499 Y115.006 E3.92494
G1 X110.775 Y114.208 E4.06656
G1 X108.179 Y113.528 E4.20044
G1 X105.456 Y112.895 E4.33991
G1 X102.827 Y112.365 E4.47371
G1 X100.136 Y111.899 E4.60997
G1 X97.433 Y111.508 E4.74622
G1 X94.727 Y111.196 E4.88212
G1 X92.034 Y110.962 E5.01698
G1 X89.277 Y110.802 E5.15476
G1 X86.591 Y110.721 E5.28883
G1 X84.043 Y110.731 E5.41595
G1 X83.071 Y110.727 E5.46444
G1 X82.659 Y110.702 E5.48503
G1 X81.859 Y110.605 E5.52524
G1 X79.49 Y110.257 E5.6447
G1 X77.948 Y110.026 E5.72249
G1 X77.327 Y109.924 E5.75388
G1 X76.805 Y109.798 E5.78067
G1 X76.309 Y109.596 E5.80739
G1 X75.847 Y109.322 E5.83419
G1 X75.432 Y108.983 E5.86092
G1 X75.071 Y108.586 E5.8877
G1 X74.774 Y108.14 E5.91443
G1 X74.546 Y107.655 E5.94117
G1 X74.393 Y107.141 E5.96792
G1 X74.318 Y106.61 E5.99468
G1 X74.337 Y105.93 E6.02861
G1 X74.412 Y105.324 E6.05908
G1 X74.489 Y104.829 E6.08407
G1 X74.935 Y102.256 E6.21435
G1 X75.175 Y100.653 E6.29522
G1 X76.527 Y91.103 E6.77642
G1 X76.621 Y90.5 E6.80687
G1 X76.712 Y90.083 E6.82816
G1 X76.865 Y89.537 E6.85645
G1 X77.072 Y88.969 E6.88661
G1 X77.424 Y88.302 E6.92424
G1 X77.852 Y87.717 E6.9604
G1 X78.354 Y87.188 E6.99678
G0 F3600 X78.64 Y87.468
G1 F1800 X79.064 Y87.105 E7.02463
G1 X79.477 Y86.828 E7.04944
G1 X80.13 Y86.5 E7.0859
G1 X80.769 Y86.278 E7.11965
G1 X81.288 Y86.153 E7.14628
G1 X82.226 Y86.082 E7.19321
G1 X82.767 Y86.111 E7.22024
G1 X83.389 Y86.186 E7.2515
G1 X119.872 Y91.354 E9.08981
G1 X120.489 Y91.45 E9.12097
G1 X120.861 Y91.531 E9.13996
G1 X121.389 Y91.679 E9.16732
G1 X121.927 Y91.877 E9.19592
G1 X122.556 Y92.212 E9.23147
G1 X123.091 Y92.606 E9.26462
G1 X123.588 Y93.08 E9.29888
G1 X123.92 Y93.465 E9.32425
G1 X124.237 Y93.935 E9.35253
G1 X124.537 Y94.532 E9.38586
G1 X124.767 Y95.191 E9.42069
G1 X124.907 Y95.808 E9.45225
G1 X124.943 Y96.096 E9.46673
G1 X124.965 Y96.637 E9.49374
G1 X124.932 Y97.246 E9.52417
G1 X124.859 Y97.844 E9.55423
G1 X123.527 Y107.254 E10.02838
G1 X123.182 Y109.971 E10.16502
G1 X123.134 Y110.452 E10.18913
G1 X122.892 Y112.496 E10.29182
G1 X122.75 Y113.144 E10.32492
G1 X122.577 Y113.619 E10.35014
G1 X122.33 Y114.061 E10.3754
G1 X122.017 Y114.458 E10.40062
G1 X121.646 Y114.801 E10.42583
G1 X121.225 Y115.081 E10.45105
G1 X120.765 Y115.291 E10.47628
G1 X120.278 Y115.426 E10.50149
G1 X119.776 Y115.483 E10.5267
G1 X119.09 Y115.441 E10.56099
G1 X117.392 Y115.205 E10.64651
G1 X117.314 Y115.188 E10.6505
G1 X116.124 Y115.027 E10.71041
G1 X114.748 Y114.829 E10.77976
G1 X114.01 Y114.712 E10.81704
G1 X113.611 Y114.622 E10.83745
G1 X110.875 Y113.82 E10.97969
G1 X108.274 Y113.139 E11.11383
G1 X105.554 Y112.506 E11.25316
G1 X102.897 Y111.971 E11.38838
G1 X100.196 Y111.503 E11.52514
G1 X97.499 Y111.113 E11.66109
G1 X94.772 Y110.799 E11.79804
G1 X92.058 Y110.563 E11.93395
G1 X89.312 Y110.404 E12.07118
G1 X86.572 Y110.321 E12.20794
G1 X84.045 Y110.331 E12.33402
G1 X83.073 Y110.327 E12.38251
G1 X82.707 Y110.304 E12.40081
G1 X81.917 Y110.209 E12.4405
G1 X79.549 Y109.861 E12.55991
G1 X78.012 Y109.632 E12.63744
G1 X77.391 Y109.53 E12.66884
G1 X76.9 Y109.409 E12.69407
G1 X76.435 Y109.212 E12.71926
G1 X76.006 Y108.944 E12.7445
G1 X75.625 Y108.612 E12.76971
G1 X75.3 Y108.224 E12.79496
G1 X75.041 Y107.79 E12.82018
G1 X74.854 Y107.32 E12.84541
G1 X74.743 Y106.827 E12.87062
G1 X74.71 Y106.323 E12.89582
G1 X74.734 Y105.979 E12.91303
G1 X74.809 Y105.373 E12.94349
G1 X74.891 Y104.85 E12.9699
G1 X75.325 Y102.346 E13.09669
G1 X75.571 Y100.712 E13.17913
G1 X76.922 Y91.164 E13.66022
G1 X77.016 Y90.561 E13.69067
G1 X77.097 Y90.191 E13.70957
G1 X77.25 Y89.645 E13.73786
G1 X77.442 Y89.122 E13.76565
G1 X77.769 Y88.505 E13.80049
G1 X78.15 Y87.984 E13.83269
G1 X78.64 Y87.468 E13.86819
G1 F1500 E7.36819
G0 F3600 X77.539 Y104.91
G0 X78.183 Y105.75
;TYPE:SUPPORT
G1 F1500 E13.86819
G1 F1800 X82.967 Y106.428 E14.10925
G1 X82.895 Y106.912 E14.13367
G1 X82.474 Y106.855 E14.15486
G1 X80.05 Y106.498 E14.2771
G1 X78.116 Y106.21 E14.37465
G1 X78.183 Y105.75 E14.39784
G0 F3600 X80.01 Y106.171
G1 F1800 X80.01 Y106.33 E14.40578
G0 F3600 X82.382 Y106.68
G1 F1800 X82.767 Y106.68 E14.42498
G0 F3600 X82.677 Y106.72
G1 F1800 X82.677 Y106.549 E14.43351
G0 F3600 X114.802 Y110.936
G1 F1800 X119.59 Y111.614 E14.67477
G1 X119.527 Y112.073 E14.69789
G1 X119.118 Y112.016 E14.71849
G1 X118.417 Y111.898 E14.75395
G1 X117.038 Y111.723 E14.8233
G1 X114.739 Y111.392 E14.93918
G1 X114.802 Y110.936 E14.96215
G0 F3600 X117.348 Y111.459
G1 F1800 X117.348 Y111.601 E14.96923
G1 F1500 E8.46923
;MESH:acheng31_sensor_holder.STL
G0 F3600 X117.604 Y109.799
G0 X108.797 Y97.613
G0 X108.277 Y96.256
G0 X108.376 Y96.257
;TYPE:WALL-INNER
G1 F1500 E14.96923
G1 F1800 X108.488 Y96.963 E15.0049
G1 X108.828 Y97.589 E15.04044
G1 X109.342 Y98.054 E15.07502
G1 X109.743 Y98.251 E15.09731
G1 X110.369 Y98.392 E15.12932
G1 X111.076 Y98.311 E15.16482
G1 X111.716 Y97.999 E15.20035
G1 X112.217 Y97.491 E15.23594
G1 X112.52 Y96.844 E15.27159
G1 X112.588 Y96.135 E15.30712
G1 X112.418 Y95.444 E15.34262
G1 X112.027 Y94.848 E15.37818
G1 X111.46 Y94.416 E15.41375
G1 X111.389 Y94.393 E15.41747
G1 X110.781 Y94.198 E15.44933
G1 X110.143 Y94.216 E15.48117
G1 X110.069 Y94.219 E15.48486
G1 X109.404 Y94.477 E15.52045
G1 X108.863 Y94.939 E15.55594
G1 X108.507 Y95.558 E15.59157
G1 X108.376 Y96.257 E15.62705
G0 F3600 X108.277 Y96.256
G0 X91.877 Y91.327
G0 X91.892 Y91.228
G1 F1800 X92.091 Y91.256 E15.63707
G1 X110.19 Y93.82 E16.54905
G1 X110.821 Y93.909 E16.57653
G1 X111.453 Y93.998 E16.60404
G1 X119.932 Y95.2 E17.03129
G1 X120.384 Y95.336 E17.05484
G1 X120.574 Y95.443 E17.06572
G1 X120.885 Y95.74 E17.08718
G1 X121.01 Y95.926 E17.09836
G1 X121.155 Y96.341 E17.12029
G1 X121.166 Y96.817 E17.14404
G1 X119.32 Y109.859 E17.8012
G1 X119.292 Y110.057 E17.81117
G1 X119.094 Y110.029 E17.81761
G1 X78.894 Y104.336 E19.84321
G1 X80.766 Y91.117 E20.50929
G1 X80.902 Y90.664 E20.53289
G1 X81.008 Y90.476 E20.54365
G1 X81.311 Y90.16 E20.5655
G1 X81.49 Y90.04 E20.57625
G1 X81.906 Y89.895 E20.59823
G1 X82.383 Y89.882 E20.62203
G1 X90.879 Y91.085 E21.05013
G1 X91.489 Y91.171 E21.08086
G1 X91.892 Y91.228 E21.10117
G0 F3600 X91.877 Y91.327
G0 X92.974 Y92.372
G0 X93.316 Y93.762
G0 X92.709 Y95.059
G0 X91.556 Y95.646
G0 X90.683 Y95.705
G0 X90.705 Y95.608
G1 F1800 X91.419 Y95.647 E21.13684
G1 X92.102 Y95.447 E21.17235
G1 X92.681 Y95.031 E21.20792
G1 X93.087 Y94.446 E21.24344
G1 X93.277 Y93.759 E21.27901
G1 X93.226 Y93.048 E21.31457
G1 X92.941 Y92.393 E21.35021
G1 X92.454 Y91.873 E21.38575
G1 X92.024 Y91.649 E21.40994
G1 X91.846 Y91.556 E21.4191
G1 X91.448 Y91.464 E21.43522
G1 X90.831 Y91.481 E21.46199
G1 X90.761 Y91.484 E21.46549
G1 X90.097 Y91.742 E21.50103
G1 X89.556 Y92.205 E21.53655
G1 X89.199 Y92.823 E21.57216
G1 X89.069 Y93.524 E21.60773
G1 X89.181 Y94.227 E21.64324
G1 X89.519 Y94.854 E21.67878
G1 X90.048 Y95.331 E21.71432
G1 X90.705 Y95.608 E21.74989
G0 F3600 X90.796 Y95.212
;TYPE:WALL-OUTER
G1 F1800 X91.372 Y95.244 E21.77867
G1 X91.924 Y95.082 E21.80737
G1 X92.392 Y94.746 E21.83612
G1 X92.72 Y94.274 E21.86479
G1 X92.873 Y93.719 E21.89351
G1 X92.832 Y93.145 E21.92222
G1 X92.602 Y92.616 E21.951
G1 X92.209 Y92.196 E21.9797
G1 X91.706 Y91.934 E22.00799
G1 X91.408 Y91.865 E22.02325
G1 X90.842 Y91.882 E22.0515
G1 X90.305 Y92.09 E22.08023
G1 X89.868 Y92.464 E22.10893
G1 X89.58 Y92.963 E22.13768
G1 X89.475 Y93.529 E22.16639
G1 X89.565 Y94.097 E22.19509
G1 X89.838 Y94.603 E22.22377
G1 X90.266 Y94.989 E22.25252
G1 X90.796 Y95.212 E22.28121
G0 F3600 X90.996 Y95.223
G0 X90.969 Y95.721
G0 X108.852 Y94.818
G0 X109.175 Y95.198
G1 F1800 X108.888 Y95.698 E22.30997
G1 X108.782 Y96.263 E22.33865
G1 X108.872 Y96.832 E22.36739
G1 X109.147 Y97.338 E22.39613
G1 X109.569 Y97.72 E22.42452
G1 X109.877 Y97.871 E22.44164
G1 X110.391 Y97.987 E22.46793
G1 X110.962 Y97.921 E22.4966
G1 X111.479 Y97.669 E22.5253
G1 X111.884 Y97.259 E22.55405
G1 X112.128 Y96.737 E22.5828
G1 X112.183 Y96.164 E22.61151
G1 X112.046 Y95.606 E22.64018
G1 X111.73 Y95.125 E22.66889
G1 X111.272 Y94.776 E22.69762
G1 X110.724 Y94.6 E22.72634
G1 X110.149 Y94.617 E22.75504
G1 X109.612 Y94.825 E22.78377
G1 X109.175 Y95.198 E22.81243
G0 F3600 X109.076 Y95.371
G0 X108.644 Y95.122
G0 X108.337 Y96.257
G0 X108.73 Y97.491
G0 X119.232 Y109.978
G0 X119.66 Y110.311
G1 F1800 X119.632 Y110.509 E22.82241
G1 X119.434 Y110.481 E22.82885
G1 X78.442 Y104.676 E24.89435
G1 X80.374 Y91.031 E25.58189
G1 X80.532 Y90.506 E25.60925
G1 X80.684 Y90.237 E25.62466
G1 X81.053 Y89.851 E25.6513
G1 X81.311 Y89.678 E25.6668
G1 X81.813 Y89.503 E25.69332
G1 X82.132 Y89.466 E25.70935
G1 X82.425 Y89.484 E25.72399
G1 X120.018 Y94.808 E27.61823
G1 X120.543 Y94.966 E27.64558
G1 X120.812 Y95.117 E27.66097
G1 X121.195 Y95.483 E27.6874
G1 X121.371 Y95.747 E27.70323
G1 X121.546 Y96.247 E27.72966
G1 X121.583 Y96.565 E27.74563
G1 X121.564 Y96.859 E27.76033
G1 X119.66 Y110.311 E28.43814
G0 F3600 X119.632 Y110.509
G0 X119.232 Y109.978
G0 X118.961 Y109.616
;TYPE:SKIN
G1 F1800 X79.335 Y104.005 E30.43481
G1 X81.147 Y91.206 E31.07972
G1 X81.325 Y90.707 E31.10616
G1 X81.666 Y90.391 E31.12935
G1 X81.976 Y90.283 E31.14573
G1 X82.362 Y90.272 E31.16499
G1 X90.013 Y91.357 E31.55052
G1 X89.894 Y91.403 E31.55689
G1 X89.252 Y91.952 E31.59903
G1 X88.828 Y92.686 E31.64132
G1 X88.673 Y93.519 E31.68359
G1 X88.806 Y94.354 E31.72578
G1 X89.207 Y95.098 E31.76794
G1 X89.836 Y95.665 E31.81019
G1 X90.616 Y95.994 E31.85243
G1 X91.464 Y96.041 E31.8948
G1 X92.276 Y95.802 E31.93703
G1 X92.963 Y95.308 E31.97924
G1 X93.446 Y94.614 E32.02143
G1 X93.671 Y93.798 E32.06366
G1 X93.61 Y92.954 E32.10587
G1 X93.272 Y92.176 E32.14819
G1 X92.887 Y91.763 E32.17636
G1 X109.322 Y94.091 E33.00449
G1 X109.201 Y94.138 E33.01097
G1 X108.559 Y94.686 E33.05308
G1 X108.136 Y95.421 E33.09539
G1 X107.98 Y96.251 E33.13752
G1 X108.113 Y97.09 E33.1799
G1 X108.518 Y97.833 E33.22212
G1 X109.121 Y98.38 E33.26274
G1 X109.612 Y98.621 E33.29003
G1 X110.348 Y98.787 E33.32767
G1 X111.187 Y98.691 E33.3698
G1 X111.946 Y98.321 E33.41192
G1 X112.542 Y97.717 E33.45426
G1 X112.902 Y96.949 E33.49657
G1 X112.982 Y96.106 E33.53882
G1 X112.781 Y95.286 E33.58094
G1 X112.316 Y94.579 E33.62316
G1 X112.213 Y94.5 E33.62964
G1 X119.843 Y95.581 E34.0141
G1 X120.339 Y95.758 E34.04037
G1 X120.659 Y96.104 E34.06389
G1 X120.767 Y96.411 E34.08012
G1 X120.776 Y96.796 E34.09934
G1 X118.961 Y109.616 E34.74531
G0 F3600 X119.467 Y95.709
G1 F1800 X120.589 Y96.831 E34.82447
G0 F3600 X120.519 Y97.326
G1 F1800 X118.808 Y95.615 E34.94519
G0 F3600 X118.149 Y95.522
G1 F1800 X120.449 Y97.821 E35.10743
G0 F3600 X120.379 Y98.317
G1 F1800 X117.49 Y95.429 E35.31123
G0 F3600 X116.831 Y95.335
G1 F1800 X120.309 Y98.813 E35.55662
G0 F3600 X120.238 Y99.308
G1 F1800 X116.172 Y95.242 E35.8435
G0 F3600 X115.513 Y95.148
G1 F1800 X120.168 Y99.803 E36.17194
G0 F3600 X120.098 Y100.299
G1 F1800 X114.854 Y95.055 E36.54193
G0 F3600 X114.195 Y94.962
G1 F1800 X120.028 Y100.795 E36.95348
G0 F3600 X119.957 Y101.29
G1 F1800 X113.536 Y94.868 E37.40655
G0 F3600 X112.877 Y94.775
G1 F1800 X119.887 Y101.785 E37.90114
G0 F3600 X119.817 Y102.281
G1 F1800 X113.011 Y95.475 E38.38134
G0 F3600 X113.154 Y96.183
G1 F1800 X119.747 Y102.777 E38.84655
G0 F3600 X119.677 Y103.272
G1 F1800 X113.105 Y96.7 E39.31024
G0 F3600 X113 Y97.161
G1 F1800 X119.607 Y103.767 E39.77637
G0 F3600 X119.537 Y104.263
G1 F1800 X112.82 Y97.546 E40.25029
G0 F3600 X112.61 Y97.902
G1 F1800 X119.467 Y104.759 E40.73408
G0 F3600 X119.396 Y105.254
G1 F1800 X112.329 Y98.187 E41.2327
G0 F3600 X112.048 Y98.471
G1 F1800 X119.326 Y105.749 E41.7462
G0 F3600 X119.256 Y106.245
G1 F1800 X111.667 Y98.656 E42.28165
G0 F3600 X111.286 Y98.841
G1 F1800 X119.186 Y106.741 E42.83903
G0 F3600 X119.115 Y107.236
G1 F1800 X110.796 Y98.917 E43.42598
G0 F3600 X110.267 Y98.953
G1 F1800 X119.045 Y107.731 E44.04532
G0 F3600 X118.975 Y108.227
G1 F1800 X109.528 Y98.78 E44.71186
G1 X109.458 Y98.71
G0 F3600 X107.992 Y97.244
G1 F1800 X104.311 Y93.563 E44.97157
G0 F3600 X103.652 Y93.47
G1 F1800 X118.905 Y108.723 E46.04775
G0 F3600 X118.834 Y109.218
G1 F1800 X102.993 Y93.376 E47.16546
G0 F3600 X102.334 Y93.283
G1 F1800 X118.406 Y109.355 E48.29942
G0 F3600 X117.747 Y109.262
G1 F1800 X101.675 Y93.19 E49.43339
G0 F3600 X101.016 Y93.096
G1 F1800 X117.088 Y109.168 E50.56736
G0 F3600 X116.429 Y109.075
G1 F1800 X100.357 Y93.003 E51.70132
G0 F3600 X99.697 Y92.909
G1 F1800 X115.77 Y108.982 E52.83536
G0 F3600 X115.111 Y108.888
G1 F1800 X99.038 Y92.816 E53.96936
G0 F3600 X98.379 Y92.722
G1 F1800 X114.452 Y108.795 E55.1034
G0 F3600 X113.793 Y108.702
G1 F1800 X97.72 Y92.629 E56.23743
G0 F3600 X97.061 Y92.536
G1 F1800 X113.134 Y108.608 E57.37144
G0 F3600 X112.475 Y108.515
G1 F1800 X96.402 Y92.442 E58.50547
G0 F3600 X95.743 Y92.349
G1 F1800 X111.816 Y108.422 E59.63951
G0 F3600 X111.157 Y108.328
G1 F1800 X95.084 Y92.256 E60.77351
G0 F3600 X94.425 Y92.162
G1 F1800 X110.498 Y108.235 E61.90755
G0 F3600 X109.839 Y108.142
G1 F1800 X93.765 Y92.068 E63.04166
G0 F3600 X93.591 Y92.459
G1 F1800 X109.18 Y108.048 E64.14154
G0 F3600 X108.521 Y107.955
G1 F1800 X93.81 Y93.244 E65.17948
G0 F3600 X93.844 Y93.844
G1 F1800 X107.862 Y107.862 E66.16853
G0 F3600 X107.203 Y107.768
G1 F1800 X93.722 Y94.288 E67.11965
G0 F3600 X93.59 Y94.721
G1 F1800 X106.544 Y107.675 E68.03363
G0 F3600 X105.884 Y107.582
G1 F1800 X93.357 Y95.054 E68.91751
G0 F3600 X93.125 Y95.388
G1 F1800 X105.226 Y107.489 E69.7713
G0 F3600 X104.567 Y107.396
G1 F1800 X92.81 Y95.639 E70.60082
G0 F3600 X92.481 Y95.875
G1 F1800 X103.908 Y107.302 E71.40706
G0 F3600 X103.249 Y107.209
G1 F1800 X92.085 Y96.045 E72.19474
G0 F3600 X91.648 Y96.174
G1 F1800 X102.59 Y107.116 E72.96675
G0 F3600 X101.931 Y107.022
G1 F1800 X91.11 Y96.201 E73.73023
G0 F3600 X90.471 Y96.128
G1 F1800 X101.272 Y106.929 E74.4923
G0 F3600 X100.613 Y106.836
G1 F1800 X84.538 Y90.761 E75.62648
G0 F3600 X83.879 Y90.668
G1 F1800 X99.954 Y106.742 E76.76062
G0 F3600 X99.295 Y106.649
G1 F1800 X83.22 Y90.574 E77.8948
G0 F3600 X82.561 Y90.48
G1 F1800 X98.636 Y106.556 E79.02902
