;FLAVOR:Marlin
;TIME:2056
;Filament used: 0.543276m
;Layer height: 0.1
;MINX:80.285
;MINY:84.344
;MINZ:0.3
;MAXX:119.716
;MAXY:113.983
;MAXZ:15
;Generated with Cura_SteamEngine 4.8.0
M140 S60
M105
M190 S60
M104 S210
M105
M109 S210
M82 ;absolute extrusion mode
G21 ;metric values
 G90 ;absolute positioning
 M82 ;set extruder to absolute mode
 M107 ;start with the fan off
 G28 X0 Y0 ;move X/Y to min endstops
 G28 Z0 ;move Z to min endstops
 G1 Z15.0 F120 ;move the platform down 15mm
 G92 E0 ;zero the extruded length
 G1 F200 E6 ;extrude 6 mm of feed stock
 G92 E0 ;zero the extruded length again
 G1 F120 
 ;Put printing message on LCD screen
 M117 Printing...
G92 E0
G92 E0
G1 F1500 E-6.5
;LAYER_COUNT:148
;LAYER:0
M107
G0 F3600 X81.691 Y85.316 Z0.3
;TYPE:SKIRT
G1 F1500 E0
G1 F1800 X82.145 Y84.979 E0.02821
G1 X82.642 Y84.71 E0.0564
G1 X83.172 Y84.513 E0.08461
G1 X83.725 Y84.394 E0.11283
G1 X84.503 Y84.346 E0.15172
G1 X84.615 Y84.344 E0.15731
G1 X89.066 Y84.344 E0.37937
G1 X89.783 Y84.355 E0.41515
G1 X90.461 Y84.409 E0.44908
G1 X93.219 Y84.642 E0.58717
G1 X95.962 Y84.796 E0.72423
G1 X98.633 Y84.871 E0.85754
G1 X101.376 Y84.871 E0.99439
G1 X104.048 Y84.794 E1.12775
G1 X106.789 Y84.638 E1.26472
G1 X108.522 Y84.478 E1.35155
G1 X108.726 Y84.474 E1.36173
G1 X109.952 Y84.368 E1.42312
G1 X110.501 Y84.346 E1.45053
G1 X110.614 Y84.344 E1.45617
G1 X115.061 Y84.344 E1.67803
G1 X115.759 Y84.353 E1.71286
G1 X116.322 Y84.401 E1.74105
G1 X116.873 Y84.527 E1.76925
G1 X117.401 Y84.729 E1.79745
G1 X117.895 Y85.004 E1.82566
G1 X118.345 Y85.346 E1.85386
G1 X118.743 Y85.748 E1.88208
G1 X119.079 Y86.202 E1.91026
G1 X119.349 Y86.699 E1.93848
G1 X119.546 Y87.229 E1.96669
G1 X119.666 Y87.781 E1.99487
G1 X119.714 Y88.562 E2.03391
G1 X119.716 Y88.674 E2.0395
G1 X119.716 Y91.985 E2.20468
G1 X119.706 Y92.707 E2.24071
G1 X119.658 Y93.271 E2.26895
G1 X119.531 Y93.822 E2.29716
G1 X119.328 Y94.349 E2.32533
G1 X119.054 Y94.841 E2.35343
G1 X118.584 Y95.56 E2.39628
G1 X117.133 Y97.846 E2.53137
G1 X115.731 Y100.2 E2.66806
G1 X114.42 Y102.547 E2.80218
G1 X113.132 Y105.016 E2.94111
G1 X112.472 Y106.339 E3.01488
G1 X112.35 Y106.565 E3.02769
G1 X111.939 Y107.271 E3.06845
G1 X111.659 Y107.723 E3.09497
G1 X111.456 Y108.019 E3.11288
G1 X110.967 Y108.666 E3.15334
G1 X110.636 Y109.08 E3.17978
G1 X110.398 Y109.35 E3.19774
G1 X109.847 Y109.921 E3.23733
G1 X109.47 Y110.29 E3.26365
G1 X109.206 Y110.525 E3.28128
G1 X108.574 Y111.039 E3.32192
G1 X108.154 Y111.361 E3.34833
G1 X107.868 Y111.559 E3.36568
G1 X107.198 Y111.982 E3.40521
G1 X106.73 Y112.259 E3.43234
G1 X106.413 Y112.426 E3.45022
G1 X105.565 Y112.824 E3.49695
G1 X104.857 Y113.113 E3.53511
G1 X104.108 Y113.36 E3.57445
G1 X103.584 Y113.517 E3.60174
G1 X103.238 Y113.603 E3.61953
G1 X102.485 Y113.755 E3.65786
G1 X101.943 Y113.849 E3.6853
G1 X101.587 Y113.893 E3.7032
G1 X100.795 Y113.955 E3.74283
G1 X100.253 Y113.982 E3.7699
G1 X99.89 Y113.983 E3.78801
G1 X98.981 Y113.942 E3.83341
G1 X98.225 Y113.87 E3.8713
G1 X97.429 Y113.739 E3.91154
G1 X96.895 Y113.636 E3.93868
G1 X96.544 Y113.55 E3.95671
G1 X95.705 Y113.303 E4.00034
G1 X94.942 Y113.036 E4.04067
G1 X94.106 Y112.676 E4.08608
G1 X93.405 Y112.332 E4.12504
G1 X92.733 Y111.942 E4.1638
G1 X92.277 Y111.659 E4.19058
G1 X91.981 Y111.456 E4.20848
G1 X91.334 Y110.967 E4.24894
G1 X90.915 Y110.632 E4.27571
G1 X90.649 Y110.397 E4.29342
G1 X90.08 Y109.848 E4.33286
G1 X89.71 Y109.47 E4.35925
G1 X89.475 Y109.206 E4.37689
G1 X88.96 Y108.573 E4.4176
G1 X88.638 Y108.153 E4.444
G1 X88.439 Y107.866 E4.46142
G1 X88.017 Y107.197 E4.50089
G1 X87.699 Y106.657 E4.53215
G1 X87.403 Y106.093 E4.56393
G1 X86.794 Y104.847 E4.63312
G1 X85.53 Y102.435 E4.76898
G1 X84.198 Y100.062 E4.90474
G1 X82.814 Y97.749 E5.03922
G1 X81.669 Y95.979 E5.14439
G1 X80.918 Y94.795 E5.21434
G1 X80.65 Y94.297 E5.24256
G1 X80.413 Y93.614 E5.27862
G1 X80.315 Y93.057 E5.30684
G1 X80.287 Y92.439 E5.3377
G1 X80.285 Y92.326 E5.34334
G1 X80.285 Y88.964 E5.51107
G1 X80.294 Y88.299 E5.54425
G1 X80.342 Y87.736 E5.57244
G1 X80.468 Y87.185 E5.60064
G1 X80.671 Y86.657 E5.62886
G1 X80.947 Y86.163 E5.6571
G1 X81.289 Y85.713 E5.68529
G1 X81.691 Y85.316 E5.71348
G0 F3600 X82.079 Y85.515
G1 F1800 X82.526 Y85.217 E5.74028
G1 X83.011 Y84.989 E5.76702
G1 X83.525 Y84.836 E5.79378
G1 X84.193 Y84.754 E5.82735
G1 X84.615 Y84.744 E5.84841
G1 X89.06 Y84.744 E6.07018
G1 X89.777 Y84.755 E6.10595
G1 X90.445 Y84.81 E6.13939
G1 X93.198 Y85.042 E6.27722
G1 X95.892 Y85.194 E6.41184
G1 X98.658 Y85.271 E6.54989
G1 X101.353 Y85.271 E6.68435
G1 X104.117 Y85.192 E6.8223
G1 X106.792 Y85.039 E6.95597
G1 X108.559 Y84.876 E7.0445
G1 X108.746 Y84.873 E7.05383
G1 X109.986 Y84.766 E7.11593
G1 X110.512 Y84.745 E7.14219
G1 X115.055 Y84.744 E7.36884
G1 X115.753 Y84.753 E7.40367
G1 X116.288 Y84.8 E7.43046
G1 X116.809 Y84.926 E7.45721
G1 X117.306 Y85.128 E7.48397
G1 X117.767 Y85.401 E7.5107
G1 X118.183 Y85.74 E7.53747
G1 X118.544 Y86.136 E7.56421
G1 X118.842 Y86.582 E7.59097
G1 X119.07 Y87.068 E7.61775
G1 X119.223 Y87.582 E7.64451
G1 X119.306 Y88.252 E7.67819
G1 X119.316 Y88.674 E7.69925
G1 X119.316 Y91.98 E7.86418
G1 X119.306 Y92.702 E7.90021
G1 X119.258 Y93.236 E7.92696
G1 X119.132 Y93.757 E7.9537
G1 X118.93 Y94.254 E7.98046
G1 X118.719 Y94.622 E8.00163
G1 X118.249 Y95.341 E8.04448
G1 X116.794 Y97.632 E8.17988
G1 X115.396 Y99.979 E8.31617
G1 X114.059 Y102.373 E8.45298
G1 X112.777 Y104.831 E8.59128
G1 X112.114 Y106.16 E8.66538
G1 X112.004 Y106.364 E8.67694
G1 X111.537 Y107.164 E8.72316
G1 X111.137 Y107.778 E8.75972
G1 X110.648 Y108.425 E8.80018
G1 X110.324 Y108.829 E8.82602
G1 X110.111 Y109.072 E8.84214
G1 X109.56 Y109.643 E8.88172
G1 X109.191 Y110.003 E8.90744
G1 X108.953 Y110.215 E8.92335
G1 X108.229 Y110.802 E8.96985
G1 X107.655 Y111.221 E9.0053
G1 X106.985 Y111.644 E9.04483
G1 X106.528 Y111.914 E9.07131
G1 X106.243 Y112.064 E9.08738
G1 X105.406 Y112.457 E9.13351
G1 X104.731 Y112.733 E9.1699
G1 X103.982 Y112.98 E9.20924
G1 X103.471 Y113.133 E9.23586
G1 X103.159 Y113.211 E9.2519
G1 X102.406 Y113.363 E9.29022
G1 X101.876 Y113.454 E9.31705
G1 X101.556 Y113.494 E9.33314
G1 X100.654 Y113.563 E9.37828
G1 X99.907 Y113.584 E9.41556
G1 X99.122 Y113.55 E9.45476
G1 X98.608 Y113.513 E9.48047
G1 X98.29 Y113.475 E9.49645
G1 X97.494 Y113.344 E9.53669
G1 X96.973 Y113.243 E9.56317
G1 X96.656 Y113.166 E9.57944
G1 X95.83 Y112.923 E9.6224
G1 X95.099 Y112.669 E9.66101
G1 X94.376 Y112.359 E9.70026
G1 X93.892 Y112.135 E9.72686
G1 X93.606 Y111.986 E9.74295
G1 X92.934 Y111.596 E9.78172
G1 X92.488 Y111.32 E9.80788
G1 X92.222 Y111.137 E9.82399
G1 X91.486 Y110.579 E9.87007
G1 X90.926 Y110.109 E9.90654
G1 X90.357 Y109.56 E9.94599
G1 X89.997 Y109.191 E9.97171
G1 X89.785 Y108.954 E9.98757
G1 X89.27 Y108.321 E10.02829
G1 X88.956 Y107.911 E10.05405
G1 X88.777 Y107.653 E10.06972
G1 X88.355 Y106.984 E10.10918
G1 X88.044 Y106.455 E10.13979
G1 X87.758 Y105.91 E10.1705
G1 X87.149 Y104.664 E10.23969
G1 X85.875 Y102.233 E10.37662
G1 X84.547 Y99.866 E10.51203
G1 X83.155 Y97.54 E10.64726
G1 X82.007 Y95.764 E10.75277
G1 X81.256 Y94.58 E10.82272
G1 X81.003 Y94.107 E10.84948
G1 X80.801 Y93.517 E10.88059
G1 X80.695 Y92.746 E10.91942
G1 X80.685 Y92.326 E10.94038
G1 X80.685 Y88.969 E11.10786
G1 X80.694 Y88.304 E11.14104
G1 X80.742 Y87.77 E11.16779
G1 X80.868 Y87.249 E11.19453
G1 X81.07 Y86.752 E11.2213
G1 X81.343 Y86.291 E11.24803
G1 X81.682 Y85.875 E11.2748
G1 X82.079 Y85.515 E11.30154
G0 F3600 X82.074 Y86.048
G1 F1800 X82.465 Y85.727 E11.32678
G1 X82.902 Y85.472 E11.35202
G1 X83.373 Y85.288 E11.37725
G1 X83.867 Y85.182 E11.40245
G1 X84.525 Y85.145 E11.43533
G1 X89.054 Y85.144 E11.66129
G1 X89.771 Y85.155 E11.69706
G1 X90.393 Y85.206 E11.7282
G1 X93.176 Y85.441 E11.86754
G1 X95.896 Y85.594 E12.00345
G1 X98.646 Y85.671 E12.1407
G1 X101.364 Y85.671 E12.27631
G1 X104.117 Y85.592 E12.41371
G1 X106.852 Y85.436 E12.55038
G1 X108.596 Y85.275 E12.63776
G1 X108.772 Y85.273 E12.64654
G1 X110.02 Y85.165 E12.70904
G1 X110.524 Y85.145 E12.7342
G1 X115.05 Y85.144 E12.96
G1 X115.748 Y85.153 E12.99483
G1 X116.252 Y85.2 E13.02008
G1 X116.742 Y85.325 E13.04531
G1 X117.206 Y85.526 E13.07054
G1 X117.632 Y85.797 E13.09573
G1 X118.011 Y86.132 E13.12097
G1 X118.332 Y86.523 E13.14621
G1 X118.587 Y86.959 E13.1714
G1 X118.771 Y87.43 E13.19663
G1 X118.878 Y87.924 E13.22185
G1 X118.915 Y88.584 E13.25483
G1 X118.916 Y91.974 E13.42396
G1 X118.906 Y92.696 E13.45998
G1 X118.859 Y93.2 E13.48523
G1 X118.733 Y93.689 E13.51043
G1 X118.532 Y94.153 E13.53566
G1 X118.384 Y94.403 E13.55015
G1 X117.938 Y95.086 E13.59085
G1 X116.44 Y97.445 E13.73026
G1 X115.053 Y99.774 E13.8655
G1 X113.698 Y102.199 E14.00409
G1 X112.435 Y104.621 E14.14037
G1 X111.756 Y105.982 E14.21625
G1 X111.659 Y106.163 E14.22649
G1 X111.248 Y106.869 E14.26725
G1 X110.98 Y107.3 E14.29257
G1 X110.818 Y107.536 E14.30685
G1 X110.269 Y108.261 E14.35222
G1 X109.823 Y108.794 E14.38689
G1 X109.272 Y109.365 E14.42648
G1 X108.913 Y109.716 E14.45153
G1 X108.701 Y109.905 E14.4657
G1 X108.069 Y110.419 E14.50634
G1 X107.67 Y110.724 E14.5314
G1 X107.441 Y110.883 E14.54531
G1 X106.681 Y111.361 E14.5901
G1 X106.072 Y111.703 E14.62495
G1 X105.34 Y112.048 E14.66532
G1 X104.875 Y112.251 E14.69063
G1 X104.606 Y112.353 E14.70498
G1 X103.765 Y112.629 E14.74914
G1 X103.08 Y112.819 E14.78461
G1 X102.327 Y112.971 E14.82293
G1 X101.81 Y113.06 E14.84911
G1 X101.525 Y113.095 E14.86343
G1 X100.733 Y113.157 E14.90307
G1 X100.215 Y113.183 E14.92894
G1 X99.925 Y113.184 E14.94341
G1 X99.14 Y113.15 E14.98261
G1 X98.637 Y113.114 E15.00777
G1 X98.355 Y113.081 E15.02193
G1 X97.559 Y112.95 E15.06218
G1 X97.05 Y112.851 E15.08805
G1 X96.769 Y112.782 E15.10249
G1 X95.954 Y112.542 E15.14487
G1 X95.257 Y112.301 E15.18167
G1 X94.443 Y111.951 E15.22587
G1 X93.807 Y111.64 E15.26119
G1 X93.135 Y111.25 E15.29996
G1 X92.7 Y110.98 E15.3255
G1 X92.464 Y110.818 E15.33978
G1 X91.737 Y110.267 E15.38529
G1 X91.204 Y109.821 E15.41996
G1 X90.635 Y109.272 E15.45941
G1 X90.284 Y108.913 E15.48446
G1 X90.096 Y108.702 E15.49856
G1 X89.581 Y108.069 E15.53927
G1 X89.275 Y107.669 E15.5644
G1 X89.115 Y107.439 E15.57837
G1 X88.693 Y106.77 E15.61784
G1 X88.39 Y106.254 E15.64769
G1 X88.114 Y105.727 E15.67737
G1 X87.506 Y104.482 E15.74649
G1 X86.242 Y102.07 E15.88235
G1 X84.889 Y99.66 E16.02024
G1 X83.501 Y97.34 E16.15512
G1 X82.345 Y95.55 E16.26143
G1 X81.594 Y94.366 E16.33138
G1 X81.358 Y93.919 E16.35659
G1 X81.19 Y93.42 E16.38286
G1 X81.095 Y92.735 E16.41736
G1 X81.085 Y92.326 E16.43778
G1 X81.085 Y88.975 E16.60496
G1 X81.094 Y88.31 E16.63814
G1 X81.141 Y87.806 E16.66339
G1 X81.267 Y87.317 E16.68858
G1 X81.468 Y86.853 E16.71381
G1 X81.739 Y86.426 E16.73904
G1 X82.074 Y86.048 E16.76424
G0 F3600 X84.485 Y88.544
;TYPE:SUPPORT
G1 F1800 X89.512 Y88.544 E17.01504
G1 X89.512 Y89.1 E17.04278
G1 X88.488 Y89.1 E17.09387
G1 X87.844 Y89.744 E17.1393
G1 X87.844 Y90 E17.15208
G1 X87.81 Y90.034 E17.15448
G1 X87.811 Y90.966 E17.20097
G1 X87.845 Y91 E17.20337
G1 X87.845 Y91.256 E17.21614
G1 X88.489 Y91.9 E17.26158
G1 X89.1 Y91.9 E17.29206
G1 X89.1 Y92.456 E17.3198
G1 X84.485 Y92.456 E17.55005
G1 X84.485 Y88.544 E17.74522
G0 F3600 X85.344 Y88.704
G1 F1800 X85.344 Y92.296 E17.92442
G0 F3600 X84.645 Y90.678
G1 F1800 X87.651 Y90.678 E18.07439
G0 F3600 X88.011 Y91.649
G1 F1800 X88.011 Y92.296 E18.10667
G0 F3600 X88.011 Y89.35
G1 F1800 X88.011 Y88.704 E18.1389
G0 F3600 X110.484 Y88.544
G1 F1800 X115.516 Y88.544 E18.38995
G1 X115.516 Y92.456 E18.58512
G1 X110.9 Y92.456 E18.81541
G1 X110.9 Y91.9 E18.84315
G1 X111.512 Y91.9 E18.87368
G1 X112.156 Y91.256 E18.91912
G1 X112.156 Y91 E18.93189
G1 X112.19 Y90.966 E18.93429
G1 X112.189 Y90.034 E18.98079
G1 X112.155 Y90 E18.98319
G1 X112.155 Y89.744 E18.99596
G1 X111.511 Y89.1 E19.0414
G1 X110.484 Y89.1 E19.09264
G1 X110.484 Y88.544 E19.12037
G0 F3600 X112.014 Y88.704
G1 F1800 X112.014 Y89.376 E19.1539
G0 F3600 X112.349 Y90.678
G1 F1800 X115.356 Y90.678 E19.30392
G0 F3600 X114.681 Y92.296
G1 F1800 X114.681 Y88.704 E19.48313
G0 F3600 X112.014 Y91.625
G1 F1800 X112.014 Y92.296 E19.5166
G1 F1500 E13.0166
;MESH:acheng31_battery_holder.STL
G0 F3600 X109.78 Y92.296
G0 X109.129 Y101.377
G0 X108.723 Y102.606
G0 X108.182 Y103.706
G0 X107.489 Y104.746
G0 X106.684 Y105.666
G0 X105.741 Y106.494
G0 X104.736 Y107.167
G0 X103.624 Y107.715
G0 X102.438 Y108.12
G0 X101.244 Y108.358
G0 X100.236 Y108.423
G0 X97.515 Y108.274
;TYPE:WALL-INNER
G1 F1500 E19.5166
G1 F1800 X98.759 Y108.52 E19.57987
G1 X100 Y108.601 E19.64191
G1 X101.264 Y108.517 E19.70511
G1 X102.485 Y108.274 E19.76722
G1 X103.685 Y107.865 E19.83047
G1 X104.811 Y107.309 E19.89313
G1 X105.845 Y106.617 E19.9552
G1 X106.798 Y105.78 E20.01848
G1 X107.461 Y105.023 E20.06868
G1 X107.617 Y104.845 E20.08049
G1 X108.052 Y104.192 E20.11964
G1 X108.32 Y103.79 E20.14374
G1 X108.591 Y103.239 E20.17437
G1 X108.874 Y102.663 E20.20639
G1 X109.026 Y102.215 E20.22999
G1 X109.257 Y101.535 E20.26582
G1 X109.126 Y102.248 E20.27077
G1 X108.986 Y102.697 E20.27722
G1 X108.787 Y103.335 E20.29162
G1 X108.539 Y103.888 E20.30882
G1 X108.322 Y104.371 E20.32774
G1 X107.924 Y105.03 E20.36038
G1 X107.802 Y105.233 E20.37157
G1 X107.738 Y105.338 E20.37771
G1 X107.035 Y106.233 E20.43449
G1 X106.233 Y107.035 E20.49107
G1 X105.338 Y107.738 E20.54785
G1 X104.371 Y108.322 E20.60421
G1 X103.335 Y108.787 E20.66087
G1 X102.248 Y109.126 E20.71767
G1 X101.135 Y109.33 E20.77413
G1 X100 Y109.399 E20.83085
G1 X98.865 Y109.33 E20.88758
G1 X97.752 Y109.126 E20.94404
G1 X96.665 Y108.787 E21.00084
G1 X95.629 Y108.322 E21.0575
G1 X94.662 Y107.738 E21.11386
G1 X93.767 Y107.035 E21.17064
G1 X92.965 Y106.233 E21.22722
G1 X92.262 Y105.338 E21.284
G1 X92.197 Y105.231 E21.29025
G1 X92.077 Y105.031 E21.30188
G1 X91.678 Y104.371 E21.34036
G1 X91.471 Y103.91 E21.36557
G1 X91.213 Y103.335 E21.39701
G1 X91.022 Y102.721 E21.4291
G1 X90.874 Y102.248 E21.45382
G1 X90.743 Y101.535 E21.48999
G1 X90.974 Y102.213 E21.49457
G1 X91.135 Y102.685 E21.50154
G1 X91.408 Y103.238 E21.51409
G1 X91.691 Y103.811 E21.53244
G1 X91.945 Y104.191 E21.54816
G1 X92.383 Y104.845 E21.5816
G1 X92.537 Y105.02 E21.59262
G1 X93.22 Y105.798 E21.64427
G1 X94.155 Y106.617 E21.70628
G1 X95.21 Y107.32 E21.76953
G1 X96.337 Y107.874 E21.83219
G1 X97.515 Y108.274 E21.89425
G0 F3600 X99.999 Y108.44
G0 X101.244 Y108.358
G0 X102.438 Y108.12
G0 X103.624 Y107.715
G0 X104.736 Y107.167
G0 X105.741 Y106.494
G0 X106.684 Y105.666
G0 X107.489 Y104.746
G0 X108.182 Y103.706
G0 X108.723 Y102.606
G0 X109.129 Y101.377
G0 X109.73 Y90.73
G0 X109.8 Y90.8
;TYPE:WALL-OUTER
G1 F1800 X109.8 Y99.988 E22.35264
G1 X109.728 Y101.182 E22.41232
G1 X109.514 Y102.348 E22.47146
G1 X109.162 Y103.477 E22.53046
G1 X108.678 Y104.554 E22.58937
G1 X108.065 Y105.569 E22.64853
G1 X107.335 Y106.499 E22.70751
G1 X106.499 Y107.335 E22.7665
G1 X105.569 Y108.065 E22.82548
G1 X104.554 Y108.678 E22.88464
G1 X103.477 Y109.162 E22.94355
G1 X102.348 Y109.514 E23.00255
G1 X101.182 Y109.728 E23.06169
G1 X100 Y109.799 E23.12077
G1 X98.818 Y109.728 E23.17984
G1 X97.652 Y109.514 E23.23899
G1 X96.523 Y109.162 E23.29799
G1 X95.446 Y108.678 E23.3569
G1 X94.431 Y108.065 E23.41605
G1 X93.501 Y107.335 E23.47504
G1 X92.665 Y106.499 E23.53402
G1 X91.935 Y105.569 E23.59301
G1 X91.322 Y104.554 E23.65216
G1 X90.838 Y103.477 E23.71107
G1 X90.486 Y102.348 E23.77007
G1 X90.272 Y101.182 E23.82922
G1 X90.2 Y99.988 E23.88889
G1 X90.2 Y90.8 E24.34728
G1 X88.945 Y90.8 E24.4099
G1 X88.944 Y90.4 E24.42985
G1 X88.944 Y90.2 E24.43983
G1 X89.144 Y90.2 E24.44629
G1 X90.8 Y90.2 E24.52891
G1 X90.801 Y99.019 E24.96889
G1 X90.88 Y100.212 E25.02854
G1 X91.113 Y101.381 E25.08801
G1 X91.505 Y102.531 E25.14862
G1 X92.038 Y103.61 E25.20867
G1 X92.701 Y104.601 E25.26815
G1 X93.503 Y105.514 E25.32878
G1 X94.399 Y106.299 E25.38821
G1 X95.41 Y106.973 E25.44883
G1 X96.49 Y107.504 E25.50887
G1 X97.619 Y107.887 E25.56835
G1 X98.811 Y108.123 E25.62897
G1 X100 Y108.2 E25.68842
G1 X101.212 Y108.12 E25.74902
G1 X102.381 Y107.887 E25.80849
G1 X103.531 Y107.495 E25.8691
G1 X104.61 Y106.962 E25.92914
G1 X105.601 Y106.299 E25.98863
G1 X106.514 Y105.497 E26.04926
G1 X107.299 Y104.601 E26.10869
G1 X107.973 Y103.59 E26.16931
G1 X108.504 Y102.51 E26.22935
