%
(acheng31_modified_DDBody)
(T1  D=3.175 CR=0. - ZMIN=-3. - flat end mill)
(T2  D=3.175 CR=0. TAPER=118deg - ZMIN=-4.954 - drill)
G90 G54 G64 G50 G17 G40 G80 G94 G91.1 G49
G21 (Metric)
G30

N10(Drill3)
T2 G43 H2 M6
S5000 M3 M8
G54
G0 X151.571 Y140.
G0 Z15.
G0 Z5.
G98 G81 X151.571 Y140. Z-4.954 R5. F1000.
X18.571
Y7.5
X66.6 Y8.
Y24.
X103.6
Y8.
X151.629 Y7.5
G80
G0 Z15.
M5 M9
G30

N20(2D Contour3)
M1
T1 G43 H1 M6
S5000 M3 M8
G0 X87.56 Y73.433
G0 Z15.
G0 Z5.
G1 Z2. F333.
G1 Z-0.683
G1 X87.568 Z-0.753 F1000.
G1 X87.591 Z-0.82
G1 X87.629 Z-0.88
G1 X87.68 Z-0.931
G1 X87.74 Z-0.969
G1 X87.807 Z-0.992
G1 X87.878 Z-1.
G1 X88.195
G3 X88.512 Y73.75 I0. J0.317
G3 X81.688 I-3.412 J0.
G3 X88.512 I3.412 J0.
G3 X88.195 Y74.067 I-0.317 J0.
G1 X87.878
G1 X87.807 Z-0.992
G1 X87.74 Z-0.969
G1 X87.68 Z-0.931
G1 X87.629 Z-0.88
G1 X87.591 Z-0.82
G1 X87.568 Z-0.753
G1 X87.56 Z-0.683
G1 Y73.433
G1 Z-1.683 F333.
G1 X87.568 Z-1.753 F1000.
G1 X87.591 Z-1.82
G1 X87.629 Z-1.88
G1 X87.68 Z-1.931
G1 X87.74 Z-1.969
G1 X87.807 Z-1.992
G1 X87.878 Z-2.
G1 X88.195
G3 X88.512 Y73.75 I0. J0.317
G3 X81.688 I-3.412 J0.
G3 X88.512 I3.412 J0.
G3 X88.195 Y74.067 I-0.317 J0.
G1 X87.878
G1 X87.807 Z-1.992
G1 X87.74 Z-1.969
G1 X87.68 Z-1.931
G1 X87.629 Z-1.88
G1 X87.591 Z-1.82
G1 X87.568 Z-1.753
G1 X87.56 Z-1.683
G1 Y73.433
G1 Z-2.683 F333.
G1 X87.568 Z-2.753 F1000.
G1 X87.591 Z-2.82
G1 X87.629 Z-2.88
G1 X87.68 Z-2.931
G1 X87.74 Z-2.969
G1 X87.807 Z-2.992
G1 X87.878 Z-3.
G1 X88.195
G3 X88.512 Y73.75 I0. J0.317
G3 X81.688 I-3.412 J0.
G3 X88.512 I3.412 J0.
G3 X88.195 Y74.067 I-0.317 J0.
G1 X87.878
G1 X87.807 Z-2.992
G1 X87.74 Z-2.969
G1 X87.68 Z-2.931
G1 X87.629 Z-2.88
G1 X87.591 Z-2.82
G1 X87.568 Z-2.753
G1 X87.56 Z-2.683
G0 Z15.
M5 M9

G30
M30
%
