;FLAVOR:Marlin
;TIME:17495
;Filament used: 6.75031m
;Layer height: 0.1
;MINX:66.65
;MINY:66.65
;MINZ:0.3
;MAXX:133.35
;MAXY:133.35
;MAXZ:31
;Generated with Cura_SteamEngine 4.8.0
M140 S60
M105
M190 S60
M104 S210
M105
M109 S210
M82 ;absolute extrusion mode
G21 ;metric values
 G90 ;absolute positioning
 M82 ;set extruder to absolute mode
 M107 ;start with the fan off
 G28 X0 Y0 ;move X/Y to min endstops
 G28 Z0 ;move Z to min endstops
 G1 Z15.0 F120 ;move the platform down 15mm
 G92 E0 ;zero the extruded length
 G1 F200 E6 ;extrude 6 mm of feed stock
 G92 E0 ;zero the extruded length again
 G1 F120 
 ;Put printing message on LCD screen
 M117 Printing...
G92 E0
G92 E0
G1 F1500 E-6.5
;LAYER_COUNT:308
;LAYER:0
M107
G0 F3600 X73.658 Y73.768 Z0.3
;TYPE:SKIRT
G1 F1500 E0
G1 F1800 X74.244 Y73.272 E0.0383
G1 X75.294 Y72.562 E0.10154
G1 X77.561 Y70.979 E0.23948
G1 X79.991 Y69.174 E0.3905
G1 X80.768 Y68.579 E0.43933
G1 X81.018 Y68.404 E0.45455
G1 X81.497 Y68.098 E0.48291
G1 X82.014 Y67.789 E0.51296
G1 X82.729 Y67.444 E0.55257
G1 X82.864 Y67.388 E0.55986
G1 X83.364 Y67.192 E0.58665
G1 X83.756 Y67.064 E0.60723
G1 X84.412 Y66.892 E0.64106
G1 X85.125 Y66.752 E0.67731
G1 X85.56 Y66.707 E0.69913
G1 X86.166 Y66.666 E0.72943
G1 X86.361 Y66.658 E0.73917
G1 X86.957 Y66.65 E0.76891
G1 X88.37 Y66.65 E0.8394
G1 X89.181 Y66.663 E0.87987
G1 X89.856 Y66.705 E0.91361
G1 X90.241 Y66.737 E0.93288
G1 X90.975 Y66.806 E0.96966
G1 X91.49 Y66.892 E0.99571
G1 X92.277 Y67.094 E1.03625
G1 X92.479 Y67.155 E1.04678
G1 X93.164 Y67.385 E1.08282
G1 X93.551 Y67.523 E1.10332
G1 X96.143 Y68.364 E1.23928
G1 X98.745 Y69.128 E1.37457
G1 X101.418 Y69.831 E1.51246
G1 X104.08 Y70.454 E1.64886
G1 X106.689 Y70.982 E1.78166
G1 X109.416 Y71.457 E1.91976
G1 X112.116 Y71.849 E2.05587
G1 X114.831 Y72.165 E2.19224
G1 X117.51 Y72.4 E2.32641
G1 X120.28 Y72.564 E2.46485
G1 X123.244 Y72.652 E2.61279
G1 X123.799 Y72.661 E2.64048
G1 X124.333 Y72.71 E2.66723
G1 X124.854 Y72.837 E2.69399
G1 X125.351 Y73.041 E2.72079
G1 X125.811 Y73.316 E2.74753
G1 X126.226 Y73.656 E2.77429
G1 X126.585 Y74.054 E2.80103
G1 X126.881 Y74.501 E2.82778
G1 X127.108 Y74.987 E2.85454
G1 X127.26 Y75.501 E2.88128
G1 X127.339 Y76.156 E2.9142
G1 X127.381 Y77.598 E2.98617
G1 X127.4 Y78.528 E3.03258
G1 X127.533 Y81.283 E3.17019
G1 X127.742 Y83.979 E3.30509
G1 X128.028 Y86.689 E3.44105
G1 X128.393 Y89.403 E3.57767
G1 X128.833 Y92.099 E3.71395
G1 X129.348 Y94.778 E3.85005
G1 X129.936 Y97.423 E3.98524
G1 X130.591 Y100.028 E4.11925
G1 X131.345 Y102.701 E4.25781
G1 X132.484 Y106.275 E4.44495
G1 X132.838 Y107.314 E4.49971
G1 X133.028 Y108.012 E4.5358
G1 X133.051 Y108.107 E4.54068
G1 X133.203 Y108.788 E4.57549
G1 X133.307 Y109.554 E4.61406
G1 X133.325 Y109.854 E4.62905
G1 X133.35 Y111.11 E4.69172
G1 X133.35 Y112.982 E4.78512
G1 X133.339 Y113.719 E4.82189
G1 X133.277 Y114.526 E4.86227
G1 X133.214 Y114.933 E4.88282
G1 X133.095 Y115.489 E4.91119
G1 X132.955 Y116.066 E4.94081
G1 X132.797 Y116.558 E4.96659
G1 X132.576 Y117.105 E4.99602
G1 X132.303 Y117.707 E5.029
G1 X131.992 Y118.257 E5.06052
G1 X131.669 Y118.78 E5.09119
G1 X131.494 Y119.038 E5.10674
G1 X130.93 Y119.794 E5.1538
G1 X130.286 Y120.636 E5.20669
G1 X128.711 Y122.816 E5.34086
G1 X126.984 Y125.366 E5.49451
G1 X126.761 Y125.708 E5.51488
G1 X126.436 Y126.134 E5.54161
G1 X126.05 Y126.507 E5.56839
G1 X125.614 Y126.819 E5.59514
G1 X125.136 Y127.062 E5.62189
G1 X124.627 Y127.231 E5.64865
G1 X123.911 Y127.366 E5.685
G1 X121.217 Y127.871 E5.82175
G1 X118.574 Y128.443 E5.95666
G1 X115.91 Y129.099 E6.09354
G1 X113.299 Y129.822 E6.2287
G1 X110.662 Y130.634 E6.36636
G1 X108.082 Y131.508 E6.50226
G1 X105.53 Y132.454 E6.63805
G1 X104.75 Y132.754 E6.67974
G1 X104.37 Y132.877 E6.69967
G1 X103.82 Y133.021 E6.72803
G1 X103.17 Y133.173 E6.76133
G1 X102.37 Y133.283 E6.80162
G1 X102.245 Y133.294 E6.80788
G1 X101.609 Y133.335 E6.83968
G1 X100.881 Y133.35 E6.87601
G1 X98.938 Y133.35 E6.97294
G1 X98.233 Y133.34 E7.00812
G1 X97.723 Y133.313 E7.0336
G1 X96.946 Y133.219 E7.07265
G1 X96.4 Y133.1 E7.10053
G1 X95.782 Y132.939 E7.13239
G1 X95.401 Y132.816 E7.15236
G1 X94.224 Y132.365 E7.21525
G1 X91.651 Y131.42 E7.352
G1 X89.066 Y130.552 E7.48804
G1 X86.429 Y129.749 E7.62556
G1 X83.815 Y129.033 E7.76078
G1 X81.181 Y128.391 E7.89604
G1 X78.498 Y127.817 E8.03292
G1 X77.009 Y127.553 E8.10837
G1 X76.847 Y127.512 E8.11671
G1 X75.595 Y127.278 E8.18025
G1 X75.076 Y127.141 E8.20703
G1 X74.584 Y126.928 E8.23378
G1 X74.129 Y126.644 E8.26054
G1 X73.721 Y126.296 E8.28729
G1 X73.273 Y125.756 E8.32229
G1 X72.811 Y125.073 E8.36343
G1 X72.063 Y123.935 E8.43137
G1 X70.487 Y121.678 E8.56871
G1 X68.924 Y119.569 E8.69968
G1 X68.502 Y119.014 E8.73446
G1 X68.064 Y118.348 E8.77423
G1 X67.645 Y117.598 E8.81709
G1 X67.472 Y117.205 E8.83851
G1 X67.242 Y116.626 E8.86959
G1 X67.105 Y116.209 E8.89149
G1 X66.935 Y115.56 E8.92496
G1 X66.8 Y114.982 E8.95458
G1 X66.712 Y114.412 E8.98335
G1 X66.667 Y113.764 E9.01576
G1 X66.651 Y113.241 E9.04186
G1 X66.65 Y110.86 E9.16065
G1 X66.659 Y110.228 E9.19218
G1 X66.668 Y110.018 E9.20267
G1 X66.71 Y109.44 E9.23158
G1 X66.813 Y108.696 E9.26906
G1 X66.978 Y107.975 E9.30596
G1 X67.116 Y107.468 E9.33217
G1 X67.227 Y107.132 E9.34982
G1 X67.927 Y105.081 E9.45795
G1 X68.725 Y102.509 E9.5923
G1 X69.457 Y99.888 E9.72806
G1 X70.132 Y97.188 E9.86691
G1 X70.706 Y94.562 E10.00102
G1 X71.218 Y91.865 E10.13797
G1 X71.646 Y89.203 E10.27249
G1 X72.004 Y86.49 E10.40901
G1 X72.285 Y83.77 E10.54544
G1 X72.487 Y81.054 E10.68131
G1 X72.614 Y78.328 E10.81746
G1 X72.655 Y76.584 E10.90449
G1 X72.662 Y76.193 E10.924
G1 X72.71 Y75.659 E10.95075
G1 X72.838 Y75.138 E10.97752
G1 X73.042 Y74.642 E11.00428
G1 X73.317 Y74.182 E11.03101
G1 X73.658 Y73.768 E11.05777
G0 F3600 X74.049 Y73.941
G1 F1800 X74.468 Y73.603 E11.08463
G1 X75.549 Y72.872 E11.14973
G1 X77.797 Y71.302 E11.28653
G1 X80.23 Y69.495 E11.43773
G1 X81.011 Y68.897 E11.48681
G1 X81.233 Y68.741 E11.50034
G1 X81.798 Y68.382 E11.53374
G1 X82.567 Y67.953 E11.57767
G1 X83.01 Y67.761 E11.60176
G1 X83.51 Y67.565 E11.62855
G1 X83.859 Y67.451 E11.64687
G1 X84.501 Y67.282 E11.67999
G1 X85.17 Y67.15 E11.71401
G1 X85.587 Y67.106 E11.73493
G1 X86.193 Y67.065 E11.76523
G1 X86.366 Y67.058 E11.77387
G1 X86.962 Y67.05 E11.80361
G1 X88.364 Y67.05 E11.87355
G1 X89.071 Y67.06 E11.90883
G1 X89.829 Y67.104 E11.94671
G1 X90.203 Y67.135 E11.96543
G1 X90.937 Y67.204 E12.00221
G1 X91.744 Y67.366 E12.04328
G1 X92.352 Y67.535 E12.07476
G1 X93.03 Y67.762 E12.11043
G1 X93.399 Y67.894 E12.12998
G1 X96.045 Y68.752 E12.26876
G1 X98.636 Y69.513 E12.40349
G1 X101.305 Y70.215 E12.54117
G1 X104.007 Y70.847 E12.67961
G1 X106.649 Y71.381 E12.81409
G1 X109.328 Y71.848 E12.94976
G1 X112.049 Y72.243 E13.08693
G1 X114.783 Y72.562 E13.22426
G1 X117.526 Y72.802 E13.36163
G1 X120.21 Y72.962 E13.49577
G1 X123.259 Y73.052 E13.64796
G1 X123.793 Y73.061 E13.6746
G1 X124.296 Y73.11 E13.69981
G1 X124.786 Y73.236 E13.72506
G1 X125.249 Y73.439 E13.75028
G1 X125.675 Y73.711 E13.77549
G1 X126.052 Y74.048 E13.80072
G1 X126.372 Y74.439 E13.82593
G1 X126.626 Y74.876 E13.85115
G1 X126.808 Y75.348 E13.87638
G1 X126.914 Y75.842 E13.90159
G1 X126.94 Y76.168 E13.91791
G1 X126.981 Y77.606 E13.98968
G1 X127 Y78.554 E14.03698
G1 X127.133 Y81.299 E14.17409
G1 X127.343 Y84.016 E14.31005
G1 X127.631 Y86.747 E14.44705
G1 X127.995 Y89.449 E14.58308
G1 X128.44 Y92.173 E14.72078
G1 X128.95 Y94.827 E14.85561
G1 X129.551 Y97.535 E14.994
G1 X130.206 Y100.137 E15.12786
G1 X130.959 Y102.805 E15.26617
G1 X132.119 Y106.444 E15.45672
G1 X132.459 Y107.443 E15.50937
G1 X132.64 Y108.11 E15.54385
G1 X132.812 Y108.875 E15.58297
G1 X132.909 Y109.595 E15.61921
G1 X132.925 Y109.862 E15.63256
G1 X132.95 Y111.11 E15.69483
G1 X132.95 Y112.976 E15.78793
G1 X132.939 Y113.713 E15.8247
G1 X132.879 Y114.488 E15.86348
G1 X132.823 Y114.85 E15.88176
G1 X132.683 Y115.498 E15.91483
G1 X132.426 Y116.408 E15.96201
G1 X132.162 Y117.057 E15.99696
G1 X131.948 Y117.524 E16.02259
G1 X131.647 Y118.055 E16.05304
G1 X131.329 Y118.57 E16.08324
G1 X131.173 Y118.799 E16.09706
G1 X130.612 Y119.551 E16.14387
G1 X129.976 Y120.381 E16.19604
G1 X128.372 Y122.603 E16.33276
G1 X126.653 Y125.141 E16.48569
G1 X126.426 Y125.489 E16.50642
G1 X126.117 Y125.89 E16.53168
G1 X125.749 Y126.236 E16.55688
G1 X125.331 Y126.521 E16.58212
G1 X124.874 Y126.736 E16.60732
G1 X124.292 Y126.894 E16.6374
G1 X123.83 Y126.974 E16.66079
G1 X121.137 Y127.479 E16.79749
G1 X118.466 Y128.058 E16.93384
G1 X115.837 Y128.705 E17.06892
G1 X113.147 Y129.45 E17.20817
G1 X110.564 Y130.245 E17.34301
G1 X107.951 Y131.13 E17.48064
G1 X105.387 Y132.081 E17.61708
G1 X104.607 Y132.381 E17.65877
G1 X104.268 Y132.49 E17.67654
G1 X103.634 Y132.655 E17.70922
G1 X103.08 Y132.784 E17.7376
G1 X102.33 Y132.885 E17.77535
G1 X102.219 Y132.894 E17.78091
G1 X101.489 Y132.94 E17.8174
G1 X100.877 Y132.95 E17.84794
G1 X98.944 Y132.95 E17.94438
G1 X98.239 Y132.94 E17.97955
G1 X97.36 Y132.877 E18.02352
G1 X96.759 Y132.773 E18.05395
G1 X96.501 Y132.713 E18.06716
G1 X95.883 Y132.552 E18.09902
G1 X95.545 Y132.443 E18.11674
G1 X94.387 Y131.999 E18.17862
G1 X91.779 Y131.041 E18.31723
G1 X89.162 Y130.163 E18.45495
G1 X86.555 Y129.369 E18.59091
G1 X83.935 Y128.651 E18.72644
G1 X81.254 Y127.998 E18.86411
G1 X78.573 Y127.424 E19.00089
G1 X77.078 Y127.159 E19.07664
G1 X76.928 Y127.12 E19.08437
G1 X75.668 Y126.885 E19.14832
G1 X75.18 Y126.753 E19.17354
G1 X74.719 Y126.546 E19.19875
G1 X74.296 Y126.269 E19.22398
G1 X73.922 Y125.929 E19.24919
G1 X73.605 Y125.532 E19.27454
G1 X73.146 Y124.853 E19.31543
G1 X72.41 Y123.732 E19.38233
G1 X70.821 Y121.457 E19.52078
G1 X69.219 Y119.295 E19.65503
G1 X68.821 Y118.772 E19.68781
G1 X68.402 Y118.134 E19.72589
G1 X68.01 Y117.434 E19.76592
G1 X67.844 Y117.057 E19.78647
G1 X67.614 Y116.478 E19.81755
G1 X67.492 Y116.108 E19.83699
G1 X67.322 Y115.459 E19.87046
G1 X67.19 Y114.891 E19.89955
G1 X67.111 Y114.377 E19.9255
G1 X67.066 Y113.741 E19.95731
G1 X67.051 Y113.24 E19.98232
G1 X67.05 Y110.865 E20.1008
G1 X67.059 Y110.233 E20.13234
G1 X67.067 Y110.047 E20.14163
G1 X67.109 Y109.469 E20.17054
G1 X67.203 Y108.785 E20.20498
G1 X67.368 Y108.064 E20.24189
G1 X67.594 Y107.295 E20.28187
G1 X68.301 Y105.224 E20.39105
G1 X69.109 Y102.62 E20.52708
G1 X69.854 Y99.954 E20.66518
G1 X70.516 Y97.305 E20.8014
G1 X71.098 Y94.643 E20.93735
G1 X71.611 Y91.937 E21.07475
G1 X72.044 Y89.247 E21.21069
G1 X72.4 Y86.547 E21.34656
G1 X72.684 Y83.805 E21.48409
G1 X72.885 Y81.102 E21.61931
G1 X73.015 Y78.3 E21.75925
G1 X73.064 Y76.164 E21.86585
G1 X73.11 Y75.697 E21.88926
G1 X73.237 Y75.207 E21.91451
G1 X73.44 Y74.744 E21.93974
G1 X73.713 Y74.319 E21.96494
G1 X74.049 Y73.941 E21.99017
G0 F3600 X80.776 Y75.35
;TYPE:SUPPORT
G1 F1800 X81.009 Y74.382 E22.03984
G1 X81.319 Y73.629 E22.08047
G1 X81.784 Y72.857 E22.12543
G1 X82.388 Y72.161 E22.17141
G1 X83.082 Y71.581 E22.21653
G1 X83.945 Y71.049 E22.26711
G1 X84.767 Y70.713 E22.31141
G1 X85.553 Y70.519 E22.3518
G1 X86.377 Y70.45 E22.39306
G1 X89.023 Y70.45 E22.52506
G1 X90.601 Y70.577 E22.60405
G1 X91.275 Y70.75 E22.63876
G1 X92.112 Y71.081 E22.68367
G1 X92.92 Y71.583 E22.73112
G1 X93.628 Y72.2 E22.77798
G1 X94.198 Y72.852 E22.82118
G1 X94.684 Y73.642 E22.86746
G1 X95.038 Y74.476 E22.91266
G1 X95.247 Y75.35 E22.95749
G1 X80.776 Y75.35 E23.67945
G0 F3600 X81.103 Y74.676
G1 F1800 X94.921 Y74.676 E24.36884
G0 F3600 X93.345 Y75.19
G1 F1800 X93.345 Y72.167 E24.51966
G0 F3600 X93.165 Y72.009
G1 F1800 X82.819 Y72.009 E25.03582
G0 F3600 X82.677 Y72.126
G1 F1800 X82.677 Y75.19 E25.18868
G0 F3600 X85.344 Y75.19
G1 F1800 X85.344 Y70.735 E25.41094
G0 F3600 X88.011 Y70.61
G1 F1800 X88.011 Y75.19 E25.63944
G0 F3600 X90.678 Y75.19
G1 F1800 X90.678 Y70.762 E25.86035
G1 F1500 E19.36035
G0 F3600 X76.093 Y75.589
G0 X75.35 Y104.632
G1 F1500 E25.86035
G1 F1800 X75.35 Y119.103 E26.58232
G1 X74.405 Y118.876 E26.6308
G1 X73.625 Y118.551 E26.67296
G1 X72.882 Y118.087 E26.71666
G1 X72.162 Y117.491 E26.76329
G1 X71.505 Y116.701 E26.81456
G1 X71.097 Y116.034 E26.85356
G1 X70.756 Y115.202 E26.89842
G1 X70.494 Y114.135 E26.95324
G1 X70.45 Y113.545 E26.98276
G1 X70.45 Y110.211 E27.14909
G1 X70.52 Y109.44 E27.18771
G1 X70.713 Y108.665 E27.22756
G1 X71.1 Y107.704 E27.27925
G1 X71.615 Y106.868 E27.32823
G1 X72.121 Y106.274 E27.36716
G1 X72.805 Y105.697 E27.41181
G1 X73.604 Y105.218 E27.45828
G1 X74.496 Y104.838 E27.50666
G1 X75.35 Y104.632 E27.55048
G0 F3600 X74.676 Y104.958
G1 F1800 X74.676 Y118.777 E28.23992
G0 F3600 X75.19 Y117.348
G1 F1800 X72.251 Y117.348 E28.38654
G0 F3600 X72.009 Y117.056
G1 F1800 X72.009 Y106.652 E28.9056
G0 F3600 X71.986 Y106.68
G1 F1800 X75.19 Y106.68 E29.06545
G0 F3600 X75.19 Y109.347
G1 F1800 X70.708 Y109.347 E29.28906
G0 F3600 X70.61 Y112.014
G1 F1800 X75.19 Y112.014 E29.51755
G0 F3600 X75.19 Y114.681
G1 F1800 X70.792 Y114.681 E29.73697
G1 F1500 E23.23697
G0 F3600 X75.589 Y123.907
G0 X92.758 Y124.65
G1 F1500 E29.73697
G1 F1800 X107.239 Y124.65 E30.45943
G1 X107.036 Y125.494 E30.50274
G1 X106.693 Y126.328 E30.54773
G1 X106.213 Y127.124 E30.5941
G1 X105.536 Y127.914 E30.64601
G1 X104.907 Y128.453 E30.68734
G1 X104.167 Y128.904 E30.73057
G1 X103.405 Y129.212 E30.77158
G1 X102.321 Y129.479 E30.82727
G1 X101.412 Y129.55 E30.87276
G1 X98.285 Y129.55 E31.02877
G1 X97.684 Y129.502 E31.05885
G1 X96.747 Y129.274 E31.10696
G1 X95.825 Y128.905 E31.1565
G1 X95.129 Y128.481 E31.19716
G1 X94.38 Y127.838 E31.24641
G1 X93.84 Y127.198 E31.28819
G1 X93.344 Y126.396 E31.33524
G1 X92.959 Y125.45 E31.38619
G1 X92.758 Y124.65 E31.42734
G0 F3600 X93.345 Y124.81
G1 F1800 X93.345 Y125.975 E31.48547
G0 F3600 X93.097 Y125.349
G1 F1800 X106.905 Y125.349 E32.17435
G0 F3600 X106.68 Y124.81
G1 F1800 X106.68 Y125.939 E32.23068
G0 F3600 X105.169 Y128.016
G1 F1800 X94.832 Y128.016 E32.74639
G0 F3600 X96.012 Y128.806
G1 F1800 X96.012 Y124.81 E32.94575
G0 F3600 X98.679 Y124.81
G1 F1800 X98.679 Y129.39 E33.17425
G0 F3600 X101.346 Y129.39
G1 F1800 X101.346 Y124.81 E33.40275
G0 F3600 X104.013 Y124.81
G1 F1800 X104.013 Y128.794 E33.60151
G1 F1500 E27.10151
G0 F3600 X123.907 Y124.411
G0 X124.65 Y119.107
G1 F1500 E33.60151
G1 F1800 X124.65 Y104.642 E34.32317
G1 X125.456 Y104.828 E34.36444
G1 X126.389 Y105.215 E34.41483
G1 X127.203 Y105.711 E34.46239
G1 X127.764 Y106.182 E34.49893
G1 X128.455 Y106.975 E34.55141
G1 X128.957 Y107.777 E34.59861
G1 X129.242 Y108.512 E34.63794
G1 X129.499 Y109.588 E34.69313
G1 X129.55 Y110.114 E34.7195
G1 X129.55 Y113.635 E34.89516
G1 X129.506 Y114.152 E34.92105
G1 X129.268 Y115.189 E34.97413
G1 X128.93 Y115.981 E35.01709
G1 X128.454 Y116.774 E35.06323
G1 X127.807 Y117.535 E35.11307
G1 X127.224 Y118.018 E35.15084
G1 X126.408 Y118.541 E35.19919
G1 X125.54 Y118.902 E35.24609
G1 X124.65 Y119.107 E35.29166
G0 F3600 X125.349 Y118.782
G1 F1800 X125.349 Y104.969 E35.98079
G0 F3600 X124.81 Y106.68
G1 F1800 X127.987 Y106.68 E36.13929
G0 F3600 X128.016 Y106.715
G1 F1800 X128.016 Y117.042 E36.65451
G0 F3600 X127.755 Y117.348
G1 F1800 X124.81 Y117.348 E36.80144
G0 F3600 X124.81 Y114.681
G1 F1800 X129.219 Y114.681 E37.0214
G0 F3600 X129.39 Y112.014
G1 F1800 X124.81 Y112.014 E37.2499
G0 F3600 X124.81 Y109.347
G1 F1800 X129.278 Y109.347 E37.47281
G1 F1500 E30.97281
;MESH:acheng31_motor_enclosure.STL
G0 F3600 X124.415 Y109.347
G0 X123.13 Y109.347
G0 X123.08 Y123.08
G0 X123.15 Y123.15
;TYPE:WALL-INNER
G1 F1500 E37.47281
G1 F1800 X76.85 Y123.15 E39.78272
G1 X76.85 Y76.85 E42.09264
G1 X123.15 Y76.85 E44.40256
G1 X123.15 Y123.15 E46.71247
G0 F3600 X123.08 Y123.08
G0 X77.622 Y98.878
G0 X77.58 Y77.58
G0 X77.65 Y77.65
G1 F1800 X77.65 Y98.85 E47.77015
G1 X86.805 Y98.85 E48.22689
G1 X86.968 Y96.778 E48.33058
G1 X87.309 Y95.354 E48.40363
G1 X87.877 Y93.983 E48.47767
G1 X88.649 Y92.723 E48.55139
G1 X89.605 Y91.605 E48.62478
G1 X90.723 Y90.649 E48.69817
G1 X91.983 Y89.877 E48.77189
G1 X93.354 Y89.309 E48.84593
G1 X94.778 Y88.968 E48.91898
G1 X96.271 Y88.85 E48.9937
G1 X103.729 Y88.85 E49.36578
G1 X105.222 Y88.968 E49.4405
G1 X106.646 Y89.309 E49.51355
G1 X108.017 Y89.877 E49.58759
G1 X109.277 Y90.649 E49.66131
G1 X110.395 Y91.605 E49.7347
G1 X111.351 Y92.723 E49.80809
G1 X112.123 Y93.983 E49.88181
