;FLAVOR:Marlin
;TIME:30898
;Filament used: 16.6512m
;Layer height: 0.1
;MINX:23.05
;MINY:27.3
;MINZ:0.3
;MAXX:176.95
;MAXY:172.7
;MAXZ:8
;Generated with Cura_SteamEngine 4.8.0
M140 S60
M105
M190 S60
M104 S210
M105
M109 S210
M82 ;absolute extrusion mode
G21 ;metric values
 G90 ;absolute positioning
 M82 ;set extruder to absolute mode
 M107 ;start with the fan off
 G28 X0 Y0 ;move X/Y to min endstops
 G28 Z0 ;move Z to min endstops
 G1 Z15.0 F120 ;move the platform down 15mm
 G92 E0 ;zero the extruded length
 G1 F200 E6 ;extrude 6 mm of feed stock
 G92 E0 ;zero the extruded length again
 G1 F120 
 ;Put printing message on LCD screen
 M117 Printing...
G92 E0
G92 E0
G1 F1500 E-6.5
;LAYER_COUNT:78
;LAYER:0
M107
G0 F3600 X26.383 Y29.435 Z0.3
;TYPE:SKIRT
G1 F1500 E0
G1 F1800 X26.919 Y29.011 E0.0341
G1 X27.286 Y28.772 E0.05595
G1 X27.848 Y28.434 E0.08866
G1 X28.26 Y28.225 E0.11171
G1 X28.911 Y27.953 E0.14691
G1 X29.581 Y27.718 E0.18234
G1 X30.11 Y27.581 E0.2096
G1 X30.638 Y27.458 E0.23665
G1 X31.356 Y27.359 E0.27281
G1 X31.476 Y27.349 E0.27881
G1 X32.01 Y27.315 E0.30551
G1 X32.679 Y27.3 E0.33889
G1 X34.531 Y27.3 E0.43129
G1 X35.337 Y27.313 E0.47151
G1 X35.846 Y27.344 E0.49695
G1 X36.426 Y27.399 E0.52601
G1 X36.798 Y27.457 E0.5448
G1 X37.585 Y27.628 E0.58498
G1 X38.155 Y27.786 E0.61449
G1 X38.5 Y27.907 E0.63273
G1 X41.083 Y28.766 E0.76853
G1 X43.714 Y29.56 E0.90564
G1 X46.378 Y30.282 E1.04334
G1 X49.004 Y30.914 E1.1781
G1 X51.728 Y31.491 E1.31701
G1 X54.418 Y31.978 E1.4534
G1 X57.083 Y32.385 E1.5879
G1 X59.845 Y32.727 E1.72675
G1 X62.522 Y32.983 E1.86091
G1 X65.265 Y33.165 E1.99806
G1 X68.02 Y33.272 E2.13561
G1 X70.397 Y33.3 E2.25421
G1 X129.603 Y33.3 E5.20801
G1 X132.4 Y33.26 E5.34757
G1 X135.117 Y33.145 E5.48324
G1 X137.863 Y32.95 E5.62058
G1 X140.569 Y32.682 E5.75625
G1 X143.292 Y32.334 E5.8932
G1 X145.993 Y31.909 E6.02961
G1 X148.701 Y31.406 E6.16703
G1 X151.358 Y30.834 E6.30262
G1 X154.005 Y30.186 E6.43858
G1 X156.645 Y29.459 E6.57519
G1 X159.292 Y28.649 E6.7133
G1 X161.847 Y27.787 E6.84783
G1 X162.068 Y27.721 E6.85933
G1 X162.721 Y27.553 E6.89297
G1 X163.497 Y27.395 E6.93248
G1 X163.913 Y27.351 E6.95335
G1 X164.529 Y27.313 E6.98414
G1 X165.183 Y27.3 E7.01678
G1 X167.032 Y27.3 E7.10902
G1 X167.835 Y27.313 E7.14909
G1 X168.346 Y27.344 E7.17463
G1 X168.926 Y27.399 E7.2037
G1 X169.295 Y27.456 E7.22233
G1 X170.082 Y27.626 E7.2625
G1 X170.627 Y27.789 E7.29088
G1 X171.494 Y28.126 E7.33728
G1 X171.932 Y28.339 E7.36158
G1 X172.704 Y28.787 E7.40611
G1 X173.348 Y29.215 E7.44469
G1 X173.66 Y29.47 E7.46479
G1 X174.084 Y29.843 E7.49297
G1 X174.491 Y30.261 E7.52207
G1 X174.593 Y30.378 E7.52982
G1 X175 Y30.869 E7.56164
G1 X175.226 Y31.178 E7.58073
G1 X175.65 Y31.836 E7.61979
G1 X176.012 Y32.485 E7.65686
G1 X176.198 Y32.91 E7.68001
G1 X176.392 Y33.399 E7.70625
G1 X176.515 Y33.773 E7.7259
G1 X176.753 Y34.692 E7.77326
G1 X176.855 Y35.246 E7.80136
G1 X176.905 Y35.746 E7.82643
G1 X176.934 Y36.267 E7.85246
G1 X176.95 Y36.83 E7.88056
G1 X176.95 Y162.819 E14.16618
G1 X176.94 Y163.536 E14.20195
G1 X176.932 Y163.715 E14.21089
G1 X176.891 Y164.294 E14.23985
G1 X176.799 Y165.019 E14.27631
G1 X176.63 Y165.797 E14.31603
G1 X176.442 Y166.476 E14.35118
G1 X176.251 Y166.963 E14.37728
G1 X176.014 Y167.508 E14.40693
G1 X175.703 Y168.087 E14.43972
G1 X175.631 Y168.205 E14.44662
G1 X175.335 Y168.67 E14.47412
G1 X175.11 Y168.982 E14.49331
G1 X174.589 Y169.617 E14.53429
G1 X174.153 Y170.082 E14.56609
G1 X173.567 Y170.606 E14.60531
G1 X173.095 Y170.975 E14.6352
G1 X172.605 Y171.288 E14.66421
G1 X172.083 Y171.596 E14.69444
G1 X171.487 Y171.885 E14.72749
G1 X171.35 Y171.943 E14.73491
G1 X170.721 Y172.19 E14.76863
G1 X170.095 Y172.378 E14.80124
G1 X169.962 Y172.41 E14.80806
G1 X169.384 Y172.538 E14.8376
G1 X169.012 Y172.598 E14.85639
G1 X168.415 Y172.658 E14.88633
G1 X167.863 Y172.692 E14.91392
G1 X167.254 Y172.7 E14.94431
G1 X165.313 Y172.7 E15.04114
G1 X164.576 Y172.689 E15.07792
G1 X164.061 Y172.657 E15.10366
G1 X163.245 Y172.556 E15.14468
G1 X162.628 Y172.423 E15.17617
G1 X162.076 Y172.286 E15.20455
G1 X161.824 Y172.212 E15.21765
G1 X160.921 Y171.904 E15.26525
G1 X158.316 Y171.054 E15.40196
G1 X155.688 Y170.279 E15.53865
G1 X153.044 Y169.579 E15.6751
G1 X150.355 Y168.948 E15.8129
G1 X147.713 Y168.408 E15.94744
G1 X144.987 Y167.93 E16.08551
G1 X142.294 Y167.535 E16.2213
G1 X139.559 Y167.213 E16.3587
G1 X136.855 Y166.972 E16.49413
G1 X134.1 Y166.804 E16.63184
G1 X131.388 Y166.717 E16.76721
G1 X129.58 Y166.7 E16.85741
G1 X70.423 Y166.7 E19.80877
G1 X67.626 Y166.74 E19.94833
G1 X64.909 Y166.855 E20.084
G1 X62.163 Y167.05 E20.22134
G1 X59.457 Y167.318 E20.35701
G1 X56.734 Y167.666 E20.49396
G1 X54.033 Y168.091 E20.63037
G1 X51.325 Y168.594 E20.76779
G1 X48.668 Y169.166 E20.90338
G1 X46.021 Y169.814 E21.03934
G1 X43.381 Y170.541 E21.17595
G1 X40.739 Y171.35 E21.31381
G1 X39.417 Y171.804 E21.38354
G1 X39.308 Y171.832 E21.38916
G1 X38.069 Y172.246 E21.45433
G1 X37.472 Y172.409 E21.4852
G1 X36.915 Y172.534 E21.51368
G1 X36.537 Y172.596 E21.53279
G1 X35.896 Y172.661 E21.56494
G1 X35.415 Y172.691 E21.58898
G1 X34.809 Y172.7 E21.61922
G1 X32.789 Y172.7 E21.72
G1 X32.049 Y172.689 E21.75692
G1 X31.496 Y172.653 E21.78457
G1 X30.769 Y172.56 E21.82113
G1 X30.079 Y172.41 E21.85636
G1 X29.575 Y172.284 E21.88228
G1 X28.925 Y172.059 E21.9166
G1 X28.801 Y172.008 E21.92329
G1 X28.22 Y171.756 E21.95488
G1 X27.673 Y171.464 E21.98582
G1 X27.558 Y171.395 E21.99251
G1 X27.005 Y171.044 E22.02518
G1 X26.538 Y170.694 E22.0543
G1 X26.348 Y170.534 E22.06669
G1 X25.95 Y170.182 E22.0932
G1 X25.677 Y169.91 E22.11243
G1 X25.162 Y169.33 E22.15112
G1 X24.743 Y168.792 E22.18514
G1 X24.415 Y168.282 E22.2154
G1 X23.993 Y167.527 E22.25855
G1 X23.812 Y167.11 E22.28123
G1 X23.605 Y166.582 E22.30952
G1 X23.487 Y166.221 E22.32847
G1 X23.309 Y165.538 E22.36368
G1 X23.156 Y164.777 E22.40241
G1 X23.088 Y164.054 E22.43864
G1 X23.051 Y163.26 E22.4783
G1 X23.05 Y37.126 E28.77115
G1 X23.06 Y36.453 E28.80473
G1 X23.068 Y36.272 E28.81376
G1 X23.124 Y35.505 E28.85213
G1 X23.222 Y34.777 E28.88878
G1 X23.355 Y34.226 E28.91706
G1 X23.564 Y33.526 E28.95351
G1 X23.787 Y32.961 E28.98381
G1 X23.985 Y32.499 E29.00889
G1 X24.289 Y31.924 E29.04134
G1 X24.36 Y31.807 E29.04816
G1 X24.69 Y31.285 E29.07897
G1 X24.995 Y30.865 E29.10487
G1 X25.589 Y30.174 E29.15033
G1 X25.849 Y29.913 E29.16871
G1 X26.383 Y29.435 E29.20447
G0 F3600 X28.795 Y31.836
;TYPE:SUPPORT
G1 F1800 X29.611 Y31.329 E29.25239
G1 X30.44 Y30.998 E29.29693
G1 X31.4 Y30.763 E29.34624
G1 X32.202 Y30.7 E29.38637
G1 X35.19 Y30.7 E29.53544
G1 X36.189 Y30.781 E29.58545
G1 X37.012 Y30.979 E29.62768
G1 X37.834 Y31.318 E29.67204
G1 X38.735 Y31.866 E29.72465
G1 X39.333 Y32.378 E29.76393
G1 X39.935 Y33.087 E29.81033
G1 X40.421 Y33.876 E29.85656
G1 X40.773 Y34.732 E29.90274
G1 X40.98 Y35.6 E29.94726
G1 X26.519 Y35.6 E30.66872
G1 X26.523 Y35.545 E30.67147
G1 X26.729 Y34.733 E30.71326
G1 X27.095 Y33.848 E30.76104
G1 X27.537 Y33.127 E30.80324
G1 X27.589 Y33.05 E30.80787
G1 X28.155 Y32.39 E30.85125
G1 X28.795 Y31.836 E30.89348
G0 F3600 X28.845 Y32.004
G1 F1800 X38.652 Y32.004 E31.38275
G0 F3600 X37.338 Y31.287
G1 F1800 X37.338 Y35.44 E31.58995
G0 F3600 X34.671 Y35.44
G1 F1800 X34.671 Y30.86 E31.81844
G0 F3600 X32.004 Y30.875
G1 F1800 X32.004 Y35.44 E32.04619
G0 F3600 X29.337 Y35.44
G1 F1800 X29.337 Y31.687 E32.23343
G0 F3600 X26.928 Y34.671
G1 F1800 X40.575 Y34.671 E32.91428
G0 F3600 X40.005 Y35.44
G1 F1800 X40.005 Y33.506 E33.01077
G0 F3600 X159.022 Y35.6
G1 F1800 X159.025 Y35.566 E33.01247
G1 X159.238 Y34.717 E33.05614
G1 X159.601 Y33.835 E33.10373
G1 X160.001 Y33.188 E33.14168
G1 X160.094 Y33.045 E33.15019
G1 X160.632 Y32.417 E33.19144
G1 X161.323 Y31.825 E33.23684
G1 X162.098 Y31.338 E33.2825
G1 X162.968 Y30.988 E33.32929
G1 X163.907 Y30.76 E33.3775
G1 X164.668 Y30.7 E33.41558
G1 X167.69 Y30.7 E33.56635
G1 X168.689 Y30.781 E33.61635
G1 X169.512 Y30.979 E33.65858
G1 X170.334 Y31.318 E33.70295
G1 X171.235 Y31.866 E33.75556
G1 X171.833 Y32.378 E33.79483
G1 X172.435 Y33.087 E33.84124
G1 X172.921 Y33.876 E33.88747
G1 X173.272 Y34.731 E33.93358
G1 X173.48 Y35.6 E33.97816
G1 X159.022 Y35.6 E34.69947
G0 F3600 X160.02 Y35.44
G1 F1800 X160.02 Y33.461 E34.7982
G0 F3600 X159.43 Y34.671
G1 F1800 X173.075 Y34.671 E35.47895
G0 F3600 X170.688 Y35.44
G1 F1800 X170.688 Y31.721 E35.6645
G0 F3600 X171.152 Y32.004
G1 F1800 X161.36 Y32.004 E36.15302
G0 F3600 X162.687 Y31.274
G1 F1800 X162.687 Y35.44 E36.36086
G0 F3600 X165.354 Y35.44
G1 F1800 X165.354 Y30.86 E36.58936
G0 F3600 X168.021 Y30.887
G1 F1800 X168.021 Y35.44 E36.81651
G1 F1500 E30.31651
G0 F3600 X173.907 Y35.839
G0 X174.411 Y163.657
G0 X173.472 Y164.4
G1 F1500 E36.81651
G1 F1800 X173.254 Y165.324 E36.86388
G1 X172.908 Y166.149 E36.90851
G1 X172.433 Y166.919 E36.95364
G1 X171.834 Y167.618 E36.99957
G1 X171.211 Y168.157 E37.04067
G1 X170.375 Y168.667 E37.08953
G1 X169.506 Y169.025 E37.13642
G1 X168.603 Y169.239 E37.18272
G1 X167.86 Y169.3 E37.21991
G1 X164.659 Y169.3 E37.37961
G1 X163.919 Y169.238 E37.41666
G1 X162.922 Y169.004 E37.46775
G1 X162.109 Y168.665 E37.51169
G1 X161.353 Y168.202 E37.55592
G1 X160.624 Y167.575 E37.60389
G1 X160.088 Y166.94 E37.64535
G1 X159.803 Y166.5 E37.6715
G1 X159.576 Y166.127 E37.69329
G1 X159.244 Y165.316 E37.73701
G1 X159.025 Y164.4 E37.784
G1 X173.472 Y164.4 E38.50476
G0 F3600 X173.068 Y165.354
G1 F1800 X159.432 Y165.354 E39.18506
G0 F3600 X160.02 Y164.56
G1 F1800 X160.02 Y166.539 E39.2838
G0 F3600 X161.388 Y168.021
G1 F1800 X171.123 Y168.021 E39.76948
G0 F3600 X170.688 Y168.289
G1 F1800 X170.688 Y164.56 E39.95552
G0 F3600 X168.021 Y164.56
G1 F1800 X168.021 Y169.127 E40.18337
G0 F3600 X165.354 Y169.14
G1 F1800 X165.354 Y164.56 E40.41186
G0 F3600 X162.687 Y164.56
G1 F1800 X162.687 Y168.732 E40.62001
G0 F3600 X40.968 Y164.4
G1 F1800 X40.966 Y164.435 E40.62175
G1 X40.752 Y165.33 E40.66766
G1 X40.422 Y166.127 E40.7107
G1 X39.933 Y166.917 E40.75705
G1 X39.342 Y167.607 E40.80238
G1 X38.696 Y168.165 E40.84497
G1 X37.868 Y168.668 E40.8933
G1 X36.998 Y169.028 E40.94027
G1 X36.109 Y169.24 E40.98587
G1 X35.375 Y169.3 E41.02261
G1 X32.135 Y169.3 E41.18426
G1 X31.432 Y169.242 E41.21945
G1 X30.437 Y169.007 E41.27045
G1 X29.597 Y168.658 E41.31584
G1 X28.843 Y168.196 E41.35995
G1 X28.132 Y167.586 E41.40669
G1 X27.585 Y166.943 E41.44881
G1 X27.354 Y166.579 E41.47032
G1 X27.087 Y166.14 E41.49595
G1 X26.741 Y165.293 E41.5416
G1 X26.525 Y164.4 E41.58743
G1 X40.968 Y164.4 E42.308
G0 F3600 X40.005 Y164.56
G1 F1800 X40.005 Y166.498 E42.40469
G0 F3600 X40.566 Y165.354
G1 F1800 X26.938 Y165.354 E43.08459
G0 F3600 X29.337 Y164.56
G1 F1800 X29.337 Y168.31 E43.27168
G0 F3600 X28.883 Y168.021
G1 F1800 X38.617 Y168.021 E43.75731
G0 F3600 X37.338 Y168.714
G1 F1800 X37.338 Y164.56 E43.96455
G0 F3600 X34.671 Y164.56
G1 F1800 X34.671 Y169.14 E44.19305
G0 F3600 X32.004 Y169.129
G1 F1800 X32.004 Y164.56 E44.421
G1 F1500 E37.921
;MESH:acheng31_base_platform.STL
G0 F3600 X32.004 Y162.88
G0 X31.563 Y144.674
G0 X31.775 Y143.569
G0 X32.352 Y142.836
G0 X33.136 Y142.327
G0 X33.164 Y142.422
;TYPE:WALL-INNER
G1 F1500 E44.421
G1 F1800 X32.522 Y142.74 E44.45674
G1 X32.189 Y143.028 E44.47871
G1 X31.81 Y143.587 E44.5124
G1 X31.66 Y143.998 E44.53423
G1 X31.602 Y144.673 E44.56803
G1 X31.671 Y145.105 E44.58985
G1 X31.95 Y145.723 E44.62368
G1 X32.221 Y146.065 E44.64545
G1 X32.764 Y146.468 E44.67919
G1 X33.168 Y146.635 E44.701
G1 X33.865 Y146.726 E44.73607
G1 X34.591 Y146.577 E44.77304
G1 X35.203 Y146.207 E44.80872
G1 X35.512 Y145.892 E44.83074
G1 X35.843 Y145.301 E44.86453
G1 X35.957 Y144.879 E44.88634
G1 X35.957 Y144.159 E44.92226
G1 X35.725 Y143.498 E44.95721
G1 X35.483 Y143.134 E44.97902
G1 X34.978 Y142.686 E45.0127
G1 X34.588 Y142.485 E45.03459
G1 X33.901 Y142.335 E45.06967
G1 X33.164 Y142.422 E45.10669
G0 F3600 X33.136 Y142.327
G0 X81.396 Y141.057
G0 X81.424 Y141.152
G1 F1800 X80.782 Y141.47 E45.14244
G1 X80.449 Y141.758 E45.1644
G1 X80.07 Y142.317 E45.19809
G1 X79.92 Y142.728 E45.21992
G1 X79.862 Y143.403 E45.25372
G1 X79.931 Y143.835 E45.27555
G1 X80.21 Y144.453 E45.30938
G1 X80.481 Y144.795 E45.33115
G1 X81.024 Y145.198 E45.36488
G1 X81.428 Y145.365 E45.38669
G1 X82.125 Y145.456 E45.42176
G1 X82.851 Y145.307 E45.45874
G1 X83.463 Y144.937 E45.49442
G1 X83.772 Y144.622 E45.51643
G1 X84.103 Y144.031 E45.55022
G1 X84.217 Y143.609 E45.57203
G1 X84.217 Y142.889 E45.60795
G1 X83.985 Y142.228 E45.6429
G1 X83.743 Y141.864 E45.66471
G1 X83.238 Y141.416 E45.69839
G1 X82.848 Y141.215 E45.72028
G1 X82.161 Y141.065 E45.75536
G1 X81.424 Y141.152 E45.79239
G0 F3600 X81.396 Y141.057
G0 X113.107 Y120.287
G0 X113.204 Y120.263
G1 F1800 X113.493 Y120.915 E45.82797
G1 X113.982 Y121.433 E45.86351
G1 X114.615 Y121.759 E45.89903
G1 X115.321 Y121.857 E45.93459
G1 X116.018 Y121.713 E45.9701
G1 X116.629 Y121.345 E46.00568
G1 X117.081 Y120.794 E46.04124
G1 X117.314 Y120.15 E46.0754
G1 X117.353 Y119.744 E46.09575
G1 X117.244 Y119.065 E46.13006
G1 X116.902 Y118.441 E46.16556
G1 X116.371 Y117.965 E46.20114
G1 X115.714 Y117.694 E46.2366
G1 X115 Y117.656 E46.27227
G1 X114.318 Y117.86 E46.30778
G1 X113.742 Y118.277 E46.34326
G1 X113.338 Y118.865 E46.37885
G1 X113.152 Y119.552 E46.41436
G1 X113.204 Y120.263 E46.44993
G0 F3600 X113.107 Y120.287
G0 X113.302 Y118.849
G0 X113.88 Y118.13
G0 X121.107 Y113.537
G0 X121.204 Y113.513
G1 F1800 X121.493 Y114.165 E46.48551
G1 X121.982 Y114.683 E46.52105
G1 X122.615 Y115.009 E46.55657
G1 X123.321 Y115.107 E46.59213
G1 X124.018 Y114.963 E46.62764
G1 X124.629 Y114.595 E46.66322
G1 X125.081 Y114.044 E46.69878
G1 X125.314 Y113.4 E46.73295
G1 X125.353 Y112.994 E46.7533
G1 X125.244 Y112.315 E46.7876
G1 X124.902 Y111.691 E46.82311
G1 X124.371 Y111.215 E46.85868
G1 X123.714 Y110.944 E46.89414
G1 X123 Y110.906 E46.92981
G1 X122.318 Y111.11 E46.96533
G1 X121.742 Y111.527 E47.0008
G1 X121.338 Y112.115 E47.0364
G1 X121.152 Y112.802 E47.0719
G1 X121.204 Y113.513 E47.10747
G0 F3600 X121.107 Y113.537
G0 X97.897 Y105.235
G0 X97.043 Y104.805
G0 X96.273 Y104.235
G0 X95.611 Y103.544
G0 X95.076 Y102.751
G0 X94.682 Y101.88
G0 X94.439 Y100.953
G0 X94.38 Y99.037
G0 X94.478 Y99.053
G1 F1800 X94.398 Y100 E47.15489
G1 X94.478 Y100.947 E47.2023
G1 X94.719 Y101.867 E47.24975
G1 X95.11 Y102.732 E47.29711
G1 X95.642 Y103.519 E47.3445
G1 X96.299 Y104.205 E47.39189
G1 X97.063 Y104.771 E47.43932
G1 X97.911 Y105.198 E47.48669
G1 X98.82 Y105.476 E47.53412
G1 X99.762 Y105.597 E47.5815
G1 X100.711 Y105.557 E47.62889
G1 X101.641 Y105.357 E47.67635
G1 X102.522 Y105.002 E47.72373
G1 X103.331 Y104.504 E47.77113
G1 X104.045 Y103.877 E47.81853
G1 X104.642 Y103.137 E47.86597
G1 X105.105 Y102.308 E47.91334
G1 X105.422 Y101.412 E47.96076
G1 X105.582 Y100.475 E48.00818
G1 X105.584 Y99.569 E48.05338
G1 X105.577 Y99.496 E48.05704
G1 X105.422 Y98.588 E48.103
G1 X105.105 Y97.692 E48.15041
G1 X104.642 Y96.863 E48.19779
G1 X104.045 Y96.123 E48.24522
G1 X103.331 Y95.496 E48.29263
G1 X102.522 Y94.998 E48.34002
G1 X101.641 Y94.643 E48.38741
G1 X100.711 Y94.443 E48.43487
G1 X99.762 Y94.403 E48.48226
G1 X98.82 Y94.524 E48.52964
G1 X97.911 Y94.802 E48.57706
G1 X97.063 Y95.229 E48.62443
G1 X96.299 Y95.795 E48.67187
G1 X95.642 Y96.481 E48.71926
G1 X95.11 Y97.268 E48.76665
G1 X94.719 Y98.133 E48.81401
G1 X94.478 Y99.053 E48.86146
G0 F3600 X94.38 Y99.037
G0 X67.621 Y90.378
G0 X66.156 Y90.257
G0 X66.184 Y90.352
G1 F1800 X65.542 Y90.67 E48.8972
G1 X65.209 Y90.958 E48.91917
G1 X64.83 Y91.517 E48.95286
G1 X64.68 Y91.928 E48.97469
G1 X64.622 Y92.603 E49.00849
G1 X64.691 Y93.035 E49.03031
G1 X64.97 Y93.653 E49.06414
G1 X65.241 Y93.995 E49.08591
G1 X65.784 Y94.398 E49.11965
G1 X66.188 Y94.565 E49.14146
G1 X66.885 Y94.656 E49.17653
G1 X67.611 Y94.507 E49.2135
G1 X68.223 Y94.137 E49.24918
G1 X68.532 Y93.822 E49.27119
G1 X68.863 Y93.231 E49.30499
G1 X68.977 Y92.809 E49.3268
G1 X68.977 Y92.089 E49.36272
G1 X68.745 Y91.428 E49.39767
G1 X68.503 Y91.064 E49.41948
G1 X67.998 Y90.616 E49.45316
G1 X67.608 Y90.415 E49.47504
G1 X66.921 Y90.265 E49.51013
G1 X66.184 Y90.352 E49.54715
G0 F3600 X66.156 Y90.257
G0 X38.216 Y90.257
G0 X38.244 Y90.352
G1 F1800 X37.602 Y90.67 E49.58289
